; generated by PrusaSlicer 2.7.0+win64 on 2023-12-09 at 08:27:46 UTC

; 

; external perimeters extrusion width = 0.42mm
; perimeters extrusion width = 0.44mm
; infill extrusion width = 0.44mm
; solid infill extrusion width = 0.44mm
; top infill extrusion width = 0.40mm
; first layer extrusion width = 0.42mm


; printing object 5-7 Plate.stl id:0 copy 0
; stop printing object 5-7 Plate.stl id:0 copy 0

;TYPE:Custom
G90 ; use absolute coordinates
M83 ; extruder relative mode
M104 S150 ; set temporary nozzle temp to prevent oozing during homing
M140 S70 ; set final bed temp
G4 S30 ; allow partial nozzle warmup
G28 ; home all axis
G1 Z50 F240
G1 X2.0 Y10 F3000
M104 S240 ; set final nozzle temp
M190 S70 ; wait for bed temp to stabilize
M109 S240 ; wait for nozzle temp to stabilize
G1 Z0.28 F240
G92 E0
G1 X2.0 Y140 E10 F1500 ; prime the nozzle
G1 X2.3 Y140 F5000
G92 E0
G1 X2.3 Y10 E10 F1200 ; prime the nozzle
G92 E0
G21 ; set units to millimeters
G90 ; use absolute coordinates
M83 ; use relative distances for extrusion
; Filament gcode
M107
;LAYER_CHANGE
;Z:0.2
;HEIGHT:0.2
;BEFORE_LAYER_CHANGE
G92 E0
;0.2


G1 E-5 F3600
G1 Z.2 F9000
;AFTER_LAYER_CHANGE
;0.2
G1 X68.62 Y83.915
G1 Z.2
G1 E5 F2400
M204 S500
;TYPE:Skirt/Brim
;WIDTH:0.42
G1 F1200
G1 X126.712 Y36.411 E2.35289
G1 X128.306 Y35.693 E.05481
G1 X178.639 Y27.474 E1.59906
G1 X180.379 Y27.648 E.05483
G1 X207.648 Y37.966 E.91416
G1 X208.989 Y38.895 E.05115
G1 X209.786 Y40.581 E.05847
G1 X214.484 Y69.356 E.91417
G1 X214.31 Y71.095 E.0548
G1 X196.261 Y118.795 E1.59909
G1 X195.24 Y120.214 E.05481
G1 X104.288 Y194.589 E3.68382
G1 X102.694 Y195.307 E.05481
G1 X52.361 Y203.526 E1.59906
G1 X50.621 Y203.352 E.05483
G1 X23.352 Y193.034 E.91416
G1 X22.011 Y192.105 E.05115
G1 X21.214 Y190.419 E.05847
G1 X16.516 Y161.644 E.91417
G1 X16.69 Y159.905 E.0548
G1 X34.739 Y112.205 E1.59909
G1 X35.76 Y110.786 E.05481
G1 X68.574 Y83.953 E1.32906
; printing object 5-7 Plate.stl id:0 copy 0
G1 E-3.5 F3600
;WIPE_START
G1 F7200
G1 X68.62 Y83.915 E-.02834
G1 X71.018 Y81.954 E-1.47166
;WIPE_END
G1 X186.701 Y34.795 F9000
G1 E5 F2400
;TYPE:Perimeter
;WIDTH:0.430946
G1 F1200
G1 X186.019 Y34.93 E.02243
;WIDTH:0.419999
G1 X185.642 Y35.393 E.01872
G1 X184.826 Y37.549 E.07228
G1 X183.052 Y38.349 E.06102
G1 X180.751 Y37.479 E.07713
G1 X180.593 Y37.434 E.00515
G1 X180.265 Y37.43 E.01028
G1 X180.033 Y37.499 E.00759
G1 X179.82 Y37.631 E.00786
G1 X163.175 Y51.242 E.67416
G1 X163.024 Y51.397 E.00678
G1 X162.851 Y51.768 E.01283
G1 X162.841 Y52.124 E.01117
G1 X163.238 Y54.552 E.07714
G1 X162.101 Y56.133 E.06106
G1 X159.702 Y56.533 E.07626
G1 X159.377 Y56.708 E.01157
G1 X159.172 Y56.945 E.00983
G1 X159.041 Y57.325 E.0126
G1 X159.047 Y57.586 E.00819
G1 X160.972 Y69.373 E.37447
G1 X160.988 Y69.454 E.00259
G1 X161.184 Y69.832 E.01335
G1 X161.426 Y70.035 E.0099
G1 X161.687 Y70.139 E.00881
G1 X162.054 Y70.152 E.01151
G1 X164.329 Y69.78 E.07228
G1 X165.91 Y70.917 E.06106
G1 X166.325 Y73.433 E.07995
G1 X166.445 Y73.704 E.00929
G1 X166.667 Y73.944 E.01025
G1 X166.903 Y74.075 E.00846
G1 X169.204 Y74.945 E.07713
G1 X170.005 Y76.72 E.06106
G1 X169.153 Y78.992 E.07608
G1 X169.131 Y79.286 E.00924
G1 X169.231 Y79.64 E.01153
G1 X169.496 Y79.958 E.01298
G1 X169.737 Y80.092 E.00865
G1 X180.907 Y84.319 E.37447
G1 X180.985 Y84.344 E.00257
G1 X181.387 Y84.368 E.01263
G1 X181.683 Y84.269 E.00979
G1 X181.922 Y84.088 E.0094
G1 X182.12 Y83.775 E.01161
G1 X182.938 Y81.614 E.07245
G1 X184.713 Y80.814 E.06105
G1 X187.014 Y81.684 E.07713
G1 X187.365 Y81.745 E.01117
G1 X187.762 Y81.649 E.01281
G1 X187.944 Y81.532 E.00678
G1 X189.849 Y79.975 E.07714
G1 X191.786 Y80.169 E.06104
G1 X193.245 Y81.954 E.07228
G1 X193.749 Y82.273 E.0187
G1 X194.571 Y82.086 E.02643
G1 X187.962 Y87.488 E.26763
G1 X187.461 Y87.939 E.02114
G1 X187.309 Y88.272 E.01148
G1 X187.296 Y88.642 E.01161
G1 X188.742 Y97.49 E.2811
G1 X188.25 Y96.806 E.02642
G1 X187.662 Y96.711 E.01868
G1 X185.386 Y97.082 E.0723
G1 X183.806 Y95.946 E.06102
G1 X183.409 Y93.518 E.07714
G1 X183.35 Y93.31 E.00678
G1 X183.116 Y92.975 E.01281
G1 X182.812 Y92.788 E.01119
G1 X180.511 Y91.917 E.07714
G1 X179.711 Y90.142 E.06105
G1 X180.564 Y87.865 E.07624
G1 X180.575 Y87.495 E.01161
G1 X180.472 Y87.199 E.00983
G1 X180.208 Y86.896 E.0126
G1 X179.979 Y86.771 E.00818
G1 X168.809 Y82.544 E.37447
G1 X168.54 Y82.485 E.00863
G1 X168.305 Y82.499 E.00738
G1 X168.009 Y82.607 E.00988
G1 X167.788 Y82.78 E.0088
G1 X167.594 Y83.092 E.01152
G1 X166.778 Y85.249 E.07231
G1 X165.003 Y86.049 E.06105
G1 X162.616 Y85.15 E.07997
G1 X162.321 Y85.118 E.0093
G1 X162.002 Y85.191 E.01026
G1 X161.771 Y85.33 E.00845
G1 X145.067 Y98.994 E.67665
G1 X144.884 Y99.241 E.00964
G1 X144.787 Y99.554 E.01027
G1 X144.792 Y99.823 E.00844
G1 X145.189 Y102.251 E.07714
G1 X144.052 Y103.832 E.06106
G1 X141.659 Y104.231 E.07607
G1 X141.393 Y104.358 E.00924
G1 X141.137 Y104.622 E.01153
G1 X140.994 Y105.01 E.01297
G1 X140.998 Y105.286 E.00865
G1 X142.94 Y117.153 E.37703
G1 X143.12 Y117.514 E.01265
G1 X143.354 Y117.72 E.00977
G1 X143.63 Y117.837 E.0094
G1 X144 Y117.852 E.01161
G1 X146.281 Y117.48 E.07246
G1 X147.861 Y118.616 E.06102
G1 X148.212 Y120.768 E.06837
G1 X148.3 Y121.21 E.01413
G1 X148.501 Y121.539 E.01209
G1 X148.854 Y121.774 E.0133
G1 X151.155 Y122.645 E.07714
G1 X151.956 Y124.42 E.06106
G1 X151.14 Y126.576 E.07228
G1 X151.116 Y127.172 E.0187
G1 X151.688 Y127.79 E.0264
G1 X143.705 Y124.767 E.26765
G1 X143.064 Y124.559 E.02113
G1 X142.7 Y124.594 E.01147
G1 X142.373 Y124.767 E.0116
G1 X136.162 Y129.847 E.25158
;WIDTH:0.430944
G1 X135.556 Y130.335 E.0251
G1 X135.78 Y129.676 E.02246
;WIDTH:0.419999
G1 X135.568 Y129.119 E.01869
G1 X134.109 Y127.334 E.07228
G1 X134.303 Y125.397 E.06104
G1 X136.207 Y123.839 E.07714
G1 X136.358 Y123.684 E.00678
G1 X136.531 Y123.314 E.01281
G1 X136.541 Y122.958 E.01117
G1 X136.145 Y120.53 E.07713
G1 X137.281 Y118.949 E.06104
G1 X139.68 Y118.549 E.07626
G1 X140.006 Y118.374 E.0116
G1 X140.211 Y118.136 E.00985
G1 X140.341 Y117.756 E.01259
G1 X140.335 Y117.495 E.00819
G1 X138.411 Y105.708 E.37446
G1 X138.327 Y105.446 E.00863
G1 X138.198 Y105.249 E.00738
G1 X137.956 Y105.047 E.00988
G1 X137.696 Y104.943 E.00878
G1 X137.328 Y104.93 E.01155
G1 X135.053 Y105.301 E.07227
G1 X133.472 Y104.165 E.06104
G1 X133.057 Y101.649 E.07995
G1 X132.938 Y101.377 E.00931
G1 X132.715 Y101.137 E.01027
G1 X132.479 Y101.007 E.00845
G1 X130.178 Y100.136 E.07714
G1 X129.378 Y98.361 E.06105
G1 X130.229 Y96.089 E.07607
G1 X130.252 Y95.796 E.00922
G1 X130.151 Y95.442 E.01154
G1 X129.886 Y95.124 E.01298
G1 X129.646 Y94.99 E.00862
G1 X118.476 Y90.763 E.37447
G1 X118.221 Y90.705 E.0082
G1 X117.995 Y90.714 E.00709
G1 X117.699 Y90.813 E.00979
G1 X117.46 Y90.994 E.0094
G1 X117.262 Y91.306 E.01159
G1 X116.444 Y93.468 E.07248
G1 X114.669 Y94.268 E.06105
G1 X112.63 Y93.496 E.06836
G1 X112.203 Y93.351 E.01414
G1 X111.818 Y93.361 E.01208
G1 X111.438 Y93.549 E.01329
G1 X94.793 Y107.161 E.67418
G1 X94.642 Y107.316 E.00678
G1 X94.469 Y107.686 E.01281
G1 X94.459 Y108.042 E.01117
G1 X94.855 Y110.47 E.07713
G1 X93.719 Y112.051 E.06104
G1 X91.32 Y112.451 E.07626
G1 X90.994 Y112.626 E.0116
G1 X90.789 Y112.864 E.00985
G1 X90.659 Y113.244 E.01259
G1 X90.665 Y113.505 E.00819
G1 X92.606 Y125.372 E.37703
G1 X92.802 Y125.751 E.01338
G1 X93.044 Y125.953 E.00988
G1 X93.304 Y126.058 E.00879
G1 X93.672 Y126.07 E.01154
G1 X95.947 Y125.699 E.07227
G1 X97.528 Y126.835 E.06104
G1 X97.943 Y129.351 E.07995
G1 X98.062 Y129.623 E.00931
G1 X98.285 Y129.863 E.01027
G1 X98.521 Y129.993 E.00845
G1 X100.822 Y130.864 E.07714
G1 X101.622 Y132.639 E.06105
G1 X100.771 Y134.911 E.07607
G1 X100.748 Y135.204 E.00922
G1 X100.849 Y135.558 E.01154
G1 X101.114 Y135.876 E.01298
G1 X101.354 Y136.01 E.00862
G1 X112.603 Y140.263 E.37707
G1 X113.005 Y140.286 E.01263
G1 X113.301 Y140.187 E.00979
G1 X113.54 Y140.006 E.0094
G1 X113.738 Y139.694 E.01159
G1 X114.556 Y137.532 E.07248
G1 X116.331 Y136.732 E.06105
G1 X118.632 Y137.603 E.07714
G1 X118.983 Y137.664 E.01117
G1 X119.38 Y137.568 E.01281
G1 X119.562 Y137.451 E.00678
G1 X121.467 Y135.893 E.07716
G1 X123.404 Y136.088 E.06104
G1 X124.863 Y137.873 E.07228
G1 X125.367 Y138.191 E.01869
G1 X126.189 Y138.004 E.02643
G1 X119.579 Y143.407 E.26768
G1 X119.079 Y143.858 E.02111
G1 X118.927 Y144.19 E.01145
G1 X118.914 Y144.56 E.01161
G1 X120.36 Y153.408 E.2811
G1 X119.868 Y152.724 E.02642
G1 X119.28 Y152.629 E.01868
G1 X117.004 Y153.001 E.07231
G1 X115.423 Y151.864 E.06106
G1 X115.027 Y149.436 E.07713
G1 X114.968 Y149.228 E.00678
G1 X114.734 Y148.893 E.01281
G1 X114.43 Y148.706 E.01119
G1 X112.129 Y147.836 E.07713
G1 X111.329 Y146.061 E.06105
G1 X112.181 Y143.784 E.07623
G1 X112.193 Y143.414 E.01161
G1 X112.09 Y143.118 E.00983
G1 X111.826 Y142.814 E.01262
G1 X111.597 Y142.689 E.00818
G1 X100.427 Y138.462 E.37447
G1 X100.157 Y138.404 E.00866
G1 X99.923 Y138.417 E.00735
G1 X99.626 Y138.525 E.00991
G1 X99.406 Y138.699 E.00879
G1 X99.211 Y139.011 E.01154
G1 X98.395 Y141.167 E.07228
G1 X96.621 Y141.967 E.06102
G1 X94.234 Y141.069 E.07996
G1 X93.939 Y141.037 E.0093
G1 X93.62 Y141.11 E.01026
G1 X93.389 Y141.249 E.00845
G1 X76.685 Y154.912 E.67663
G1 X76.502 Y155.16 E.00966
G1 X76.405 Y155.472 E.01024
G1 X76.41 Y155.742 E.00847
G1 X76.807 Y158.17 E.07714
G1 X75.67 Y159.75 E.06103
G1 X73.277 Y160.149 E.07607
G1 X73.011 Y160.276 E.00924
G1 X72.755 Y160.54 E.01153
G1 X72.612 Y160.929 E.01299
G1 X72.616 Y161.204 E.00862
G1 X74.557 Y173.072 E.37706
G1 X74.738 Y173.432 E.01263
G1 X74.972 Y173.639 E.0098
G1 X75.248 Y173.755 E.00939
G1 X75.618 Y173.77 E.01161
G1 X77.898 Y173.398 E.07243
G1 X79.479 Y174.535 E.06106
G1 X79.83 Y176.687 E.06837
G1 X79.918 Y177.129 E.01413
G1 X80.119 Y177.457 E.01206
G1 X80.472 Y177.693 E.01331
G1 X82.773 Y178.563 E.07713
G1 X83.574 Y180.338 E.06106
G1 X82.758 Y182.495 E.07231
G1 X82.734 Y183.09 E.01867
G1 X83.306 Y183.708 E.0264
G1 X75.323 Y180.686 E.26764
G1 X74.682 Y180.478 E.02113
G1 X74.318 Y180.512 E.01146
G1 X73.991 Y180.686 E.01161
G1 X67.779 Y185.766 E.25161
;WIDTH:0.430952
G1 X67.174 Y186.253 E.02506
G1 X67.398 Y185.595 E.02243
;WIDTH:0.419999
G1 X67.186 Y185.037 E.01872
G1 X65.726 Y183.252 E.0723
G1 X65.921 Y181.315 E.06104
G1 X67.825 Y179.758 E.07712
G1 X67.976 Y179.603 E.00678
G1 X68.149 Y179.232 E.01283
G1 X68.159 Y178.876 E.01117
G1 X67.762 Y176.448 E.07714
G1 X68.899 Y174.867 E.06106
G1 X71.298 Y174.467 E.07626
G1 X71.623 Y174.292 E.01157
G1 X71.828 Y174.055 E.00983
G1 X71.959 Y173.675 E.0126
G1 X71.953 Y173.414 E.00819
G1 X70.028 Y161.627 E.37447
G1 X69.945 Y161.364 E.00865
G1 X69.816 Y161.168 E.00736
G1 X69.574 Y160.965 E.0099
G1 X69.313 Y160.861 E.00881
G1 X68.946 Y160.848 E.01151
G1 X66.671 Y161.22 E.07228
G1 X65.09 Y160.083 E.06106
G1 X64.675 Y157.567 E.07995
G1 X64.555 Y157.296 E.00929
G1 X64.333 Y157.056 E.01025
G1 X64.097 Y156.925 E.00846
G1 X61.796 Y156.055 E.07713
G1 X60.995 Y154.28 E.06106
G1 X61.847 Y152.008 E.07608
G1 X61.869 Y151.714 E.00924
G1 X61.769 Y151.36 E.01153
G1 X61.504 Y151.042 E.01298
G1 X61.263 Y150.908 E.00865
G1 X50.093 Y146.681 E.37447
G1 X49.839 Y146.624 E.00816
G1 X49.613 Y146.632 E.00709
G1 X49.317 Y146.731 E.00979
G1 X49.078 Y146.912 E.0094
G1 X48.88 Y147.225 E.01161
G1 X48.062 Y149.386 E.07245
G1 X46.287 Y150.186 E.06105
G1 X44.248 Y149.415 E.06835
G1 X43.821 Y149.27 E.01414
G1 X43.436 Y149.28 E.01208
G1 X43.056 Y149.468 E.01329
G1 X26.41 Y163.079 E.67419
G1 X26.293 Y163.193 E.00512
G1 X26.125 Y163.475 E.01029
G1 X26.07 Y163.711 E.0076
G1 X26.077 Y163.961 E.00784
G1 X26.473 Y166.389 E.07713
G1 X25.336 Y167.969 E.06103
G1 X23.061 Y168.341 E.07228
G1 X22.533 Y168.618 E.01869
G1 X22.284 Y169.423 E.02642
G1 X20.998 Y161.535 E.25059
G1 X43.038 Y143.512 E.89268
G1 X43.539 Y143.061 E.02114
G1 X43.691 Y142.728 E.01148
G1 X43.704 Y142.358 E.01161
G1 X42.411 Y134.439 E.25158
;WIDTH:0.430944
G1 X42.291 Y133.671 E.02508
G1 X42.75 Y134.194 E.02245
;WIDTH:0.419999
G1 X43.338 Y134.289 E.01868
G1 X45.614 Y133.918 E.0723
G1 X47.194 Y135.054 E.06102
G1 X47.591 Y137.482 E.07714
G1 X47.65 Y137.69 E.00678
G1 X47.884 Y138.025 E.01281
G1 X48.188 Y138.212 E.01119
G1 X50.489 Y139.083 E.07714
G1 X51.289 Y140.858 E.06105
G1 X50.436 Y143.135 E.07624
G1 X50.425 Y143.505 E.01161
G1 X50.528 Y143.801 E.00983
G1 X50.792 Y144.104 E.0126
G1 X51.021 Y144.229 E.00818
G1 X62.269 Y148.482 E.37704
G1 X62.695 Y148.501 E.01337
G1 X62.991 Y148.393 E.00988
G1 X63.212 Y148.22 E.0088
G1 X63.406 Y147.908 E.01152
G1 X64.222 Y145.751 E.07231
G1 X65.997 Y144.951 E.06105
G1 X68.384 Y145.85 E.07997
G1 X68.679 Y145.882 E.0093
G1 X68.998 Y145.809 E.01026
G1 X69.229 Y145.67 E.00845
G1 X71.133 Y144.112 E.07714
G1 X73.07 Y144.307 E.06104
G1 X74.612 Y146.18 E.07607
G1 X74.926 Y146.376 E.01161
G1 X75.273 Y146.437 E.01105
G1 X75.574 Y146.384 E.00958
G1 X75.856 Y146.225 E.01015
G1 X85.102 Y138.664 E.37449
G1 X85.219 Y138.55 E.00512
G1 X85.383 Y138.278 E.00996
G1 X85.446 Y137.994 E.00912
G1 X85.404 Y137.651 E.01083
G1 X85.235 Y137.338 E.01115
G1 X83.775 Y135.553 E.0723
G1 X83.969 Y133.616 E.06104
G1 X85.941 Y131.998 E.07998
G1 X86.116 Y131.759 E.00929
G1 X86.213 Y131.446 E.01027
G1 X86.208 Y131.177 E.00844
G1 X85.811 Y128.749 E.07714
G1 X86.948 Y127.168 E.06106
G1 X89.341 Y126.769 E.07607
G1 X89.607 Y126.642 E.00924
G1 X89.863 Y126.378 E.01153
G1 X90.006 Y125.99 E.01297
G1 X90.002 Y125.714 E.00865
G1 X88.077 Y113.927 E.37447
G1 X88 Y113.678 E.00817
G1 X87.88 Y113.486 E.0071
G1 X87.646 Y113.28 E.00977
G1 X87.37 Y113.163 E.0094
G1 X87 Y113.148 E.01161
G1 X84.719 Y113.52 E.07246
G1 X83.139 Y112.384 E.06102
G1 X82.788 Y110.232 E.06837
G1 X82.7 Y109.79 E.01413
G1 X82.499 Y109.461 E.01209
G1 X82.146 Y109.226 E.0133
G1 X79.845 Y108.355 E.07714
G1 X79.044 Y106.58 E.06106
G1 X79.86 Y104.424 E.07228
G1 X79.884 Y103.828 E.0187
G1 X79.312 Y103.21 E.0264
G1 X87.295 Y106.233 E.26765
G1 X87.936 Y106.441 E.02113
G1 X88.3 Y106.406 E.01147
G1 X88.627 Y106.233 E.0116
G1 X111.421 Y87.593 E.92323
G1 X111.921 Y87.142 E.02111
G1 X112.073 Y86.81 E.01145
G1 X112.086 Y86.44 E.01161
G1 X110.793 Y78.52 E.25161
;WIDTH:0.430942
G1 X110.673 Y77.752 E.02508
G1 X111.132 Y78.276 E.02248
;WIDTH:0.419999
G1 X111.721 Y78.371 E.01871
G1 X113.996 Y77.999 E.07228
G1 X115.577 Y79.136 E.06106
G1 X115.973 Y81.564 E.07713
G1 X116.032 Y81.772 E.00678
G1 X116.266 Y82.107 E.01281
G1 X116.57 Y82.294 E.01119
G1 X118.871 Y83.164 E.07713
G1 X119.671 Y84.939 E.06105
G1 X118.819 Y87.216 E.07623
G1 X118.807 Y87.586 E.01161
G1 X118.91 Y87.882 E.00983
G1 X119.174 Y88.186 E.01262
G1 X119.403 Y88.311 E.00818
G1 X130.573 Y92.538 E.37447
G1 X130.651 Y92.563 E.00257
G1 X131.077 Y92.583 E.01337
G1 X131.374 Y92.475 E.00991
G1 X131.594 Y92.301 E.00879
G1 X131.789 Y91.989 E.01154
G1 X132.605 Y89.833 E.07228
G1 X134.379 Y89.033 E.06102
G1 X136.766 Y89.931 E.07996
G1 X137.061 Y89.963 E.0093
G1 X137.38 Y89.89 E.01026
G1 X137.611 Y89.751 E.00845
G1 X139.515 Y88.194 E.07712
G1 X141.453 Y88.388 E.06107
G1 X142.994 Y90.262 E.07607
G1 X143.308 Y90.458 E.01161
G1 X143.655 Y90.519 E.01105
G1 X143.956 Y90.465 E.00959
G1 X144.239 Y90.306 E.01018
G1 X153.484 Y82.746 E.37445
G1 X153.601 Y82.632 E.00512
G1 X153.765 Y82.36 E.00996
G1 X153.828 Y82.075 E.00915
G1 X153.786 Y81.733 E.0108
G1 X153.617 Y81.419 E.01118
G1 X152.157 Y79.634 E.0723
G1 X152.352 Y77.697 E.06104
G1 X154.323 Y76.08 E.07994
G1 X154.498 Y75.84 E.00931
G1 X154.595 Y75.528 E.01024
G1 X154.59 Y75.258 E.00847
G1 X154.193 Y72.83 E.07714
G1 X155.33 Y71.25 E.06103
G1 X157.723 Y70.851 E.07607
G1 X157.989 Y70.724 E.00924
G1 X158.245 Y70.46 E.01153
G1 X158.388 Y70.071 E.01299
G1 X158.384 Y69.796 E.00862
G1 X156.459 Y58.009 E.37447
G1 X156.382 Y57.76 E.00817
G1 X156.262 Y57.568 E.0071
G1 X156.028 Y57.361 E.0098
G1 X155.752 Y57.245 E.00939
G1 X155.382 Y57.23 E.01161
G1 X153.102 Y57.602 E.07243
G1 X151.521 Y56.465 E.06106
G1 X151.17 Y54.313 E.06837
G1 X151.082 Y53.871 E.01413
G1 X150.881 Y53.543 E.01206
G1 X150.528 Y53.307 E.01331
G1 X148.227 Y52.437 E.07713
G1 X147.426 Y50.662 E.06106
G1 X148.242 Y48.505 E.07231
G1 X148.266 Y47.91 E.01867
G1 X147.694 Y47.292 E.0264
G1 X155.677 Y50.314 E.26764
G1 X156.318 Y50.522 E.02113
G1 X156.682 Y50.488 E.01146
