; generated by PrusaSlicer 2.6.1+win64 on 2023-11-05 at 05:09:55 UTC

; 

; external perimeters extrusion width = 0.45mm
; perimeters extrusion width = 0.45mm
; infill extrusion width = 0.45mm
; solid infill extrusion width = 0.45mm
; top infill extrusion width = 0.40mm
; support material extrusion width = 0.35mm
; first layer extrusion width = 0.42mm

M201 X500 Y500 Z100 E5000 ; sets maximum accelerations, mm/sec^2
M203 X500 Y500 Z10 E60 ; sets maximum feedrates, mm / sec
M204 S500 T1000 ; sets acceleration (S) and retract acceleration (R), mm/sec^2
M205 X8.00 Y8.00 Z0.40 E5.00 ; sets the jerk limits, mm/sec
M205 S0 T0 ; sets the minimum extruding and travel feed rate, mm/sec
;TYPE:Custom
G90 ; use absolute coordinates
M83 ; extruder relative mode
M104 S150 ; set temporary nozzle temp to prevent oozing during homing
M140 S70 ; set final bed temp
G4 S30 ; allow partial nozzle warmup
G28 ; home all axis
G1 Z50 F240
G1 X2.0 Y10 F3000
M104 S240 ; set final nozzle temp
M190 S70 ; wait for bed temp to stabilize
M109 S240 ; wait for nozzle temp to stabilize
G1 Z0.28 F240
G92 E0
G1 X2.0 Y140 E10 F1500 ; prime the nozzle
G1 X2.3 Y140 F5000
G92 E0
G1 X2.3 Y10 E10 F1200 ; prime the nozzle
G92 E0
G21 ; set units to millimeters
G90 ; use absolute coordinates
M83 ; use relative distances for extrusion
; Filament gcode
M107
;LAYER_CHANGE
;Z:0.35
;HEIGHT:0.35
;BEFORE_LAYER_CHANGE
G92 E0
;0.35


G1 E-5 F3600
G1 Z.35 F7800
;AFTER_LAYER_CHANGE
;0.35
G1 X79.434 Y79.434
G1 E5 F2400
;TYPE:Skirt/Brim
;WIDTH:0.42
G1 F1800
G1 X81.135 Y77.733 E.12073
G1 X82.977 Y76.452 E.1126
G1 X85.621 Y75.875 E.13581
G1 X145.379 Y75.875 E2.99901
G1 X147.587 Y76.272 E.11259
G1 X149.865 Y77.733 E.13582
G1 X151.623 Y79.491 E.12477
G1 X152.904 Y81.333 E.1126
G1 X153.481 Y83.977 E.13581
G1 X153.481 Y111.086 E1.36049
G1 X153.084 Y113.295 E.11264
G1 X152.566 Y114.37 E.05989
G1 X127.054 Y156.558 E2.47427
G1 X126.112 Y157.761 E.07668
G1 X124.354 Y159.519 E.12477
G1 X122.512 Y160.8 E.1126
G1 X119.868 Y161.377 E.13581
G1 X111.132 Y161.377 E.43842
G1 X108.924 Y160.98 E.11259
G1 X106.646 Y159.519 E.13582
G1 X104.888 Y157.761 E.12477
G1 X103.946 Y156.558 E.07668
G1 X78.434 Y114.37 E2.47427
G1 X77.631 Y112.274 E.11265
G1 X77.519 Y111.086 E.05989
G1 X77.519 Y83.977 E1.36049
G1 X77.916 Y81.769 E.11259
G1 X79.392 Y79.476 E.13686
G1 E-3.5 F3600
;WIPE_START
G1 F6240
G1 X81.135 Y77.733 E-1.351
G1 X81.358 Y77.578 E-.149
;WIPE_END
G1 X111.528 Y144.373 F7800
G1 E5 F2400
G1 F1800
G1 X112.311 Y144.192 E.04033
G1 X118.7 Y144.192 E.32064
G1 X119.52 Y144.394 E.04238
G1 X120.286 Y144.827 E.04416
G1 X120.655 Y145.211 E.02673
G1 X120.951 Y145.673 E.02754
G1 X121.169 Y146.288 E.03275
G1 X121.212 Y152.383 E.30589
G1 X121.018 Y153.092 E.03689
G1 X120.702 Y153.607 E.03032
G1 X120.238 Y154.077 E.03315
G1 X119.945 Y154.296 E.01836
G1 X118.985 Y154.619 E.05083
G1 X112.021 Y154.619 E.34949
G1 X111.315 Y154.425 E.03674
G1 X110.8 Y154.109 E.03032
G1 X110.33 Y153.645 E.03315
G1 X110.111 Y153.352 E.01836
G1 X109.788 Y152.392 E.05083
G1 X109.788 Y146.562 E.29258
G1 X109.992 Y145.798 E.03969
G1 X110.427 Y145.11 E.04085
G1 X110.928 Y144.675 E.0333
G1 X111.474 Y144.4 E.03068
G1 X111.627 Y144.709 F7800
G1 F1800
G1 X112.367 Y144.533 E.03817
G1 X118.679 Y144.537 E.31677
G1 X119.373 Y144.707 E.03586
G1 X120.056 Y145.085 E.03918
G1 X120.394 Y145.437 E.02449
G1 X120.649 Y145.84 E.02393
G1 X120.834 Y146.374 E.02836
G1 X120.867 Y152.36 E.30042
G1 X120.694 Y152.973 E.03197
G1 X120.421 Y153.406 E.02569
G1 X120.004 Y153.823 E.0296
G1 X119.762 Y154.003 E.01514
G1 X118.957 Y154.274 E.04263
G1 X112.046 Y154.274 E.34683
G1 X111.434 Y154.101 E.03192
G1 X111.001 Y153.828 E.02569
G1 X110.584 Y153.411 E.0296
G1 X110.404 Y153.169 E.01514
G1 X110.133 Y152.364 E.04263
G1 X110.133 Y146.586 E.28997
G1 X110.317 Y145.916 E.03487
G1 X110.702 Y145.32 E.03561
G1 X111.134 Y144.952 E.02848
G1 X111.573 Y144.735 E.02458
G1 X111.723 Y145.045 F7800
G1 F1800
G1 X111.793 Y145.011 E.00391
G1 X112.386 Y144.878 E.0305
G1 X118.659 Y144.882 E.31482
G1 X119.23 Y145.021 E.02949
G1 X119.828 Y145.345 E.03413
G1 X120.113 Y145.637 E.02048
G1 X120.346 Y146.006 E.0219
G1 X120.499 Y146.457 E.0239
G1 X120.522 Y152.335 E.295
G1 X120.37 Y152.851 E.027
G1 X120.164 Y153.176 E.01931
G1 X119.77 Y153.57 E.02796
G1 X119.58 Y153.709 E.01181
G1 X118.929 Y153.929 E.03449
G1 X112.071 Y153.929 E.34417
G1 X111.556 Y153.777 E.02695
G1 X111.231 Y153.571 E.01931
G1 X110.837 Y153.177 E.02796
G1 X110.698 Y152.987 E.01181
G1 X110.478 Y152.336 E.03449
G1 X110.478 Y146.611 E.28731
G1 X110.641 Y146.037 E.02995
G1 X110.974 Y145.533 E.03032
G1 X111.337 Y145.232 E.02367
G1 X111.669 Y145.071 E.01852
G1 X111.816 Y145.382 F7800
G1 F1800
G1 X111.922 Y145.331 E.0059
G1 X112.405 Y145.223 E.02484
G1 X118.638 Y145.227 E.31281
G1 X119.089 Y145.336 E.02329
G1 X119.603 Y145.608 E.02918
G1 X119.832 Y145.838 E.01629
G1 X120.043 Y146.172 E.01983
G1 X120.162 Y146.538 E.01931
G1 X120.177 Y152.309 E.28962
G1 X120.048 Y152.726 E.02191
G1 X119.907 Y152.944 E.01303
G1 X119.536 Y153.316 E.02637
G1 X119.399 Y153.415 E.00848
G1 X118.9 Y153.584 E.02644
G1 X112.098 Y153.584 E.34136
G1 X111.682 Y153.455 E.02186
G1 X111.463 Y153.315 E.01304
G1 X111.091 Y152.943 E.0264
G1 X110.992 Y152.806 E.00848
G1 X110.823 Y152.307 E.02644
G1 X110.823 Y146.637 E.28455
G1 X110.963 Y146.162 E.02485
G1 X111.244 Y145.75 E.02503
G1 X111.536 Y145.514 E.01884
G1 X111.762 Y145.407 E.01255
G1 X111.909 Y145.719 F7800
G1 F1800
G1 X112.053 Y145.651 E.00799
G1 X112.424 Y145.568 E.01908
G1 X118.617 Y145.572 E.3108
G1 X118.951 Y145.653 E.01725
G1 X119.381 Y145.873 E.02424
G1 X119.551 Y146.04 E.01196
G1 X119.739 Y146.336 E.0176
G1 X119.825 Y146.614 E.0146
G1 X119.832 Y152.28 E.28435
G1 X119.729 Y152.595 E.01663
G1 X119.651 Y152.713 E.0071
G1 X119.304 Y153.061 E.02466
G1 X119.221 Y153.118 E.00505
G1 X118.871 Y153.239 E.01859
G1 X112.127 Y153.239 E.33845
G1 X111.813 Y153.136 E.01658
G1 X111.694 Y153.059 E.00711
G1 X111.346 Y152.711 E.0247
G1 X111.289 Y152.628 E.00505
G1 X111.168 Y152.278 E.01859
G1 X111.168 Y146.661 E.28189
G1 X111.264 Y146.334 E.0171
G1 X111.514 Y145.966 E.02233
G1 X111.701 Y145.818 E.01197
G1 X111.855 Y145.745 E.00855
G1 X112.002 Y146.056 F7800
G1 F1800
G1 X112.183 Y145.971 E.01004
G1 X112.443 Y145.913 E.01337
G1 X118.596 Y145.917 E.30879
G1 X118.816 Y145.971 E.01137
G1 X119.165 Y146.143 E.01953
G1 X119.272 Y146.244 E.00738
G1 X119.433 Y146.498 E.01509
G1 X119.487 Y146.685 E.00977
G1 X119.487 Y152.248 E.27918
G1 X119.396 Y152.48 E.01251
G1 X119.073 Y152.803 E.02292
G1 X118.84 Y152.894 E.01255
G1 X112.16 Y152.894 E.33524
G1 X111.927 Y152.803 E.01255
G1 X111.604 Y152.48 E.02292
G1 X111.513 Y152.248 E.01251
G1 X111.513 Y146.685 E.27918
G1 X111.566 Y146.5 E.00966
G1 X111.755 Y146.213 E.01725
G1 X111.869 Y146.12 E.00738
G1 X111.948 Y146.082 E.0044
G1 X112.096 Y146.394 F7800
G1 F1800
G1 X112.313 Y146.291 E.01205
G1 X112.462 Y146.257 E.00767
G1 X118.574 Y146.262 E.30674
G1 X118.685 Y146.29 E.00575
G1 X118.959 Y146.42 E.01522
G1 X119.129 Y146.662 E.01484
G1 X119.142 Y146.709 E.00245
G1 X119.142 Y152.209 E.27602
G1 X119.116 Y152.273 E.00347
G1 X118.866 Y152.523 E.01774
G1 X118.802 Y152.549 E.00347
G1 X112.198 Y152.549 E.33143
G1 X112.134 Y152.523 E.00347
G1 X111.884 Y152.273 E.01774
G1 X111.858 Y152.209 E.00347
G1 X111.858 Y146.709 E.27602
G1 X112.005 Y146.452 E.01486
G1 X112.041 Y146.419 E.00245
G1 X112.256 Y146.699 F7800
G1 F1800
G1 X112.481 Y146.602 E.0123
G1 X118.519 Y146.602 E.30302
G1 X118.744 Y146.699 E.0123
G1 X118.797 Y146.784 E.00503
G1 X118.797 Y152.104 E.26699
G1 X118.696 Y152.205 E.00717
G1 X112.304 Y152.205 E.32079
G1 X112.203 Y152.104 E.00717
G1 X112.203 Y146.784 E.26699
G1 X112.224 Y146.75 E.00201
G1 E-3.5 F3600
;WIPE_START
G1 F6240
G1 X112.481 Y146.602 E-.16254
G1 X114.921 Y146.602 E-1.33746
;WIPE_END
G1 X100.187 Y112.24 F7800
G1 E5 F2400
G1 F1800
G1 X99.49 Y112.43 E.03626
G1 X86.508 Y112.43 E.65151
G1 X85.703 Y112.192 E.04213
G1 X85.342 Y111.959 E.02156
G1 X84.677 Y111.28 E.0477
G1 X84.468 Y110.895 E.02198
G1 X84.277 Y110.198 E.03627
G1 X84.277 Y84.864 E1.27141
G1 X84.516 Y84.059 E.04214
G1 X84.748 Y83.698 E.02154
G1 X85.428 Y83.033 E.04773
G1 X85.813 Y82.824 E.02198
G1 X86.51 Y82.633 E.03627
G1 X99.492 Y82.637 E.65151
G1 X99.972 Y82.738 E.02462
G1 X100.458 Y82.959 E.02679
G1 X101.168 Y83.592 E.04774
G1 X101.529 Y84.16 E.03378
G1 X101.723 Y84.866 E.03674
G1 X101.723 Y110.2 E1.27141
G1 X101.484 Y111.005 E.04214
G1 X101.252 Y111.365 E.02149
G1 X100.572 Y112.03 E.04773
G1 X100.24 Y112.211 E.01898
G1 X100.074 Y111.913 F7800
G1 F1800
G1 X99.465 Y112.086 E.03177
G1 X86.534 Y112.086 E.64895
G1 X85.828 Y111.87 E.03705
G1 X85.574 Y111.704 E.01523
G1 X84.966 Y111.091 E.04333
G1 X84.794 Y110.78 E.01784
G1 X84.622 Y110.173 E.03166
G1 X84.622 Y84.89 E1.26885
G1 X84.838 Y84.184 E.03705
G1 X85.004 Y83.93 E.01523
G1 X85.617 Y83.322 E.04333
G1 X85.928 Y83.15 E.01784
G1 X86.535 Y82.978 E.03166
G1 X99.473 Y82.981 E.64931
G1 X99.878 Y83.071 E.02082
G1 X100.288 Y83.26 E.02266
G1 X100.919 Y83.832 E.04274
G1 X101.205 Y84.279 E.02663
G1 X101.378 Y84.891 E.03192
G1 X101.378 Y110.173 E1.2688
G1 X101.162 Y110.879 E.03705
G1 X100.996 Y111.133 E.01523
G1 X100.383 Y111.741 E.04333
G1 X100.127 Y111.884 E.01472
G1 X99.957 Y111.587 F7800
G1 F1800
G1 X99.44 Y111.741 E.02707
G1 X86.56 Y111.741 E.64639
G1 X85.994 Y111.567 E.02972
G1 X85.803 Y111.445 E.01137
G1 X85.253 Y110.898 E.03893
G1 X85.118 Y110.662 E.01364
G1 X84.967 Y110.147 E.02693
G1 X84.967 Y84.916 E1.26624
G1 X85.141 Y84.35 E.02972
G1 X85.263 Y84.159 E.01137
G1 X85.809 Y83.609 E.03889
G1 X86.046 Y83.474 E.01369
G1 X86.56 Y83.323 E.02689
G1 X99.452 Y83.326 E.647
G1 X99.781 Y83.402 E.01695
G1 X100.116 Y83.56 E.01859
G1 X100.669 Y84.07 E.03775
G1 X100.881 Y84.401 E.01973
G1 X101.033 Y84.916 E.02695
G1 X101.033 Y110.147 E1.26624
G1 X100.859 Y110.714 E.02977
G1 X100.737 Y110.904 E.01133
G1 X100.191 Y111.454 E.03889
G1 X100.009 Y111.558 E.01052
G1 X99.836 Y111.264 F7800
G1 F1800
G1 X99.413 Y111.396 E.02224
G1 X86.588 Y111.396 E.64363
G1 X86.123 Y111.246 E.02452
G1 X86.033 Y111.187 E.0054
G1 X85.538 Y110.702 E.03478
G1 X85.441 Y110.538 E.00956
G1 X85.312 Y110.12 E.02195
G1 X85.312 Y84.944 E1.26348
G1 X85.461 Y84.479 E.02451
G1 X85.52 Y84.389 E.0054
G1 X86.006 Y83.894 E.03481
G1 X86.169 Y83.797 E.00952
G1 X86.587 Y83.668 E.02195
G1 X99.432 Y83.671 E.64464
G1 X99.65 Y83.722 E.01124
G1 X99.943 Y83.86 E.01625
G1 X100.417 Y84.307 E.0327
G1 X100.559 Y84.527 E.01314
G1 X100.688 Y84.943 E.02186
G1 X100.688 Y110.119 E1.26348
G1 X100.539 Y110.585 E.02455
G1 X100.48 Y110.675 E.0054
G1 X99.994 Y111.17 E.03481
G1 X99.887 Y111.233 E.00623
G1 X99.707 Y110.943 F7800
G1 F1800
G1 X99.384 Y111.051 E.01709
G1 X86.616 Y111.051 E.64077
G1 X86.257 Y110.924 E.01911
G1 X85.818 Y110.5 E.03063
G1 X85.761 Y110.408 E.00543
G1 X85.657 Y110.091 E.01674
G1 X85.657 Y84.972 E1.26062
G1 X85.783 Y84.613 E.01909
G1 X86.207 Y84.174 E.03063
G1 X86.299 Y84.117 E.00543
G1 X86.616 Y84.013 E.01674
G1 X99.412 Y84.016 E.64218
G1 X99.519 Y84.041 E.00551
G1 X99.769 Y84.159 E.01387
G1 X100.163 Y84.54 E.02751
G1 X100.24 Y84.657 E.00703
G1 X100.343 Y84.972 E.01663
G1 X100.343 Y110.091 E1.26062
G1 X100.217 Y110.451 E.01914
G1 X99.758 Y110.911 E.03261
G1 X99.568 Y110.626 F7800
G1 F1800
G1 X99.352 Y110.706 E.01156
G1 X86.648 Y110.706 E.63756
G1 X86.455 Y110.637 E.01029
G1 X86.076 Y110.267 E.02658
G1 X86.002 Y110.059 E.01108
G1 X86.002 Y85.004 E1.25741
G1 X86.071 Y84.811 E.01029
G1 X86.44 Y84.432 E.02655
G1 X86.648 Y84.358 E.01108
G1 X99.365 Y84.358 E.63821
G1 X99.593 Y84.458 E.01249
G1 X99.924 Y84.796 E.02374
G1 X99.998 Y85.004 E.01108
G1 X99.998 Y110.059 E1.25741
G1 X99.929 Y110.253 E.01033
G1 X99.612 Y110.585 E.02304
G1 X99.377 Y110.335 F7800
G1 F1800
G1 X99.313 Y110.361 E.00347
G1 X86.687 Y110.361 E.63365
G1 X86.623 Y110.335 E.00347
G1 X86.373 Y110.084 E.01778
G1 X86.347 Y110.021 E.00342
G1 X86.347 Y85.043 E1.25354
G1 X86.373 Y84.979 E.00347
G1 X86.623 Y84.729 E.01774
G1 X86.687 Y84.703 E.00347
G1 X99.313 Y84.703 E.63365
G1 X99.377 Y84.729 E.00347
G1 X99.627 Y84.979 E.01774
G1 X99.653 Y85.043 E.00347
G1 X99.653 Y110.021 E1.25354
G1 X99.627 Y110.084 E.00342
G1 X99.419 Y110.292 E.01476
G1 X99.208 Y110.016 F7800
G1 F1800
G1 X86.792 Y110.016 E.62311
G1 X86.691 Y109.915 E.00717
G1 X86.691 Y85.148 E1.24295
G1 X86.792 Y85.047 E.00717
G1 X99.208 Y85.047 E.62311
G1 X99.309 Y85.148 E.00717
G1 X99.309 Y109.915 E1.24295
G1 X99.25 Y109.974 E.00419
G1 E-3.5 F3600
;WIPE_START
G1 F6240
G1 X96.513 Y109.983 E-1.5
;WIPE_END
G1 X129.277 Y109.974 F7800
G1 E5 F2400
G1 F1800
G1 X129.277 Y84.864 E1.26017
G1 X129.516 Y84.059 E.04214
G1 X129.748 Y83.698 E.02154
G1 X130.428 Y83.033 E.04773
G1 X130.813 Y82.824 E.02198
G1 X131.51 Y82.633 E.03627
G1 X144.492 Y82.637 E.65151
G1 X144.972 Y82.738 E.02462
G1 X145.458 Y82.959 E.02679
G1 X146.168 Y83.592 E.04774
G1 X146.529 Y84.16 E.03378
G1 X146.723 Y84.866 E.03674
G1 X146.723 Y110.2 E1.27141
G1 X146.484 Y111.005 E.04214
G1 X146.252 Y111.365 E.02149
G1 X145.572 Y112.03 E.04773
G1 X145.187 Y112.24 E.02201
G1 X144.49 Y112.43 E.03626
G1 X131.508 Y112.43 E.65151
G1 X130.703 Y112.192 E.04213
G1 X130.342 Y111.959 E.02156
G1 X129.677 Y111.28 E.0477
G1 X129.468 Y110.895 E.02198
G1 X129.277 Y110.198 E.03627
G1 X129.277 Y110.034 E.00823
G1 X129.622 Y110.034 F7800
G1 F1800
G1 X129.622 Y84.89 E1.26187
G1 X129.838 Y84.184 E.03705
G1 X130.004 Y83.93 E.01523
G1 X130.617 Y83.322 E.04333
G1 X130.928 Y83.15 E.01784
G1 X131.535 Y82.978 E.03166
G1 X144.473 Y82.981 E.64931
G1 X144.878 Y83.071 E.02082
G1 X145.288 Y83.26 E.02266
G1 X145.919 Y83.832 E.04274
G1 X146.205 Y84.279 E.02663
G1 X146.378 Y84.891 E.03192
G1 X146.378 Y110.173 E1.2688
G1 X146.162 Y110.879 E.03705
G1 X145.996 Y111.133 E.01523
G1 X145.383 Y111.741 E.04333
G1 X145.072 Y111.914 E.01786
G1 X144.465 Y112.086 E.03166
G1 X131.534 Y112.086 E.64895
G1 X130.828 Y111.87 E.03705
G1 X130.574 Y111.704 E.01523
G1 X129.966 Y111.091 E.04333
G1 X129.794 Y110.78 E.01784
G1 X129.622 Y110.173 E.03166
G1 X129.622 Y110.094 E.00396
G1 X129.967 Y110.094 F7800
G1 F1800
G1 X129.967 Y84.916 E1.26358
G1 X130.141 Y84.35 E.02972
G1 X130.263 Y84.159 E.01137
G1 X130.809 Y83.609 E.03889
G1 X131.046 Y83.474 E.01369
G1 X131.56 Y83.323 E.02689
G1 X144.452 Y83.326 E.647
G1 X144.781 Y83.402 E.01695
G1 X145.116 Y83.56 E.01859
G1 X145.669 Y84.07 E.03775
G1 X145.881 Y84.401 E.01973
G1 X146.033 Y84.916 E.02695
G1 X146.033 Y110.147 E1.26624
G1 X145.859 Y110.714 E.02977
G1 X145.737 Y110.904 E.01133
G1 X145.191 Y111.454 E.03889
G1 X144.954 Y111.589 E.01369
G1 X144.44 Y111.741 E.0269
G1 X131.56 Y111.741 E.64639
G1 X130.994 Y111.567 E.02972
G1 X130.803 Y111.445 E.01137
G1 X130.253 Y110.898 E.03893
G1 X130.118 Y110.662 E.01364
G1 X129.969 Y110.154 E.02657
G1 X130.312 Y110.12 F7800
G1 F1800
G1 X130.312 Y84.944 E1.26348
G1 X130.461 Y84.479 E.02451
G1 X130.52 Y84.389 E.0054
G1 X131.006 Y83.894 E.03481
G1 X131.169 Y83.797 E.00952
G1 X131.587 Y83.668 E.02195
G1 X144.432 Y83.671 E.64464
G1 X144.65 Y83.722 E.01124
G1 X144.943 Y83.86 E.01625
G1 X145.417 Y84.307 E.0327
G1 X145.559 Y84.527 E.01314
G1 X145.688 Y84.943 E.02186
G1 X145.688 Y110.119 E1.26348
G1 X145.539 Y110.585 E.02455
G1 X145.48 Y110.675 E.0054
G1 X144.994 Y111.17 E.03481
G1 X144.831 Y111.267 E.00952
G1 X144.413 Y111.396 E.02195
G1 X131.588 Y111.396 E.64363
G1 X131.123 Y111.246 E.02452
G1 X131.033 Y111.187 E.0054
G1 X130.538 Y110.702 E.03478
G1 X130.441 Y110.538 E.00956
G1 X130.33 Y110.178 E.01891
G1 X130.657 Y110.091 F7800
G1 F1800
G1 X130.657 Y84.972 E1.26062
G1 X130.766 Y84.641 E.01749
G1 X131.207 Y84.174 E.03224
G1 X131.299 Y84.117 E.00543
G1 X131.616 Y84.013 E.01674
G1 X144.412 Y84.016 E.64218
G1 X144.519 Y84.041 E.00551
G1 X144.769 Y84.159 E.01387
G1 X145.163 Y84.54 E.02751
G1 X145.24 Y84.657 E.00703
G1 X145.343 Y84.972 E.01663
G1 X145.343 Y110.091 E1.26062
G1 X145.234 Y110.422 E.01749
G1 X144.792 Y110.89 E.03231
G1 X144.701 Y110.947 E.00539
G1 X144.384 Y111.051 E.01674
G1 X131.616 Y111.051 E.64077
G1 X131.257 Y110.924 E.01911
G1 X130.818 Y110.5 E.03063
G1 X130.761 Y110.408 E.00543
G1 X130.675 Y110.148 E.01374
G1 X131.002 Y110.059 F7800
