; generated by PrusaSlicer 2.6.1+win64 on 2023-11-03 at 00:16:28 UTC

; 

; external perimeters extrusion width = 0.45mm
; perimeters extrusion width = 0.45mm
; infill extrusion width = 0.45mm
; solid infill extrusion width = 0.45mm
; top infill extrusion width = 0.40mm
; support material extrusion width = 0.35mm
; first layer extrusion width = 0.42mm

M201 X500 Y500 Z100 E5000 ; sets maximum accelerations, mm/sec^2
M203 X500 Y500 Z10 E60 ; sets maximum feedrates, mm / sec
M204 S500 T1000 ; sets acceleration (S) and retract acceleration (R), mm/sec^2
M205 X8.00 Y8.00 Z0.40 E5.00 ; sets the jerk limits, mm/sec
M205 S0 T0 ; sets the minimum extruding and travel feed rate, mm/sec
;TYPE:Custom
G90 ; use absolute coordinates
M83 ; extruder relative mode
M104 S150 ; set temporary nozzle temp to prevent oozing during homing
M140 S60 ; set final bed temp
G4 S30 ; allow partial nozzle warmup
G28 ; home all axis
G1 Z50 F240
G1 X2.0 Y10 F3000
M104 S210 ; set final nozzle temp
M190 S60 ; wait for bed temp to stabilize
M109 S210 ; wait for nozzle temp to stabilize
G1 Z0.28 F240
G92 E0
G1 X2.0 Y140 E10 F1500 ; prime the nozzle
G1 X2.3 Y140 F5000
G92 E0
G1 X2.3 Y10 E10 F1200 ; prime the nozzle
G92 E0
G21 ; set units to millimeters
G90 ; use absolute coordinates
M83 ; use relative distances for extrusion
; Filament gcode
M107
;LAYER_CHANGE
;Z:0.35
;HEIGHT:0.35
;BEFORE_LAYER_CHANGE
G92 E0
;0.35


G1 E-5 F3600
G1 Z.35 F7800
;AFTER_LAYER_CHANGE
;0.35
G1 X60.615 Y95.316
G1 E5 F2400
;TYPE:Skirt/Brim
;WIDTH:0.42
G1 F1800
G1 X62.878 Y94.694 E.11778
G1 X145.758 Y87.846 E4.17358
G1 X146.705 Y87.839 E.04753
G1 X171.785 Y89.523 E1.2615
G1 X173.962 Y90.067 E.11261
G1 X175.813 Y91.335 E.1126
G1 X177.108 Y93.168 E.11263
G1 X177.704 Y95.854 E.13808
G1 X177.704 Y118.433 E1.13315
G1 X177.308 Y120.641 E.11258
G1 X176.167 Y122.574 E.11265
G1 X174.424 Y123.988 E.11264
G1 X172.432 Y124.686 E.10593
G1 X74.935 Y141.4 E4.96435
G1 X73.863 Y141.491 E.05399
G1 X59.641 Y141.491 E.71374
G1 X57.432 Y141.094 E.11264
G1 X55.499 Y139.954 E.11262
G1 X54.085 Y138.211 E.11264
G1 X53.296 Y135.146 E.15883
G1 X53.296 Y109.782 E1.27292
G1 X53.809 Y107.28 E.12818
G1 X57.569 Y98.516 E.4786
G1 X58.804 Y96.642 E.11263
G1 X60.566 Y95.352 E.10959
G1 E-3.5 F3600
;WIPE_START
G1 F6240
G1 X62.878 Y94.694 E-1.31747
G1 X63.21 Y94.667 E-.18253
;WIPE_END
G1 X62.965 Y115.197 F7800
G1 E5 F2400
;TYPE:Support material
G1 F1800
G1 X63.22 Y115.452 E.0181
G1 X69.987 Y115.452 E.33961
G1 X70.146 Y115.386 E.00864
G1 X73.863 Y111.668 E.26384
G1 X73.863 Y135.146 E1.17826
G1 X59.641 Y135.146 E.71374
G1 X59.641 Y109.782 E1.27292
G1 X62.965 Y109.782 E.16682
G1 X62.965 Y115.145 E.26915
G1 X73.347 Y134.991 F7800
G1 F1800
G1 X73.347 Y112.623 E1.12256
G1 X72.964 Y113.006 E.02718
G1 X72.964 Y134.836 E1.09556
G1 X72.58 Y134.836 E.01927
G1 X72.58 Y113.39 E1.07629
G1 X72.197 Y113.773 E.02718
G1 X72.197 Y134.836 E1.05707
G1 X71.814 Y134.836 E.01922
G1 X71.814 Y114.156 E1.03784
G1 X71.431 Y114.54 E.02722
G1 X71.431 Y134.836 E1.01857
G1 X71.048 Y134.836 E.01922
G1 X71.048 Y114.923 E.99935
G1 X70.664 Y115.307 E.02725
G1 X70.664 Y134.836 E.98008
G1 X70.281 Y134.836 E.01922
G1 X70.281 Y115.666 E.96206
G1 X70.048 Y115.762 E.01265
G1 X69.898 Y115.762 E.00753
G1 X69.898 Y134.836 E.95725
G1 X69.515 Y134.836 E.01922
G1 X69.515 Y115.762 E.95725
G1 X69.132 Y115.762 E.01922
G1 X69.132 Y134.836 E.95725
G1 X68.748 Y134.836 E.01927
G1 X68.748 Y115.762 E.95725
G1 X68.365 Y115.762 E.01922
G1 X68.365 Y134.836 E.95725
G1 X67.982 Y134.836 E.01922
G1 X67.982 Y115.762 E.95725
G1 X67.599 Y115.762 E.01922
G1 X67.599 Y134.836 E.95725
G1 X67.216 Y134.836 E.01922
G1 X67.216 Y115.762 E.95725
G1 X66.832 Y115.762 E.01927
G1 X66.832 Y134.836 E.95725
G1 X66.449 Y134.836 E.01922
G1 X66.449 Y115.762 E.95725
G1 X66.066 Y115.762 E.01922
G1 X66.066 Y134.836 E.95725
G1 X65.683 Y134.836 E.01922
G1 X65.683 Y115.762 E.95725
G1 X65.299 Y115.762 E.01927
G1 X65.299 Y134.836 E.95725
G1 X64.916 Y134.836 E.01922
G1 X64.916 Y115.762 E.95725
G1 X64.533 Y115.762 E.01922
G1 X64.533 Y134.836 E.95725
G1 X64.15 Y134.836 E.01922
G1 X64.15 Y115.762 E.95725
G1 X63.767 Y115.762 E.01922
G1 X63.767 Y134.836 E.95725
G1 X63.383 Y134.836 E.01927
G1 X63.383 Y115.762 E.95725
G1 X63.091 Y115.762 E.01465
G1 X63 Y115.671 E.00646
G1 X63 Y134.836 E.96181
G1 X62.617 Y134.836 E.01922
G1 X62.617 Y110.092 E1.2418
G1 X62.234 Y110.092 E.01922
G1 X62.234 Y134.836 E1.2418
G1 X61.851 Y134.836 E.01922
G1 X61.851 Y110.092 E1.2418
G1 X61.467 Y110.092 E.01927
G1 X61.467 Y134.836 E1.2418
G1 X61.084 Y134.836 E.01922
G1 X61.084 Y110.092 E1.2418
G1 X60.701 Y110.092 E.01922
G1 X60.701 Y134.836 E1.2418
G1 X60.318 Y134.836 E.01922
G1 X60.318 Y109.937 E1.24958
G1 E-3.5 F3600
;WIPE_START
G1 F6240
G1 X60.318 Y112.674 E-1.5
;WIPE_END
G1 X112.61 Y106.95 F7800
G1 E5 F2400
G1 F1800
G1 X126.29 Y106.95 E.68654
G1 X126.29 Y115.853 E.44681
G1 X132.567 Y115.853 E.31502
G1 X132.567 Y114.952 E.04522
G1 X133.212 Y114.952 E.03237
G1 X133.214 Y117.121 E.10885
G1 X129.29 Y117.121 E.19693
G1 X129.29 Y118.433 E.06584
G1 X106.996 Y118.433 E1.11884
G1 X106.996 Y106.95 E.57628
G1 X112.558 Y106.95 E.27913
G1 E-3.5 F3600
;WIPE_START
G1 F6240
G1 X109.821 Y106.95 E-1.5
;WIPE_END
G1 X132.744 Y116.966 F7800
G1 E5 F2400
G1 F1800
G1 X132.744 Y116.163 E.0403
G1 X132.361 Y116.163 E.01922
G1 X132.361 Y116.811 E.03252
G1 X131.978 Y116.811 E.01922
G1 X131.978 Y116.163 E.03252
G1 X131.595 Y116.163 E.01922
G1 X131.595 Y116.811 E.03252
G1 X131.212 Y116.811 E.01922
G1 X131.212 Y116.163 E.03252
G1 X130.828 Y116.163 E.01927
G1 X130.828 Y116.811 E.03252
G1 X130.445 Y116.811 E.01922
G1 X130.445 Y116.163 E.03252
G1 X130.062 Y116.163 E.01922
G1 X130.062 Y116.811 E.03252
G1 X129.679 Y116.811 E.01922
G1 X129.679 Y116.163 E.03252
G1 X129.296 Y116.163 E.01922
G1 X129.296 Y116.811 E.03252
G1 X128.979 Y116.811 E.01591
G1 X128.979 Y118.122 E.06579
G1 X128.912 Y118.122 E.00336
G1 X128.912 Y116.163 E.09831
G1 X128.529 Y116.163 E.01922
G1 X128.529 Y118.122 E.09831
G1 X128.146 Y118.122 E.01922
G1 X128.146 Y116.163 E.09831
G1 X127.763 Y116.163 E.01922
G1 X127.763 Y118.122 E.09831
G1 X127.38 Y118.122 E.01922
G1 X127.38 Y116.163 E.09831
G1 X126.996 Y116.163 E.01927
G1 X126.996 Y118.122 E.09831
G1 X126.613 Y118.122 E.01922
G1 X126.613 Y116.163 E.09831
G1 X126.23 Y116.163 E.01922
G1 X126.23 Y118.122 E.09831
G1 X125.847 Y118.122 E.01922
G1 X125.847 Y107.26 E.54512
G1 X125.463 Y107.26 E.01927
G1 X125.463 Y118.122 E.54512
G1 X125.08 Y118.122 E.01922
G1 X125.08 Y107.26 E.54512
G1 X124.697 Y107.26 E.01922
G1 X124.697 Y118.122 E.54512
G1 X124.314 Y118.122 E.01922
G1 X124.314 Y107.26 E.54512
G1 X123.931 Y107.26 E.01922
G1 X123.931 Y118.122 E.54512
G1 X123.547 Y118.122 E.01927
G1 X123.547 Y107.26 E.54512
G1 X123.164 Y107.26 E.01922
G1 X123.164 Y118.122 E.54512
G1 X122.781 Y118.122 E.01922
G1 X122.781 Y107.26 E.54512
G1 X122.398 Y107.26 E.01922
G1 X122.398 Y118.122 E.54512
G1 X122.015 Y118.122 E.01922
G1 X122.015 Y107.26 E.54512
G1 X121.631 Y107.26 E.01927
G1 X121.631 Y118.122 E.54512
G1 X121.248 Y118.122 E.01922
G1 X121.248 Y107.26 E.54512
G1 X120.865 Y107.26 E.01922
G1 X120.865 Y118.122 E.54512
G1 X120.482 Y118.122 E.01922
G1 X120.482 Y107.26 E.54512
G1 X120.099 Y107.26 E.01922
G1 X120.099 Y118.122 E.54512
G1 X119.715 Y118.122 E.01927
G1 X119.715 Y107.26 E.54512
G1 X119.332 Y107.26 E.01922
G1 X119.332 Y118.122 E.54512
G1 X118.949 Y118.122 E.01922
G1 X118.949 Y107.26 E.54512
G1 X118.566 Y107.26 E.01922
G1 X118.566 Y118.122 E.54512
G1 X118.182 Y118.122 E.01927
G1 X118.182 Y107.26 E.54512
G1 X117.799 Y107.26 E.01922
G1 X117.799 Y118.122 E.54512
G1 X117.416 Y118.122 E.01922
G1 X117.416 Y107.26 E.54512
G1 X117.033 Y107.26 E.01922
G1 X117.033 Y118.122 E.54512
G1 X116.65 Y118.122 E.01922
G1 X116.65 Y107.26 E.54512
G1 X116.266 Y107.26 E.01927
G1 X116.266 Y118.122 E.54512
G1 X115.883 Y118.122 E.01922
G1 X115.883 Y107.26 E.54512
G1 X115.5 Y107.26 E.01922
G1 X115.5 Y118.122 E.54512
G1 X115.117 Y118.122 E.01922
G1 X115.117 Y107.26 E.54512
G1 X114.734 Y107.26 E.01922
G1 X114.734 Y118.122 E.54512
G1 X114.35 Y118.122 E.01927
G1 X114.35 Y107.26 E.54512
G1 X113.967 Y107.26 E.01922
G1 X113.967 Y118.122 E.54512
G1 X113.584 Y118.122 E.01922
G1 X113.584 Y107.26 E.54512
G1 X113.201 Y107.26 E.01922
G1 X113.201 Y118.122 E.54512
G1 X112.818 Y118.122 E.01922
G1 X112.818 Y107.26 E.54512
G1 X112.434 Y107.26 E.01927
G1 X112.434 Y118.122 E.54512
G1 X112.051 Y118.122 E.01922
G1 X112.051 Y107.26 E.54512
G1 X111.668 Y107.26 E.01922
G1 X111.668 Y118.122 E.54512
G1 X111.285 Y118.122 E.01922
G1 X111.285 Y107.26 E.54512
G1 X110.901 Y107.26 E.01927
G1 X110.901 Y118.122 E.54512
G1 X110.518 Y118.122 E.01922
G1 X110.518 Y107.26 E.54512
G1 X110.135 Y107.26 E.01922
G1 X110.135 Y118.122 E.54512
G1 X109.752 Y118.122 E.01922
G1 X109.752 Y107.26 E.54512
G1 X109.369 Y107.26 E.01922
G1 X109.369 Y118.122 E.54512
G1 X108.985 Y118.122 E.01927
G1 X108.985 Y107.26 E.54512
G1 X108.602 Y107.26 E.01922
G1 X108.602 Y118.122 E.54512
G1 X108.219 Y118.122 E.01922
G1 X108.219 Y107.26 E.54512
G1 X107.836 Y107.26 E.01922
G1 X107.836 Y118.122 E.54512
G1 X107.453 Y118.122 E.01922
G1 X107.453 Y107.105 E.5529
G1 E-3.5 F3600
;WIPE_START
G1 F6240
G1 X107.453 Y109.842 E-1.5
;WIPE_END
G1 X126.782 Y115.629 F7800
G1 E5 F2400
;TYPE:Support material interface
;WIDTH:0.35
G1 F1800
G1 X126.782 Y106.883 E.34984
G1 X127.068 Y106.883 E.01144
G1 X127.068 Y115.5 E.34468
G1 X127.353 Y115.5 E.0114
G1 X127.353 Y106.883 E.34468
G1 X127.639 Y106.883 E.01144
G1 X127.639 Y115.5 E.34468
G1 X127.924 Y115.5 E.0114
G1 X127.924 Y106.883 E.34468
G1 X128.21 Y106.883 E.01144
G1 X128.21 Y115.5 E.34468
G1 X128.496 Y115.5 E.01144
G1 X128.496 Y106.883 E.34468
G1 X128.781 Y106.883 E.0114
G1 X128.781 Y115.5 E.34468
G1 X129.067 Y115.5 E.01144
G1 X129.067 Y106.883 E.34468
G1 X129.352 Y106.883 E.0114
G1 X129.352 Y115.5 E.34468
G1 X129.638 Y115.5 E.01144
G1 X129.638 Y114.399 E.04404
G1 X129.714 Y114.474 E.00427
G1 X129.924 Y114.474 E.0084
G1 X129.924 Y115.5 E.04104
G1 X130.209 Y115.5 E.0114
G1 X130.209 Y114.474 E.04104
G1 X130.279 Y114.474 E.0028
G1 X130.279 Y114.67 E.00784
G1 X130.495 Y114.885 E.01219
G1 X130.495 Y115.5 E.0246
G1 X130.781 Y115.5 E.01144
G1 X130.781 Y114.885 E.0246
G1 X131.066 Y114.885 E.0114
G1 X131.066 Y115.5 E.0246
G1 X131.352 Y115.5 E.01144
G1 X131.352 Y114.885 E.0246
G1 X131.637 Y114.885 E.0114
G1 X131.637 Y115.5 E.0246
G1 X131.923 Y115.5 E.01144
G1 X131.923 Y114.885 E.0246
G1 X132.209 Y114.885 E.01144
G1 X132.209 Y115.629 E.02976
G1 E-3.5 F3600
;WIPE_START
G1 F6240
G1 X132.209 Y114.885 E-.40777
G1 X131.923 Y114.885 E-.15675
G1 X131.923 Y115.5 E-.33707
G1 X131.637 Y115.5 E-.15675
G1 X131.637 Y114.885 E-.33707
G1 X131.446 Y114.885 E-.10459
;WIPE_END
G1 X132.257 Y106.95 F7800
G1 E5 F2400
;TYPE:Support material
;WIDTH:0.42
G1 F1800
G1 X132.245 Y114.532 E.38051
G1 X130.64 Y114.532 E.08055
G1 X130.631 Y114.121 E.02063
G1 X129.86 Y114.121 E.03869
G1 X129.734 Y113.996 E.00891
G1 X129.73 Y106.95 E.35361
G1 X132.205 Y106.95 E.12421
G1 X131.595 Y114.377 F7800
G1 F1800
G1 X131.595 Y107.26 E.35717
G1 X131.212 Y107.26 E.01922
G1 X131.212 Y114.222 E.34939
G1 X130.942 Y114.222 E.01355
G1 X130.941 Y113.811 E.02063
G1 X130.828 Y113.811 E.00567
G1 X130.828 Y107.26 E.32877
G1 X130.445 Y107.26 E.01922
G1 X130.445 Y113.811 E.32877
G1 X130.062 Y113.811 E.01922
G1 X130.062 Y107.105 E.33655
G1 E-3.5 F3600
;WIPE_START
G1 F6240
G1 X130.062 Y109.842 E-1.5
;WIPE_END
G1 X146.204 Y100.778 F7800
G1 E5 F2400
;TYPE:Support material interface
;WIDTH:0.35
G1 F1800
G1 X146.204 Y98.786 E.07968
G1 X146.49 Y98.786 E.01144
G1 X146.49 Y100.649 E.07452
G1 X146.775 Y100.649 E.0114
G1 X146.775 Y98.786 E.07452
G1 X147.061 Y98.786 E.01144
G1 X147.061 Y100.649 E.07452
G1 X147.346 Y100.649 E.0114
G1 X147.346 Y98.786 E.07452
G1 X147.632 Y98.786 E.01144
G1 X147.632 Y100.649 E.07452
G1 X147.698 Y100.649 E.00264
G1 X147.914 Y100.865 E.01222
G1 X147.914 Y101.06 E.0078
G1 X147.918 Y98.786 E.09096
G1 X148.203 Y98.786 E.0114
G1 X148.203 Y101.06 E.09096
G1 X148.489 Y101.06 E.01144
G1 X148.489 Y98.786 E.09096
G1 X148.775 Y98.786 E.01144
G1 X148.775 Y115.629 E.67372
G1 X148.489 Y115.629 F7800
G1 F1800
G1 X148.489 Y114.47 E.04636
G1 X148.203 Y114.474 E.01144
G1 X148.203 Y115.5 E.04104
G1 X147.918 Y115.5 E.0114
G1 X147.918 Y114.671 E.03316
G1 X147.704 Y114.885 E.01211
G1 X147.632 Y114.885 E.00288
G1 X147.632 Y115.5 E.0246
G1 X147.346 Y115.5 E.01144
G1 X147.346 Y114.885 E.0246
G1 X147.061 Y114.885 E.0114
G1 X147.061 Y115.5 E.0246
G1 X146.775 Y115.5 E.01144
G1 X146.775 Y114.885 E.0246
G1 X146.49 Y114.885 E.0114
G1 X146.49 Y115.5 E.0246
G1 X146.204 Y115.5 E.01144
G1 X146.204 Y114.756 E.02976
G1 E-3.5 F3600
;WIPE_START
G1 F6240
G1 X146.204 Y115.5 E-.40777
G1 X146.49 Y115.5 E-.15675
G1 X146.49 Y114.885 E-.33707
G1 X146.775 Y114.885 E-.1562
G1 X146.775 Y115.5 E-.33707
G1 X146.967 Y115.5 E-.10514
;WIPE_END
G1 X149.06 Y114.655 F7800
G1 E5 F2400
G1 F1800
G1 X149.06 Y115.629 E.03896
G1 E-3.5 F3600
;WIPE_START
G1 F6240
G1 X149.06 Y114.655 E-.53383
;WIPE_END
G1 E-.96617 F3600
G1 X151.631 Y115.629 F7800
G1 E5 F2400
G1 F1800
G1 X151.631 Y98.786 E.67372
G1 X151.345 Y98.786 E.01144
G1 X151.345 Y115.5 E.66856
G1 X151.06 Y115.5 E.0114
G1 X151.06 Y98.786 E.66856
G1 X150.774 Y98.786 E.01144
G1 X150.774 Y115.5 E.66856
G1 X150.488 Y115.5 E.01144
G1 X150.488 Y98.786 E.66856
G1 X150.203 Y98.786 E.0114
G1 X150.203 Y115.5 E.66856
G1 X149.917 Y115.5 E.01144
G1 X149.917 Y98.786 E.66856
G1 X149.631 Y98.786 E.01144
G1 X149.631 Y115.5 E.66856
G1 X149.346 Y115.5 E.0114
G1 X149.346 Y98.786 E.66856
G1 X149.06 Y98.786 E.01144
G1 X149.06 Y100.875 E.08356
G1 X147.552 Y101.002 F7800
;TYPE:Support material
;WIDTH:0.42
G1 F1800
G1 X147.561 Y101.413 E.02063
G1 X148.342 Y101.413 E.0392
G1 X148.468 Y101.539 E.00894
G1 X148.464 Y113.995 E.62512
G1 X148.338 Y114.121 E.00894
G1 X147.567 Y114.121 E.03869
G1 X147.558 Y114.532 E.02063
G1 X145.953 Y114.532 E.08055
G1 X145.942 Y101.002 E.67902
G1 X147.5 Y101.002 E.07819
G1 X148.073 Y113.966 F7800
G1 F1800
G1 X148.073 Y101.723 E.61443
G1 X147.69 Y101.723 E.01922
G1 X147.69 Y113.811 E.60665
G1 X147.306 Y113.811 E.01927
G1 X147.306 Y101.723 E.60665
G1 X147.25 Y101.723 E.00281
G1 X147.25 Y101.313 E.02058
G1 X146.923 Y101.313 E.01641
G1 X146.923 Y114.222 E.64785
G1 X146.54 Y114.222 E.01922
G1 X146.54 Y101.157 E.65568
G1 E-3.5 F3600
;WIPE_START
G1 F6240
G1 X146.54 Y103.894 E-1.5
;WIPE_END
G1 X149.066 Y96.955 F7800
G1 E5 F2400
G1 F1800
G1 X149.066 Y95.854 E.05525
G1 X171.359 Y95.854 E1.11879
G1 X171.359 Y118.433 E1.13315
G1 X149.206 Y118.433 E1.11177
G1 X146.28 Y121.356 E.20756
G1 X146.28 Y117.399 E.19859
G1 X144.985 Y117.398 E.06499
G1 X144.986 Y114.952 E.12275
G1 X145.698 Y114.952 E.03573
G1 X145.789 Y114.861 E.00646
G1 X145.789 Y115.853 E.04978
G1 X152.066 Y115.853 E.31502
G1 X152.066 Y98.433 E.87424
G1 X145.789 Y98.433 E.31502
G1 X145.789 Y100.684 E.11297
G1 X145.687 Y100.582 E.00724
G1 X144.981 Y100.582 E.03543
G1 X144.981 Y98.413 E.10885
G1 X146.28 Y98.413 E.06519
G1 X146.28 Y94.169 E.21299
G1 X149.029 Y96.918 E.19511
G1 E-3.5 F3600
;WIPE_START
G1 F6240
G1 X147.094 Y94.983 E-1.5
;WIPE_END
G1 X170.682 Y118.277 F7800
G1 E5 F2400
G1 F1800
G1 X170.682 Y96.164 E1.10976
G1 X170.299 Y96.164 E.01922
G1 X170.299 Y118.122 E1.10198
G1 X169.916 Y118.122 E.01922
G1 X169.916 Y96.164 E1.10198
G1 X169.533 Y96.164 E.01922
G1 X169.533 Y118.122 E1.10198
G1 X169.149 Y118.122 E.01927
G1 X169.149 Y96.164 E1.10198
G1 X168.766 Y96.164 E.01922
G1 X168.766 Y118.122 E1.10198
G1 X168.383 Y118.122 E.01922
G1 X168.383 Y96.164 E1.10198
G1 X168 Y96.164 E.01922
G1 X168 Y118.122 E1.10198
G1 X167.617 Y118.122 E.01922
G1 X167.617 Y96.164 E1.10198
G1 X167.233 Y96.164 E.01927
G1 X167.233 Y118.122 E1.10198
G1 X166.85 Y118.122 E.01922
G1 X166.85 Y96.164 E1.10198
G1 X166.467 Y96.164 E.01922
G1 X166.467 Y118.122 E1.10198
G1 X166.084 Y118.122 E.01922
G1 X166.084 Y96.164 E1.10198
G1 X165.701 Y96.164 E.01922
G1 X165.701 Y118.122 E1.10198
G1 X165.317 Y118.122 E.01927
G1 X165.317 Y96.164 E1.10198
G1 X164.934 Y96.164 E.01922
G1 X164.934 Y118.122 E1.10198
G1 X164.551 Y118.122 E.01922
G1 X164.551 Y96.164 E1.10198
