; generated by PrusaSlicer 2.7.0+win64 on 2023-12-09 at 02:17:02 UTC

; 

; external perimeters extrusion width = 0.42mm
; perimeters extrusion width = 0.44mm
; infill extrusion width = 0.44mm
; solid infill extrusion width = 0.44mm
; top infill extrusion width = 0.40mm
; first layer extrusion width = 0.42mm


; printing object gridfinity-pressure-fit-jig-loose-tolerance id:0 copy 0
; stop printing object gridfinity-pressure-fit-jig-loose-tolerance id:0 copy 0

;TYPE:Custom
G90 ; use absolute coordinates
M83 ; extruder relative mode
M104 S150 ; set temporary nozzle temp to prevent oozing during homing
M140 S70 ; set final bed temp
G4 S30 ; allow partial nozzle warmup
G28 ; home all axis
G1 Z50 F240
G1 X2.0 Y10 F3000
M104 S240 ; set final nozzle temp
M190 S70 ; wait for bed temp to stabilize
M109 S240 ; wait for nozzle temp to stabilize
G1 Z0.28 F240
G92 E0
G1 X2.0 Y140 E10 F1500 ; prime the nozzle
G1 X2.3 Y140 F5000
G92 E0
G1 X2.3 Y10 E10 F1200 ; prime the nozzle
G92 E0
G21 ; set units to millimeters
G90 ; use absolute coordinates
M83 ; use relative distances for extrusion
; Filament gcode
M107
;LAYER_CHANGE
;Z:0.2
;HEIGHT:0.2
;BEFORE_LAYER_CHANGE
G92 E0
;0.2


G1 E-5 F3600
G1 Z.2 F9000
;AFTER_LAYER_CHANGE
;0.2
G1 X44.842 Y107.703
G1 Z.2
G1 E5 F2400
M204 S500
;TYPE:Skirt/Brim
;WIDTH:0.42
G1 F1200
G1 X46.735 Y107.123 E.06208
G1 X181.588 Y107.123 E4.22822
G1 X183.585 Y107.776 E.06588
G1 X184.706 Y108.682 E.04519
G1 X185.521 Y109.556 E.03747
G1 X186.346 Y110.737 E.04517
G1 X186.887 Y111.804 E.03751
G1 X187.195 Y112.627 E.02755
G1 X187.53 Y114.028 E.04517
G1 X187.642 Y115.219 E.03751
G1 X187.574 Y116.658 E.04517
G1 X187.351 Y117.832 E.03747
G1 X186.887 Y119.196 E.04517
G1 X186.346 Y120.263 E.03751
G1 X185.521 Y121.444 E.04517
G1 X184.706 Y122.318 E.03747
G1 X183.585 Y123.224 E.04519
G1 X181.588 Y123.877 E.06588
G1 X46.735 Y123.877 E4.22822
G1 X45.152 Y123.483 E.05115
G1 X43.938 Y122.393 E.05116
G1 X43.358 Y120.5 E.06208
G1 X43.358 Y110.5 E.31354
G1 X43.752 Y108.917 E.05115
G1 X44.802 Y107.748 E.04927
; printing object gridfinity-pressure-fit-jig-loose-tolerance id:0 copy 0
G1 E-3.5 F3600
;WIPE_START
G1 F7200
G1 X44.842 Y107.703 E-.0286
G1 X46.735 Y107.123 E-.94043
G1 X47.853 Y107.123 E-.53097
;WIPE_END
G1 X50.648 Y111.564 F9000
G1 E5 F2400
;TYPE:Perimeter
;WIDTH:0.419999
G1 F1200
G1 X181.24 Y111.564 E4.09461
G1 X181.388 Y111.675 E.0058
G1 X181.764 Y112.018 E.01596
G1 X182.242 Y112.577 E.02306
G1 X182.564 Y113.065 E.01833
G1 X182.829 Y113.62 E.01928
G1 X183.024 Y114.189 E.01886
G1 X183.157 Y114.808 E.01985
G1 X183.201 Y115.451 E.02021
G1 X183.184 Y115.913 E.0145
G1 X183.103 Y116.479 E.01793
G1 X182.942 Y117.091 E.01984
G1 X182.704 Y117.658 E.01928
G1 X182.382 Y118.223 E.02039
G1 X182.034 Y118.693 E.01834
G1 X181.668 Y119.076 E.01661
G1 X181.24 Y119.436 E.01754
G1 X50.498 Y119.436 E4.09932
G1 X50.805 Y119.248 E.01129
G1 X50.994 Y118.682 E.01871
G1 X50.994 Y112.208 E.20299
G1 X50.805 Y111.643 E.01868
G1 X50.702 Y111.591 E.00362
G1 E-3.5 F3600
;WIPE_START
G1 F7200
G1 X50.648 Y111.564 E-.02868
G1 X53.746 Y111.564 E-1.47132
;WIPE_END
G1 X47.451 Y111.216 F9000
G1 E5 F2400
;WIDTH:0.478574
G1 F1200
G1 X47.917 Y111.207 E.01688
;WIDTH:0.459281
G1 X50.051 Y111.207 E.07388
G1 X50.844 Y111.187 E.02746
;WIDTH:0.419999
G1 X181.363 Y111.187 E4.09232
G1 X181.638 Y111.393 E.01077
G1 X182.04 Y111.761 E.01709
G1 X182.393 Y112.155 E.01659
G1 X182.701 Y112.576 E.01636
G1 X182.963 Y113.019 E.01614
G1 X183.18 Y113.482 E.01603
G1 X183.35 Y113.96 E.01591
G1 X183.473 Y114.45 E.01584
G1 X183.549 Y114.949 E.01583
G1 X183.578 Y115.451 E.01577
G1 X183.549 Y116.051 E.01883
G1 X183.473 Y116.55 E.01583
G1 X183.35 Y117.04 E.01584
G1 X183.18 Y117.518 E.01591
G1 X182.963 Y117.981 E.01603
G1 X182.701 Y118.424 E.01614
G1 X182.322 Y118.937 E.02
G1 X181.919 Y119.358 E.01827
G1 X181.363 Y119.813 E.02253
G1 X50.899 Y119.813 E4.0906
;WIDTH:0.467081
G1 X50.475 Y119.789 E.01498
;WIDTH:0.514162
G1 X50.051 Y119.766 E.01664
G1 X47.917 Y119.766 E.08362
;WIDTH:0.525958
G1 X47.475 Y119.76 E.01775
G1 X47.454 Y119.332 E.01721
;WIDTH:0.483713
G1 X47.433 Y119.146 E.00686
;WIDTH:0.441468
G1 X47.412 Y118.96 E.0062
;WIDTH:0.399223
G1 X47.391 Y118.774 E.00555
G1 X47.486 Y118.902 E.00472
;WIDTH:0.441468
G1 X47.582 Y119.029 E.00528
;WIDTH:0.483713
G1 X47.677 Y119.156 E.00581
;WIDTH:0.525958
G1 X47.773 Y119.284 E.00643
G1 X47.917 Y119.295 E.0058
;WIDTH:0.514162
G1 X50.051 Y119.295 E.08362
;WIDTH:0.52059
G1 X50.157 Y119.289 E.00422
G1 X50.273 Y119.199 E.00583
;WIDTH:0.48706
G1 X50.388 Y119.11 E.00537
;WIDTH:0.45353
G1 X50.503 Y119.021 E.00496
;WIDTH:0.419999
G1 X50.616 Y118.682 E.0112
G1 X50.616 Y112.208 E.20299
G1 X50.503 Y111.869 E.0112
;WIDTH:0.459281
G1 X50.051 Y111.623 E.01782
G1 X47.917 Y111.623 E.07388
;WIDTH:0.478574
G1 X47.736 Y111.642 E.00659
G1 X47.619 Y111.831 E.00805
;WIDTH:0.435365
G1 X47.503 Y112.019 E.00721
;WIDTH:0.392156
G1 X47.387 Y112.208 E.00644
G1 X47.408 Y111.878 E.0096
;WIDTH:0.435365
G1 X47.43 Y111.547 E.01082
;WIDTH:0.478574
G1 X47.448 Y111.276 E.00984
G1 X47.045 Y110.81 F9000
;TYPE:External perimeter
;WIDTH:0.419999
G1 F1200
G1 X181.487 Y110.81 E4.21533
G1 X181.889 Y111.111 E.01575
G1 X182.316 Y111.503 E.01817
G1 X182.692 Y111.925 E.01772
G1 X183.02 Y112.375 E.01746
G1 X183.299 Y112.848 E.01722
G1 X183.53 Y113.343 E.01713
G1 X183.712 Y113.855 E.01704
G1 X183.844 Y114.38 E.01697
G1 X183.925 Y114.914 E.01693
G1 X183.955 Y115.451 E.01686
G1 X183.925 Y116.086 E.01993
G1 X183.844 Y116.62 E.01693
G1 X183.712 Y117.145 E.01697
G1 X183.53 Y117.657 E.01704
G1 X183.299 Y118.152 E.01713
G1 X183.02 Y118.625 E.01722
G1 X182.692 Y119.075 E.01746
G1 X182.316 Y119.497 E.01772
G1 X181.889 Y119.889 E.01817
G1 X181.487 Y120.19 E.01575
G1 X47.045 Y120.19 E4.21533
G1 X47.045 Y110.87 E.29222
G1 X47.917 Y112.02 F9000
G1 F1200
G1 X50.051 Y112.02 E.06691
G1 X50.202 Y112.095 E.00529
G1 X50.239 Y112.208 E.00373
G1 X50.239 Y118.682 E.20299
G1 X50.202 Y118.795 E.00373
G1 X50.051 Y118.87 E.00529
G1 X47.873 Y118.865 E.06829
G1 X47.728 Y118.682 E.00732
G1 X47.728 Y112.208 E.20299
G1 X47.867 Y112.044 E.00674
G1 E-3.5 F3600
;WIPE_START
G1 F7200
G1 X47.917 Y112.02 E-.02634
G1 X50.051 Y112.02 E-1.01365
G1 X50.202 Y112.095 E-.08009
G1 X50.239 Y112.208 E-.05648
G1 X50.239 Y112.889 E-.32344
;WIPE_END
G1 X47.391 Y118.774 F9000
G1 E5 F2400
;TYPE:Perimeter
;WIDTH:0.356978
G1 F1200
G1 X47.387 Y118.682 E.0024
;WIDTH:0.348946
G1 X47.387 Y112.208 E.16474
G1 E-3.5 F3600
;WIPE_START
G1 F7200
G1 X47.387 Y115.366 E-1.5
;WIPE_END
G1 X182.452 Y113.114 F9000
G1 E5 F2400
;TYPE:Solid infill
;WIDTH:0.421321
G1 F1200
G1 X181.509 Y112.171 E.04196
G1 X181.145 Y111.855 E.01517
G1 X180.657 Y111.855 E.01535
G1 X182.578 Y113.775 E.08546
G1 X182.667 Y114.002 E.00767
G1 X182.812 Y114.544 E.01765
G1 X180.122 Y111.855 E.11967
G1 X179.587 Y111.855 E.01683
G1 X182.9 Y115.167 E.1474
G1 X182.91 Y115.713 E.01718
G1 X179.052 Y111.855 E.17167
G1 X178.517 Y111.855 E.01683
G1 X182.861 Y116.198 E.19327
G1 X182.77 Y116.643 E.01429
G1 X177.982 Y111.855 E.21305
G1 X177.446 Y111.855 E.01686
G1 X182.645 Y117.053 E.23132
G1 X182.492 Y117.435 E.01295
G1 X176.911 Y111.855 E.24832
G1 X176.376 Y111.855 E.01683
G1 X182.312 Y117.79 E.26411
G1 X182.105 Y118.118 E.0122
G1 X175.841 Y111.855 E.27871
G1 X175.306 Y111.855 E.01683
G1 X181.875 Y118.424 E.2923
G1 X181.623 Y118.707 E.01192
G1 X174.771 Y111.855 E.30489
G1 X174.236 Y111.855 E.01683
G1 X181.348 Y118.967 E.31646
G1 X181.14 Y119.145 E.00861
G1 X180.991 Y119.145 E.00469
G1 X173.7 Y111.855 E.32441
G1 X173.165 Y111.855 E.01683
G1 X180.456 Y119.145 E.32441
G1 X179.921 Y119.145 E.01683
G1 X172.63 Y111.855 E.32441
G1 X172.095 Y111.855 E.01683
G1 X179.386 Y119.145 E.32441
G1 X178.851 Y119.145 E.01683
G1 X171.56 Y111.855 E.32441
G1 X171.025 Y111.855 E.01683
G1 X178.316 Y119.145 E.32441
G1 X177.781 Y119.145 E.01683
G1 X170.49 Y111.855 E.32441
G1 X169.954 Y111.855 E.01686
G1 X177.245 Y119.145 E.32441
G1 X176.71 Y119.145 E.01683
G1 X169.419 Y111.855 E.32441
G1 X168.884 Y111.855 E.01683
G1 X176.175 Y119.145 E.32441
G1 X175.64 Y119.145 E.01683
G1 X168.349 Y111.855 E.32441
G1 X167.814 Y111.855 E.01683
G1 X175.105 Y119.145 E.32441
G1 X174.57 Y119.145 E.01683
G1 X167.279 Y111.855 E.32441
G1 X166.744 Y111.855 E.01683
G1 X174.035 Y119.145 E.32441
G1 X173.499 Y119.145 E.01686
G1 X166.208 Y111.855 E.32441
G1 X165.673 Y111.855 E.01683
G1 X172.964 Y119.145 E.32441
G1 X172.429 Y119.145 E.01683
G1 X165.138 Y111.855 E.32441
G1 X164.603 Y111.855 E.01683
G1 X171.894 Y119.145 E.32441
G1 X171.359 Y119.145 E.01683
G1 X164.068 Y111.855 E.32441
G1 X163.533 Y111.855 E.01683
G1 X170.824 Y119.145 E.32441
G1 X170.289 Y119.145 E.01683
G1 X162.998 Y111.855 E.32441
G1 X162.462 Y111.855 E.01686
G1 X169.753 Y119.145 E.32441
G1 X169.218 Y119.145 E.01683
G1 X161.927 Y111.855 E.32441
G1 X161.392 Y111.855 E.01683
G1 X168.683 Y119.145 E.32441
G1 X168.148 Y119.145 E.01683
G1 X160.857 Y111.855 E.32441
G1 X160.322 Y111.855 E.01683
G1 X167.613 Y119.145 E.32441
G1 X167.078 Y119.145 E.01683
G1 X159.787 Y111.855 E.32441
G1 X159.252 Y111.855 E.01683
G1 X166.543 Y119.145 E.32441
G1 X166.007 Y119.145 E.01686
G1 X158.717 Y111.855 E.32438
G1 X158.181 Y111.855 E.01686
G1 X165.472 Y119.145 E.32441
G1 X164.937 Y119.145 E.01683
G1 X157.646 Y111.855 E.32441
G1 X157.111 Y111.855 E.01683
G1 X164.402 Y119.145 E.32441
G1 X163.867 Y119.145 E.01683
G1 X156.576 Y111.855 E.32441
G1 X156.041 Y111.855 E.01683
G1 X163.332 Y119.145 E.32441
G1 X162.797 Y119.145 E.01683
G1 X155.506 Y111.855 E.32441
G1 X154.971 Y111.855 E.01683
G1 X162.262 Y119.145 E.32441
G1 X161.726 Y119.145 E.01686
G1 X154.435 Y111.855 E.32441
G1 X153.9 Y111.855 E.01683
G1 X161.191 Y119.145 E.32441
G1 X160.656 Y119.145 E.01683
G1 X153.365 Y111.855 E.32441
G1 X152.83 Y111.855 E.01683
G1 X160.121 Y119.145 E.32441
G1 X159.586 Y119.145 E.01683
G1 X152.295 Y111.855 E.32441
G1 X151.76 Y111.855 E.01683
G1 X159.051 Y119.145 E.32441
G1 X158.516 Y119.145 E.01683
G1 X151.225 Y111.855 E.32441
G1 X150.689 Y111.855 E.01686
G1 X157.98 Y119.145 E.32441
G1 X157.445 Y119.145 E.01683
G1 X150.154 Y111.855 E.32441
G1 X149.619 Y111.855 E.01683
G1 X156.91 Y119.145 E.32441
G1 X156.375 Y119.145 E.01683
G1 X149.084 Y111.855 E.32441
G1 X148.549 Y111.855 E.01683
G1 X155.84 Y119.145 E.32441
G1 X155.305 Y119.145 E.01683
G1 X148.014 Y111.855 E.32441
G1 X147.479 Y111.855 E.01683
G1 X154.77 Y119.145 E.32441
G1 X154.234 Y119.145 E.01686
G1 X146.943 Y111.855 E.32441
G1 X146.408 Y111.855 E.01683
G1 X153.699 Y119.145 E.32441
G1 X153.164 Y119.145 E.01683
G1 X145.873 Y111.855 E.32441
G1 X145.338 Y111.855 E.01683
G1 X152.629 Y119.145 E.32441
G1 X152.094 Y119.145 E.01683
G1 X144.803 Y111.855 E.32441
G1 X144.268 Y111.855 E.01683
G1 X151.559 Y119.145 E.32441
G1 X151.024 Y119.145 E.01683
G1 X143.733 Y111.855 E.32441
G1 X143.197 Y111.855 E.01686
G1 X150.488 Y119.145 E.32441
G1 X149.953 Y119.145 E.01683
G1 X142.662 Y111.855 E.32441
G1 X142.127 Y111.855 E.01683
G1 X149.418 Y119.145 E.32441
G1 X148.883 Y119.145 E.01683
G1 X141.592 Y111.855 E.32441
G1 X141.057 Y111.855 E.01683
G1 X148.348 Y119.145 E.32441
G1 X147.813 Y119.145 E.01683
G1 X140.522 Y111.855 E.32441
G1 X139.987 Y111.855 E.01683
G1 X147.278 Y119.145 E.32441
G1 X146.742 Y119.145 E.01686
G1 X139.451 Y111.855 E.32441
G1 X138.916 Y111.855 E.01683
G1 X146.207 Y119.145 E.32441
G1 X145.672 Y119.145 E.01683
G1 X138.381 Y111.855 E.32441
G1 X137.846 Y111.855 E.01683
G1 X145.137 Y119.145 E.32441
G1 X144.602 Y119.145 E.01683
G1 X137.311 Y111.855 E.32441
G1 X136.776 Y111.855 E.01683
G1 X144.067 Y119.145 E.32441
G1 X143.532 Y119.145 E.01683
G1 X136.241 Y111.855 E.32441
G1 X135.705 Y111.855 E.01686
G1 X142.996 Y119.145 E.32441
G1 X142.461 Y119.145 E.01683
G1 X135.17 Y111.855 E.32441
G1 X134.635 Y111.855 E.01683
G1 X141.926 Y119.145 E.32441
G1 X141.391 Y119.145 E.01683
G1 X134.1 Y111.855 E.32441
G1 X133.565 Y111.855 E.01683
G1 X140.856 Y119.145 E.32441
G1 X140.321 Y119.145 E.01683
G1 X133.03 Y111.855 E.32441
G1 X132.495 Y111.855 E.01683
G1 X139.786 Y119.145 E.32441
G1 X139.251 Y119.145 E.01683
G1 X131.96 Y111.855 E.32441
G1 X131.424 Y111.855 E.01686
G1 X138.715 Y119.145 E.32441
G1 X138.18 Y119.145 E.01683
G1 X130.889 Y111.855 E.32441
G1 X130.354 Y111.855 E.01683
G1 X137.645 Y119.145 E.32441
G1 X137.11 Y119.145 E.01683
G1 X129.819 Y111.855 E.32441
G1 X129.284 Y111.855 E.01683
G1 X136.575 Y119.145 E.32441
G1 X136.04 Y119.145 E.01683
G1 X128.749 Y111.855 E.32441
G1 X128.214 Y111.855 E.01683
G1 X135.505 Y119.145 E.32441
G1 X134.969 Y119.145 E.01686
G1 X127.678 Y111.855 E.32441
G1 X127.143 Y111.855 E.01683
G1 X134.434 Y119.145 E.32441
G1 X133.899 Y119.145 E.01683
G1 X126.608 Y111.855 E.32441
G1 X126.073 Y111.855 E.01683
G1 X133.364 Y119.145 E.32441
G1 X132.829 Y119.145 E.01683
G1 X125.538 Y111.855 E.32441
G1 X125.003 Y111.855 E.01683
G1 X132.294 Y119.145 E.32441
G1 X131.759 Y119.145 E.01683
G1 X124.468 Y111.855 E.32441
G1 X123.932 Y111.855 E.01686
G1 X131.223 Y119.145 E.32441
G1 X130.688 Y119.145 E.01683
G1 X123.397 Y111.855 E.32441
G1 X122.862 Y111.855 E.01683
G1 X130.153 Y119.145 E.32441
G1 X129.618 Y119.145 E.01683
G1 X122.327 Y111.855 E.32441
G1 X121.792 Y111.855 E.01683
G1 X129.083 Y119.145 E.32441
G1 X128.548 Y119.145 E.01683
G1 X121.257 Y111.855 E.32441
G1 X120.722 Y111.855 E.01683
G1 X128.013 Y119.145 E.32441
G1 X127.477 Y119.145 E.01686
G1 X120.186 Y111.855 E.32441
G1 X119.651 Y111.855 E.01683
G1 X126.942 Y119.145 E.32441
G1 X126.407 Y119.145 E.01683
G1 X119.116 Y111.855 E.32441
G1 X118.581 Y111.855 E.01683
G1 X125.872 Y119.145 E.32441
G1 X125.337 Y119.145 E.01683
G1 X118.046 Y111.855 E.32441
G1 X117.511 Y111.855 E.01683
G1 X124.802 Y119.145 E.32441
G1 X124.267 Y119.145 E.01683
G1 X116.976 Y111.855 E.32441
G1 X116.44 Y111.855 E.01686
G1 X123.731 Y119.145 E.32441
G1 X123.196 Y119.145 E.01683
G1 X115.905 Y111.855 E.32441
G1 X115.37 Y111.855 E.01683
G1 X122.661 Y119.145 E.32441
G1 X122.126 Y119.145 E.01683
G1 X114.835 Y111.855 E.32441
G1 X114.3 Y111.855 E.01683
G1 X121.591 Y119.145 E.32441
G1 X121.056 Y119.145 E.01683
G1 X113.765 Y111.855 E.32441
G1 X113.23 Y111.855 E.01683
G1 X120.521 Y119.145 E.32441
G1 X119.985 Y119.145 E.01686
G1 X112.694 Y111.855 E.32441
G1 X112.159 Y111.855 E.01683
G1 X119.45 Y119.145 E.32441
G1 X118.915 Y119.145 E.01683
G1 X111.624 Y111.855 E.32441
G1 X111.089 Y111.855 E.01683
G1 X118.38 Y119.145 E.32441
G1 X117.845 Y119.145 E.01683
G1 X110.554 Y111.855 E.32441
G1 X110.019 Y111.855 E.01683
G1 X117.31 Y119.145 E.32441
G1 X116.775 Y119.145 E.01683
G1 X109.484 Y111.855 E.32441
G1 X108.949 Y111.855 E.01683
G1 X116.239 Y119.145 E.32438
G1 X115.704 Y119.145 E.01683
G1 X108.413 Y111.855 E.32441
G1 X107.878 Y111.855 E.01683
G1 X115.169 Y119.145 E.32441
G1 X114.634 Y119.145 E.01683
G1 X107.343 Y111.855 E.32441
G1 X106.808 Y111.855 E.01683
G1 X114.099 Y119.145 E.32441
G1 X113.564 Y119.145 E.01683
G1 X106.273 Y111.855 E.32441
G1 X105.738 Y111.855 E.01683
G1 X113.029 Y119.145 E.32441
G1 X112.494 Y119.145 E.01683
G1 X105.203 Y111.855 E.32441
G1 X104.667 Y111.855 E.01686
G1 X111.958 Y119.145 E.32441
G1 X111.423 Y119.145 E.01683
G1 X104.132 Y111.855 E.32441
G1 X103.597 Y111.855 E.01683
G1 X110.888 Y119.145 E.32441
G1 X110.353 Y119.145 E.01683
G1 X103.062 Y111.855 E.32441
G1 X102.527 Y111.855 E.01683
G1 X109.818 Y119.145 E.32441
G1 X109.283 Y119.145 E.01683
G1 X101.992 Y111.855 E.32441
G1 X101.457 Y111.855 E.01683
G1 X108.748 Y119.145 E.32441
G1 X108.212 Y119.145 E.01686
G1 X100.921 Y111.855 E.32441
G1 X100.386 Y111.855 E.01683
G1 X107.677 Y119.145 E.32441
G1 X107.142 Y119.145 E.01683
G1 X99.851 Y111.855 E.32441
G1 X99.316 Y111.855 E.01683
G1 X106.607 Y119.145 E.32441
G1 X106.072 Y119.145 E.01683
G1 X98.781 Y111.855 E.32441
G1 X98.246 Y111.855 E.01683
G1 X105.537 Y119.145 E.32441
G1 X105.002 Y119.145 E.01683
G1 X97.711 Y111.855 E.32441
G1 X97.175 Y111.855 E.01686
G1 X104.466 Y119.145 E.32441
G1 X103.931 Y119.145 E.01683
G1 X96.64 Y111.855 E.32441
G1 X96.105 Y111.855 E.01683
G1 X103.396 Y119.145 E.32441
G1 X102.861 Y119.145 E.01683
G1 X95.57 Y111.855 E.32441
G1 X95.035 Y111.855 E.01683
G1 X102.326 Y119.145 E.32441
G1 X101.791 Y119.145 E.01683
G1 X94.5 Y111.855 E.32441
