; generated by PrusaSlicer 2.7.0+win64 on 2023-12-09 at 08:44:05 UTC

; 

; external perimeters extrusion width = 0.42mm
; perimeters extrusion width = 0.44mm
; infill extrusion width = 0.44mm
; solid infill extrusion width = 0.44mm
; top infill extrusion width = 0.40mm
; first layer extrusion width = 0.42mm

; external perimeters extrusion width = 0.42mm
; perimeters extrusion width = 0.44mm
; infill extrusion width = 0.44mm
; solid infill extrusion width = 0.44mm
; top infill extrusion width = 0.40mm
; first layer extrusion width = 0.42mm

; external perimeters extrusion width = 0.42mm
; perimeters extrusion width = 0.44mm
; infill extrusion width = 0.44mm
; solid infill extrusion width = 0.44mm
; top infill extrusion width = 0.40mm
; first layer extrusion width = 0.42mm


; printing object pc3-axle.stl id:0 copy 0
; stop printing object pc3-axle.stl id:0 copy 0
; printing object pc3-base.stl id:1 copy 0
; stop printing object pc3-base.stl id:1 copy 0
; printing object pc3-cutter.stl id:2 copy 0
; stop printing object pc3-cutter.stl id:2 copy 0

;TYPE:Custom
G90 ; use absolute coordinates
M83 ; extruder relative mode
M104 S150 ; set temporary nozzle temp to prevent oozing during homing
M140 S70 ; set final bed temp
G4 S30 ; allow partial nozzle warmup
G28 ; home all axis
G1 Z50 F240
G1 X2.0 Y10 F3000
M104 S240 ; set final nozzle temp
M190 S70 ; wait for bed temp to stabilize
M109 S240 ; wait for nozzle temp to stabilize
G1 Z0.28 F240
G92 E0
G1 X2.0 Y140 E10 F1500 ; prime the nozzle
G1 X2.3 Y140 F5000
G92 E0
G1 X2.3 Y10 E10 F1200 ; prime the nozzle
G92 E0
G21 ; set units to millimeters
G90 ; use absolute coordinates
M83 ; use relative distances for extrusion
; Filament gcode
M107
;LAYER_CHANGE
;Z:0.2
;HEIGHT:0.2
;BEFORE_LAYER_CHANGE
G92 E0
;0.2


G1 E-5 F3600
G1 Z.2 F9000
;AFTER_LAYER_CHANGE
;0.2
G1 X88.028 Y97.099
G1 Z.2
G1 E5 F2400
M204 S500
;TYPE:Skirt/Brim
;WIDTH:0.42
G1 F1200
G1 X89.252 Y96.261 E.04651
G1 X113.538 Y86.601 E.8195
G1 X114.622 Y86.297 E.0353
G1 X115.756 Y86.23 E.03562
G1 X116.685 Y86.358 E.0294
G1 X117.462 Y86.601 E.02553
G1 X141.748 Y96.261 E.8195
G1 X143.074 Y97.212 E.05116
G1 X143.762 Y98.526 E.04651
G1 X153.476 Y134.826 E1.17821
G1 X153.591 Y135.699 E.02761
G1 X153.591 Y141.099 E.16931
G1 X153.197 Y142.682 E.05115
G1 X152.504 Y143.581 E.03559
G1 X151.708 Y144.177 E.03118
G1 X150.614 Y144.631 E.03714
G1 X149.5 Y144.776 E.03522
G1 X81.5 Y144.776 E2.13209
G1 X80.395 Y144.634 E.03493
G1 X79.213 Y144.13 E.04029
G1 X78.528 Y143.611 E.02695
G1 X77.618 Y142.257 E.05115
G1 X77.416 Y141.11 E.03652
G1 X77.409 Y135.703 E.16953
G1 X77.524 Y134.826 E.02773
G1 X87.238 Y98.526 E1.17821
G1 X87.999 Y97.151 E.04927
; printing object pc3-cutter.stl id:2 copy 0
G1 E-3.5 F3600
;WIPE_START
G1 F7200
G1 X88.028 Y97.099 E-.02828
G1 X89.252 Y96.261 E-.70461
G1 X90.753 Y95.664 E-.76711
;WIPE_END
G1 X82.131 Y136.468 F9000
G1 E5 F2400
;TYPE:Perimeter
;WIDTH:0.419999
G1 F1200
G1 X148.869 Y136.464 E2.09252
G1 X148.869 Y140.331 E.12125
G1 X82.131 Y140.335 E2.09252
G1 X82.131 Y136.528 E.11937
G1 X81.754 Y136.091 F9000
G1 F1200
G1 X149.246 Y136.086 E2.11616
G1 X149.246 Y140.708 E.14492
G1 X81.754 Y140.712 E2.11616
G1 X81.754 Y136.151 E.14301
G1 X81.377 Y135.728 F9000
;TYPE:External perimeter
G1 F1200
G1 X81.437 Y135.714 E.00193
G1 X149.465 Y135.709 E2.13297
G1 X149.623 Y135.736 E.00503
G1 X149.623 Y135.868 E.00414
G1 X149.623 Y141.07 E.1631
G1 X149.563 Y141.085 E.00194
G1 X81.537 Y141.089 E2.1329
G1 X81.377 Y141.062 E.00509
G1 X81.377 Y135.788 E.16536
G1 E-3.5 F3600
;WIPE_START
G1 F7200
G1 X81.377 Y135.728 E-.0285
G1 X81.437 Y135.714 E-.02927
G1 X84.473 Y135.714 E-1.44223
;WIPE_END
G1 X148.748 Y137.35 F9000
G1 E5 F2400
;TYPE:Solid infill
;WIDTH:0.421855
G1 F1200
G1 X148.152 Y136.754 E.02656
G1 X147.616 Y136.754 E.01689
G1 X148.579 Y137.717 E.04291
G1 X148.579 Y138.253 E.01689
G1 X147.08 Y136.754 E.0668
G1 X146.544 Y136.754 E.01689
G1 X148.579 Y138.788 E.09066
G1 X148.579 Y139.324 E.01689
G1 X146.008 Y136.754 E.11454
G1 X145.473 Y136.754 E.01686
G1 X148.579 Y139.86 E.1384
G1 X148.579 Y140.04 E.00567
G1 X148.223 Y140.04 E.01122
G1 X144.937 Y136.754 E.14642
G1 X144.401 Y136.754 E.01689
G1 X147.687 Y140.04 E.14642
G1 X147.151 Y140.04 E.01689
G1 X143.865 Y136.754 E.14642
G1 X143.329 Y136.754 E.01689
G1 X146.615 Y140.04 E.14642
G1 X146.079 Y140.04 E.01689
G1 X142.793 Y136.754 E.14642
G1 X142.257 Y136.754 E.01689
G1 X145.544 Y140.04 E.14645
G1 X145.008 Y140.04 E.01689
G1 X141.722 Y136.754 E.14642
G1 X141.186 Y136.754 E.01689
G1 X144.472 Y140.041 E.14645
G1 X143.936 Y140.041 E.01689
G1 X140.65 Y136.754 E.14645
G1 X140.114 Y136.754 E.01689
G1 X143.4 Y140.041 E.14645
G1 X142.864 Y140.041 E.01689
G1 X139.578 Y136.754 E.14645
G1 X139.042 Y136.755 E.01689
G1 X142.328 Y140.041 E.14642
G1 X141.793 Y140.041 E.01686
G1 X138.506 Y136.755 E.14645
G1 X137.971 Y136.755 E.01686
G1 X141.257 Y140.041 E.14642
G1 X140.721 Y140.041 E.01689
G1 X137.435 Y136.755 E.14642
G1 X136.899 Y136.755 E.01689
G1 X140.185 Y140.041 E.14642
G1 X139.649 Y140.041 E.01689
G1 X136.363 Y136.755 E.14642
G1 X135.827 Y136.755 E.01689
G1 X139.113 Y140.041 E.14642
G1 X138.577 Y140.041 E.01689
G1 X135.291 Y136.755 E.14642
G1 X134.755 Y136.755 E.01689
G1 X138.042 Y140.041 E.14645
G1 X137.506 Y140.041 E.01689
G1 X134.22 Y136.755 E.14642
G1 X133.684 Y136.755 E.01689
G1 X136.97 Y140.041 E.14642
G1 X136.434 Y140.041 E.01689
G1 X133.148 Y136.755 E.14642
G1 X132.612 Y136.755 E.01689
G1 X135.898 Y140.041 E.14642
G1 X135.362 Y140.041 E.01689
G1 X132.076 Y136.755 E.14642
G1 X131.54 Y136.755 E.01689
G1 X134.826 Y140.041 E.14642
G1 X134.291 Y140.041 E.01686
G1 X131.004 Y136.755 E.14645
G1 X130.468 Y136.755 E.01689
G1 X133.755 Y140.041 E.14645
G1 X133.219 Y140.041 E.01689
G1 X129.933 Y136.755 E.14642
G1 X129.397 Y136.755 E.01689
G1 X132.683 Y140.041 E.14642
G1 X132.147 Y140.041 E.01689
G1 X128.861 Y136.755 E.14642
G1 X128.325 Y136.755 E.01689
G1 X131.611 Y140.041 E.14642
G1 X131.075 Y140.041 E.01689
G1 X127.789 Y136.755 E.14642
G1 X127.253 Y136.755 E.01689
G1 X130.54 Y140.041 E.14645
G1 X130.004 Y140.041 E.01689
G1 X126.717 Y136.755 E.14645
G1 X126.182 Y136.755 E.01686
G1 X129.468 Y140.042 E.14645
G1 X128.932 Y140.042 E.01689
G1 X125.646 Y136.755 E.14645
G1 X125.11 Y136.755 E.01689
G1 X128.396 Y140.042 E.14645
G1 X127.86 Y140.042 E.01689
G1 X124.574 Y136.755 E.14645
G1 X124.038 Y136.755 E.01689
G1 X127.324 Y140.042 E.14645
G1 X126.788 Y140.042 E.01689
G1 X123.502 Y136.755 E.14645
G1 X122.966 Y136.756 E.01689
G1 X126.253 Y140.042 E.14645
G1 X125.717 Y140.042 E.01689
G1 X122.431 Y136.756 E.14642
G1 X121.895 Y136.756 E.01689
G1 X125.181 Y140.042 E.14642
G1 X124.645 Y140.042 E.01689
G1 X121.359 Y136.756 E.14642
G1 X120.823 Y136.756 E.01689
G1 X124.109 Y140.042 E.14642
G1 X123.573 Y140.042 E.01689
G1 X120.287 Y136.756 E.14642
G1 X119.751 Y136.756 E.01689
G1 X123.037 Y140.042 E.14642
G1 X122.502 Y140.042 E.01686
G1 X119.215 Y136.756 E.14645
G1 X118.68 Y136.756 E.01686
G1 X121.966 Y140.042 E.14642
G1 X121.43 Y140.042 E.01689
G1 X118.144 Y136.756 E.14642
G1 X117.608 Y136.756 E.01689
G1 X120.894 Y140.042 E.14642
G1 X120.358 Y140.042 E.01689
G1 X117.072 Y136.756 E.14642
G1 X116.536 Y136.756 E.01689
G1 X119.822 Y140.042 E.14642
G1 X119.286 Y140.042 E.01689
G1 X116 Y136.756 E.14642
G1 X115.464 Y136.756 E.01689
G1 X118.751 Y140.042 E.14645
G1 X118.215 Y140.042 E.01689
G1 X114.929 Y136.756 E.14642
G1 X114.393 Y136.756 E.01689
G1 X117.679 Y140.042 E.14642
G1 X117.143 Y140.042 E.01689
G1 X113.857 Y136.756 E.14642
G1 X113.321 Y136.756 E.01689
G1 X116.607 Y140.042 E.14642
G1 X116.071 Y140.042 E.01689
G1 X112.785 Y136.756 E.14642
G1 X112.249 Y136.756 E.01689
G1 X115.535 Y140.042 E.14642
G1 X115 Y140.042 E.01686
G1 X111.713 Y136.756 E.14645
G1 X111.177 Y136.756 E.01689
G1 X114.464 Y140.042 E.14645
G1 X113.928 Y140.043 E.01689
G1 X110.642 Y136.756 E.14645
G1 X110.106 Y136.756 E.01689
G1 X113.392 Y140.043 E.14645
G1 X112.856 Y140.043 E.01689
G1 X109.57 Y136.756 E.14645
G1 X109.034 Y136.756 E.01689
G1 X112.32 Y140.043 E.14645
G1 X111.784 Y140.043 E.01689
G1 X108.498 Y136.756 E.14645
G1 X107.962 Y136.756 E.01689
G1 X111.249 Y140.043 E.14647
G1 X110.713 Y140.043 E.01689
G1 X107.426 Y136.757 E.14645
G1 X106.891 Y136.757 E.01686
G1 X110.177 Y140.043 E.14642
G1 X109.641 Y140.043 E.01689
G1 X106.355 Y136.757 E.14642
G1 X105.819 Y136.757 E.01689
G1 X109.105 Y140.043 E.14642
G1 X108.569 Y140.043 E.01689
G1 X105.283 Y136.757 E.14642
G1 X104.747 Y136.757 E.01689
G1 X108.033 Y140.043 E.14642
G1 X107.498 Y140.043 E.01686
G1 X104.211 Y136.757 E.14645
G1 X103.675 Y136.757 E.01689
G1 X106.962 Y140.043 E.14645
G1 X106.426 Y140.043 E.01689
G1 X103.14 Y136.757 E.14642
G1 X102.604 Y136.757 E.01689
G1 X105.89 Y140.043 E.14642
G1 X105.354 Y140.043 E.01689
G1 X102.068 Y136.757 E.14642
G1 X101.532 Y136.757 E.01689
G1 X104.818 Y140.043 E.14642
G1 X104.282 Y140.043 E.01689
G1 X100.996 Y136.757 E.14642
G1 X100.46 Y136.757 E.01689
G1 X103.747 Y140.043 E.14645
G1 X103.211 Y140.043 E.01689
G1 X99.924 Y136.757 E.14645
G1 X99.389 Y136.757 E.01686
G1 X102.675 Y140.043 E.14642
G1 X102.139 Y140.043 E.01689
G1 X98.853 Y136.757 E.14642
G1 X98.317 Y136.757 E.01689
G1 X101.603 Y140.043 E.14642
G1 X101.067 Y140.043 E.01689
G1 X97.781 Y136.757 E.14642
G1 X97.245 Y136.757 E.01689
G1 X100.531 Y140.043 E.14642
G1 X99.996 Y140.043 E.01686
G1 X96.709 Y136.757 E.14645
G1 X96.173 Y136.757 E.01689
G1 X99.46 Y140.043 E.14645
G1 X98.924 Y140.044 E.01689
G1 X95.638 Y136.757 E.14645
G1 X95.102 Y136.757 E.01689
G1 X98.388 Y140.044 E.14645
G1 X97.852 Y140.044 E.01689
G1 X94.566 Y136.757 E.14645
G1 X94.03 Y136.757 E.01689
G1 X97.316 Y140.044 E.14645
G1 X96.78 Y140.044 E.01689
G1 X93.494 Y136.757 E.14645
G1 X92.958 Y136.757 E.01689
G1 X96.244 Y140.044 E.14645
G1 X95.709 Y140.044 E.01686
G1 X92.422 Y136.757 E.14647
G1 X91.886 Y136.757 E.01689
G1 X95.173 Y140.044 E.14647
G1 X94.637 Y140.044 E.01689
G1 X91.351 Y136.758 E.14642
G1 X90.815 Y136.758 E.01689
G1 X94.101 Y140.044 E.14642
G1 X93.565 Y140.044 E.01689
G1 X90.279 Y136.758 E.14642
G1 X89.743 Y136.758 E.01689
G1 X93.029 Y140.044 E.14642
G1 X92.493 Y140.044 E.01689
G1 X89.207 Y136.758 E.14642
G1 X88.671 Y136.758 E.01689
G1 X91.958 Y140.044 E.14645
G1 X91.422 Y140.044 E.01689
G1 X88.135 Y136.758 E.14645
G1 X87.6 Y136.758 E.01686
G1 X90.886 Y140.044 E.14642
G1 X90.35 Y140.044 E.01689
G1 X87.064 Y136.758 E.14642
G1 X86.528 Y136.758 E.01689
G1 X89.814 Y140.044 E.14642
G1 X89.278 Y140.044 E.01689
G1 X85.992 Y136.758 E.14642
G1 X85.456 Y136.758 E.01689
G1 X88.742 Y140.044 E.14642
G1 X88.207 Y140.044 E.01686
G1 X84.92 Y136.758 E.14645
G1 X84.384 Y136.758 E.01689
G1 X87.671 Y140.044 E.14645
G1 X87.135 Y140.044 E.01689
G1 X83.849 Y136.758 E.14642
G1 X83.313 Y136.758 E.01689
G1 X86.599 Y140.044 E.14642
G1 X86.063 Y140.044 E.01689
G1 X82.777 Y136.758 E.14642
G1 X82.421 Y136.758 E.01122
G1 X82.421 Y136.938 E.00567
G1 X85.527 Y140.044 E.1384
G1 X84.991 Y140.044 E.01689
G1 X82.421 Y137.474 E.11452
G1 X82.421 Y138.01 E.01689
G1 X84.456 Y140.044 E.09066
G1 X83.92 Y140.044 E.01689
G1 X82.421 Y138.546 E.06677
G1 X82.421 Y139.082 E.01689
G1 X83.384 Y140.045 E.04291
G1 X82.848 Y140.045 E.01689
G1 X82.252 Y139.448 E.02658
; stop printing object pc3-cutter.stl id:2 copy 0
; printing object pc3-base.stl id:1 copy 0
G1 E-3.5 F3600
;WIPE_START
G1 F7200
G1 X82.848 Y140.045 E-.4007
G1 X83.384 Y140.045 E-.2546
G1 X82.421 Y139.082 E-.6469
G1 X82.421 Y138.666 E-.1978
;WIPE_END
G1 X91.564 Y128.335 F9000
G1 E5 F2400
;TYPE:Perimeter
;WIDTH:0.419999
G1 F1200
G1 X91.564 Y100.463 E.87391
G1 X139.436 Y100.463 E1.50099
G1 X139.436 Y114.399 E.43695
G1 X139.436 Y128.335 E.43695
G1 X91.624 Y128.335 E1.49911
G1 X91.187 Y128.712 F9000
G1 F1200
G1 X91.187 Y100.086 E.89755
G1 X139.813 Y100.086 E1.52463
G1 X139.813 Y114.399 E.44877
G1 X139.813 Y128.712 E.44877
G1 X91.247 Y128.712 E1.52275
G1 X90.81 Y129.089 F9000
;TYPE:External perimeter
G1 F1200
G1 X90.81 Y99.709 E.92119
G1 X140.19 Y99.709 E1.54827
G1 X140.19 Y114.399 E.46059
G1 X140.19 Y129.089 E.46059
G1 X90.87 Y129.089 E1.54639
G1 E-3.5 F3600
;WIPE_START
G1 F7200
G1 X90.81 Y129.089 E-.0285
G1 X90.81 Y125.991 E-1.4715
;WIPE_END
G1 X138.551 Y100.584 F9000
G1 E5 F2400
;TYPE:Solid infill
;WIDTH:0.420726
G1 F1200
G1 X139.145 Y101.178 E.02639
G1 X139.145 Y101.712 E.01678
G1 X138.187 Y100.754 E.04256
G1 X137.652 Y100.754 E.01681
G1 X139.145 Y102.247 E.06633
G1 X139.145 Y102.781 E.01678
G1 X137.118 Y100.754 E.09005
G1 X136.584 Y100.754 E.01678
G1 X139.145 Y103.315 E.11378
G1 X139.145 Y103.85 E.01681
G1 X136.05 Y100.754 E.13752
G1 X135.515 Y100.754 E.01681
G1 X139.145 Y104.384 E.16127
G1 X139.145 Y104.918 E.01678
G1 X134.981 Y100.754 E.18499
G1 X134.447 Y100.754 E.01678
G1 X139.145 Y105.453 E.20874
G1 X139.145 Y105.987 E.01678
G1 X133.912 Y100.754 E.23249
G1 X133.378 Y100.754 E.01678
G1 X139.145 Y106.521 E.25621
G1 X139.145 Y107.055 E.01678
G1 X132.844 Y100.754 E.27994
G1 X132.309 Y100.754 E.01681
G1 X139.145 Y107.59 E.3037
G1 X139.145 Y108.124 E.01678
G1 X131.775 Y100.754 E.32743
G1 X131.241 Y100.754 E.01678
G1 X139.145 Y108.658 E.35115
G1 X139.145 Y109.193 E.01681
G1 X130.707 Y100.754 E.3749
G1 X130.172 Y100.754 E.01681
G1 X139.145 Y109.727 E.39864
G1 X139.145 Y110.261 E.01678
G1 X129.638 Y100.754 E.42237
G1 X129.104 Y100.754 E.01678
G1 X139.145 Y110.795 E.44609
G1 X139.145 Y111.33 E.01681
G1 X128.569 Y100.754 E.46986
G1 X128.035 Y100.754 E.01678
G1 X139.145 Y111.864 E.49358
G1 X139.145 Y112.398 E.01678
G1 X127.501 Y100.754 E.51731
G1 X126.966 Y100.754 E.01681
G1 X139.145 Y112.933 E.54108
G1 X139.145 Y113.467 E.01678
G1 X126.432 Y100.754 E.5648
G1 X125.898 Y100.754 E.01678
G1 X139.145 Y114.001 E.58853
G1 X139.145 Y114.536 E.01681
G1 X125.364 Y100.754 E.61227
G1 X124.829 Y100.754 E.01681
G1 X139.145 Y115.07 E.63602
G1 X139.145 Y115.604 E.01678
G1 X124.295 Y100.754 E.65974
G1 X123.761 Y100.754 E.01678
G1 X139.145 Y116.138 E.68347
G1 X139.145 Y116.673 E.01681
G1 X123.226 Y100.754 E.70723
G1 X122.692 Y100.754 E.01678
G1 X139.145 Y117.207 E.73096
G1 X139.145 Y117.741 E.01678
G1 X122.158 Y100.754 E.75468
G1 X121.624 Y100.754 E.01678
G1 X139.145 Y118.276 E.77843
G1 X139.145 Y118.81 E.01678
G1 X121.089 Y100.754 E.80218
G1 X120.555 Y100.754 E.01678
G1 X139.145 Y119.344 E.8259
G1 X139.145 Y119.879 E.01681
G1 X120.021 Y100.754 E.84965
G1 X119.486 Y100.754 E.01681
G1 X139.145 Y120.413 E.87339
G1 X139.145 Y120.947 E.01678
G1 X118.952 Y100.754 E.89712
G1 X118.418 Y100.754 E.01678
G1 X139.145 Y121.481 E.92084
G1 X139.145 Y122.016 E.01681
G1 X117.883 Y100.754 E.94461
G1 X117.349 Y100.754 E.01678
G1 X139.145 Y122.55 E.96833
G1 X139.145 Y123.084 E.01678
G1 X116.815 Y100.754 E.99206
G1 X116.281 Y100.754 E.01678
G1 X139.145 Y123.619 E1.0158
G1 X139.145 Y124.153 E.01678
G1 X115.746 Y100.754 E1.03955
G1 X115.212 Y100.754 E.01678
G1 X139.145 Y124.687 E1.06327
G1 X139.145 Y125.222 E.01681
G1 X114.678 Y100.754 E1.08702
G1 X114.143 Y100.754 E.01681
G1 X139.145 Y125.756 E1.11077
G1 X139.145 Y126.29 E.01678
G1 X113.609 Y100.754 E1.13449
G1 X113.075 Y100.754 E.01678
G1 X139.145 Y126.824 E1.15821
G1 X139.145 Y127.359 E.01681
G1 X112.54 Y100.754 E1.18198
G1 X112.006 Y100.754 E.01678
G1 X139.145 Y127.893 E1.20571
G1 X139.145 Y128.045 E.00478
G1 X138.763 Y128.045 E.012
G1 X111.472 Y100.754 E1.21246
G1 X110.938 Y100.754 E.01678
G1 X138.229 Y128.045 E1.21246
G1 X137.694 Y128.045 E.01681
G1 X110.403 Y100.754 E1.21246
G1 X109.869 Y100.754 E.01678
G1 X137.16 Y128.045 E1.21246
G1 X136.626 Y128.045 E.01678
G1 X109.335 Y100.754 E1.21246
G1 X108.8 Y100.754 E.01681
G1 X136.091 Y128.045 E1.21246
G1 X135.557 Y128.045 E.01678
G1 X108.266 Y100.754 E1.21246
G1 X107.732 Y100.754 E.01678
G1 X135.023 Y128.045 E1.21246
G1 X134.488 Y128.045 E.01681
G1 X107.197 Y100.754 E1.21246
G1 X106.663 Y100.754 E.01678
G1 X133.954 Y128.045 E1.21246
G1 X133.42 Y128.045 E.01678
G1 X106.129 Y100.754 E1.21246
G1 X105.595 Y100.754 E.01678
G1 X132.886 Y128.045 E1.21246
G1 X132.351 Y128.045 E.01681
G1 X105.06 Y100.754 E1.21246
G1 X104.526 Y100.754 E.01678
G1 X131.817 Y128.045 E1.21246
G1 X131.283 Y128.045 E.01678
G1 X103.992 Y100.754 E1.21246
