; generated by PrusaSlicer 2.6.1+win64 on 2023-11-04 at 20:52:41 UTC

; 

; external perimeters extrusion width = 0.45mm
; perimeters extrusion width = 0.45mm
; infill extrusion width = 0.45mm
; solid infill extrusion width = 0.45mm
; top infill extrusion width = 0.40mm
; first layer extrusion width = 0.42mm

M201 X500 Y500 Z100 E5000 ; sets maximum accelerations, mm/sec^2
M203 X500 Y500 Z10 E60 ; sets maximum feedrates, mm / sec
M204 S500 T1000 ; sets acceleration (S) and retract acceleration (R), mm/sec^2
M205 X8.00 Y8.00 Z0.40 E5.00 ; sets the jerk limits, mm/sec
M205 S0 T0 ; sets the minimum extruding and travel feed rate, mm/sec
;TYPE:Custom
G90 ; use absolute coordinates
M83 ; extruder relative mode
M104 S150 ; set temporary nozzle temp to prevent oozing during homing
M140 S70 ; set final bed temp
G4 S30 ; allow partial nozzle warmup
G28 ; home all axis
G1 Z50 F240
G1 X2.0 Y10 F3000
M104 S240 ; set final nozzle temp
M190 S70 ; wait for bed temp to stabilize
M109 S240 ; wait for nozzle temp to stabilize
G1 Z0.28 F240
G92 E0
G1 X2.0 Y140 E10 F1500 ; prime the nozzle
G1 X2.3 Y140 F5000
G92 E0
G1 X2.3 Y10 E10 F1200 ; prime the nozzle
G92 E0
G21 ; set units to millimeters
G90 ; use absolute coordinates
M83 ; use relative distances for extrusion
; Filament gcode
M107
;LAYER_CHANGE
;Z:0.35
;HEIGHT:0.35
;BEFORE_LAYER_CHANGE
G92 E0
;0.35


G1 E-5 F3600
G1 Z.35 F7800
;AFTER_LAYER_CHANGE
;0.35
G1 X82.057 Y81.079
G1 E5 F2400
;TYPE:Skirt/Brim
;WIDTH:0.42
G1 F1800
G1 X83.799 Y79.664 E.11263
G1 X86.864 Y78.875 E.15883
G1 X144.136 Y78.875 E2.87425
G1 X146.345 Y79.272 E.11264
G1 X148.277 Y80.413 E.11261
G1 X149.692 Y82.155 E.11263
G1 X150.481 Y85.22 E.15883
G1 X150.481 Y109.844 E1.23578
G1 X150.084 Y112.053 E.11264
G1 X149.566 Y113.127 E.05984
G1 X124.054 Y155.315 E2.47427
G1 X122.572 Y157 E.11262
G1 X120.596 Y158.063 E.11261
G1 X118.625 Y158.377 E.10016
G1 X112.375 Y158.377 E.31366
G1 X110.166 Y157.98 E.11264
G1 X108.234 Y156.839 E.11261
G1 X106.946 Y155.315 E.10014
G1 X81.434 Y113.127 E2.47427
G1 X80.631 Y111.032 E.1126
G1 X80.519 Y109.844 E.05989
G1 X80.519 Y85.22 E1.23578
G1 X80.916 Y83.011 E.11264
G1 X82.026 Y81.13 E.10961
G1 E-3.5 F3600
;WIPE_START
G1 F6240
G1 X83.799 Y79.664 E-1.2609
G1 X84.221 Y79.555 E-.2391
;WIPE_END
G1 X132.764 Y108.944 F7800
G1 E5 F2400
;TYPE:Perimeter
;WIDTH:0.42
G1 F1800
G1 X132.764 Y86.12 E1.14544
G1 X143.236 Y86.12 E.52555
G1 X143.236 Y108.944 E1.14544
G1 X132.824 Y108.944 E.52254
G1 X132.419 Y109.289 F7800
G1 F1800
G1 X132.419 Y85.775 E1.18007
G1 X143.581 Y85.775 E.56017
G1 X143.581 Y109.289 E1.18007
G1 X132.479 Y109.289 E.55716
G1 X132.074 Y109.634 F7800
;TYPE:External perimeter
G1 F1800
G1 X132.074 Y85.43 E1.2147
G1 X143.926 Y85.43 E.5948
G1 X143.926 Y109.634 E1.2147
G1 X132.134 Y109.634 E.59179
G1 X132.134 Y109.238 F7800
G1 E-3.5 F3600
;WIPE_START
G1 F6240
G1 X132.127 Y106.897 E-1.5
;WIPE_END
G1 X142.43 Y86.223 F7800
G1 E5 F2400
;TYPE:Solid infill
;WIDTH:0.422881
G1 F1800
G1 X142.978 Y86.771 E.03922
G1 X142.978 Y87.263 E.0249
G1 X142.093 Y86.378 E.06334
G1 X141.601 Y86.378 E.0249
G1 X142.978 Y87.755 E.09855
G1 X142.978 Y88.247 E.0249
G1 X141.109 Y86.378 E.13376
G1 X140.617 Y86.378 E.0249
G1 X142.978 Y88.739 E.16897
G1 X142.978 Y89.23 E.02485
G1 X140.126 Y86.378 E.20411
G1 X139.634 Y86.378 E.0249
G1 X142.978 Y89.722 E.23932
G1 X142.978 Y90.214 E.0249
G1 X139.142 Y86.378 E.27453
G1 X138.65 Y86.378 E.0249
G1 X142.978 Y90.706 E.30974
G1 X142.978 Y91.198 E.0249
G1 X138.158 Y86.378 E.34495
G1 X137.667 Y86.378 E.02485
G1 X142.978 Y91.689 E.38009
G1 X142.978 Y92.181 E.0249
G1 X137.175 Y86.378 E.4153
G1 X136.683 Y86.378 E.0249
G1 X142.978 Y92.673 E.45051
G1 X142.978 Y93.165 E.0249
G1 X136.191 Y86.378 E.48572
G1 X135.699 Y86.378 E.0249
G1 X142.978 Y93.657 E.52093
G1 X142.978 Y94.149 E.0249
G1 X135.207 Y86.378 E.55614
G1 X134.716 Y86.378 E.02485
G1 X142.978 Y94.64 E.59128
G1 X142.978 Y95.132 E.0249
G1 X134.224 Y86.378 E.62649
G1 X133.732 Y86.378 E.0249
G1 X142.978 Y95.624 E.6617
G1 X142.978 Y96.116 E.0249
G1 X133.24 Y86.378 E.69691
G1 X133.022 Y86.378 E.01103
G1 X133.022 Y86.652 E.01387
G1 X142.978 Y96.608 E.71252
G1 X142.978 Y97.1 E.0249
G1 X133.022 Y87.144 E.71252
G1 X133.022 Y87.636 E.0249
G1 X142.978 Y97.591 E.71248
G1 X142.978 Y98.083 E.0249
G1 X133.022 Y88.128 E.71248
G1 X133.022 Y88.62 E.0249
G1 X142.978 Y98.575 E.71248
G1 X142.978 Y99.067 E.0249
G1 X133.022 Y89.111 E.71252
G1 X133.022 Y89.603 E.0249
G1 X142.978 Y99.559 E.71252
G1 X142.978 Y100.05 E.02485
G1 X133.022 Y90.095 E.71248
G1 X133.022 Y90.587 E.0249
G1 X142.978 Y100.542 E.71248
G1 X142.978 Y101.034 E.0249
G1 X133.022 Y91.079 E.71248
G1 X133.022 Y91.571 E.0249
G1 X142.978 Y101.526 E.71248
G1 X142.978 Y102.018 E.0249
G1 X133.022 Y92.062 E.71252
G1 X133.022 Y92.554 E.0249
G1 X142.978 Y102.51 E.71252
G1 X142.978 Y103.001 E.02485
G1 X133.022 Y93.046 E.71248
G1 X133.022 Y93.538 E.0249
G1 X142.978 Y103.493 E.71248
G1 X142.978 Y103.985 E.0249
G1 X133.022 Y94.03 E.71248
G1 X133.022 Y94.521 E.02485
G1 X142.978 Y104.477 E.71252
G1 X142.978 Y104.969 E.0249
G1 X133.022 Y95.013 E.71252
G1 X133.022 Y95.505 E.0249
G1 X142.978 Y105.46 E.71248
G1 X142.978 Y105.952 E.0249
G1 X133.022 Y95.997 E.71248
G1 X133.022 Y96.489 E.0249
G1 X142.978 Y106.444 E.71248
G1 X142.978 Y106.936 E.0249
G1 X133.022 Y96.981 E.71248
G1 X133.022 Y97.472 E.02485
G1 X142.978 Y107.428 E.71252
G1 X142.978 Y107.92 E.0249
G1 X133.022 Y97.964 E.71252
G1 X133.022 Y98.456 E.0249
G1 X142.978 Y108.411 E.71248
G1 X142.978 Y108.685 E.01387
G1 X142.76 Y108.685 E.01103
G1 X133.022 Y98.948 E.69688
G1 X133.022 Y99.44 E.0249
G1 X142.268 Y108.685 E.66167
G1 X141.776 Y108.685 E.0249
G1 X133.022 Y99.931 E.62649
G1 X133.022 Y100.423 E.0249
G1 X141.284 Y108.685 E.59128
G1 X140.792 Y108.685 E.0249
G1 X133.022 Y100.915 E.55607
G1 X133.022 Y101.407 E.0249
G1 X140.301 Y108.685 E.5209
G1 X139.809 Y108.685 E.0249
G1 X133.022 Y101.899 E.48569
G1 X133.022 Y102.391 E.0249
G1 X139.317 Y108.685 E.45047
G1 X138.825 Y108.685 E.0249
G1 X133.022 Y102.882 E.4153
G1 X133.022 Y103.374 E.0249
G1 X138.333 Y108.685 E.38009
G1 X137.842 Y108.685 E.02485
G1 X133.022 Y103.866 E.34491
G1 X133.022 Y104.358 E.0249
G1 X137.35 Y108.685 E.3097
G1 X136.858 Y108.685 E.0249
G1 X133.022 Y104.85 E.27449
G1 X133.022 Y105.342 E.0249
G1 X136.366 Y108.685 E.23928
G1 X135.874 Y108.685 E.0249
G1 X133.022 Y105.833 E.20411
G1 X133.022 Y106.325 E.0249
G1 X135.382 Y108.685 E.1689
G1 X134.891 Y108.685 E.02485
G1 X133.022 Y106.817 E.13372
G1 X133.022 Y107.309 E.0249
G1 X134.399 Y108.685 E.09851
G1 X133.907 Y108.685 E.0249
G1 X133.022 Y107.801 E.0633
G1 X133.022 Y108.292 E.02485
G1 X133.57 Y108.841 E.03925
G1 E-3.5 F3600
;WIPE_START
G1 F6240
G1 X133.022 Y108.292 E-.42514
G1 X133.022 Y107.801 E-.26911
G1 X133.907 Y108.685 E-.68557
G1 X134.126 Y108.685 E-.12018
;WIPE_END
G1 X98.236 Y108.944 F7800
G1 E5 F2400
;TYPE:Perimeter
;WIDTH:0.42
G1 F1800
G1 X87.764 Y108.944 E.52555
G1 X87.764 Y86.12 E1.14544
G1 X98.236 Y86.12 E.52555
G1 X98.236 Y108.884 E1.14243
G1 X98.581 Y109.289 F7800
G1 F1800
G1 X87.419 Y109.289 E.56017
G1 X87.419 Y85.775 E1.18007
G1 X98.581 Y85.775 E.56017
G1 X98.581 Y109.229 E1.17706
G1 X98.926 Y109.634 F7800
;TYPE:External perimeter
G1 F1800
G1 X87.074 Y109.634 E.5948
G1 X87.074 Y85.43 E1.2147
G1 X98.926 Y85.43 E.5948
G1 X98.926 Y109.574 E1.21169
G1 X98.553 Y109.488 F7800
G1 E-3.5 F3600
;WIPE_START
G1 F6240
G1 X96.189 Y109.588 E-1.5
;WIPE_END
G1 X97.43 Y86.223 F7800
G1 E5 F2400
;TYPE:Solid infill
;WIDTH:0.422881
G1 F1800
G1 X97.978 Y86.771 E.03922
G1 X97.978 Y87.263 E.0249
G1 X97.093 Y86.378 E.06334
G1 X96.601 Y86.378 E.0249
G1 X97.978 Y87.755 E.09855
G1 X97.978 Y88.247 E.0249
G1 X96.109 Y86.378 E.13376
G1 X95.617 Y86.378 E.0249
G1 X97.978 Y88.739 E.16897
G1 X97.978 Y89.23 E.02485
G1 X95.126 Y86.378 E.20411
G1 X94.634 Y86.378 E.0249
G1 X97.978 Y89.722 E.23932
G1 X97.978 Y90.214 E.0249
G1 X94.142 Y86.378 E.27453
G1 X93.65 Y86.378 E.0249
G1 X97.978 Y90.706 E.30974
G1 X97.978 Y91.198 E.0249
G1 X93.158 Y86.378 E.34495
G1 X92.667 Y86.378 E.02485
G1 X97.978 Y91.689 E.38009
G1 X97.978 Y92.181 E.0249
G1 X92.175 Y86.378 E.4153
G1 X91.683 Y86.378 E.0249
G1 X97.978 Y92.673 E.45051
G1 X97.978 Y93.165 E.0249
G1 X91.191 Y86.378 E.48572
G1 X90.699 Y86.378 E.0249
G1 X97.978 Y93.657 E.52093
G1 X97.978 Y94.149 E.0249
G1 X90.207 Y86.378 E.55614
G1 X89.716 Y86.378 E.02485
G1 X97.978 Y94.64 E.59128
G1 X97.978 Y95.132 E.0249
G1 X89.224 Y86.378 E.62649
G1 X88.732 Y86.378 E.0249
G1 X97.978 Y95.624 E.6617
G1 X97.978 Y96.116 E.0249
G1 X88.24 Y86.378 E.69691
G1 X88.022 Y86.378 E.01103
G1 X88.022 Y86.652 E.01387
G1 X97.978 Y96.608 E.71252
G1 X97.978 Y97.1 E.0249
G1 X88.022 Y87.144 E.71252
G1 X88.022 Y87.636 E.0249
G1 X97.978 Y97.591 E.71248
G1 X97.978 Y98.083 E.0249
G1 X88.022 Y88.128 E.71248
G1 X88.022 Y88.62 E.0249
G1 X97.978 Y98.575 E.71248
G1 X97.978 Y99.067 E.0249
G1 X88.022 Y89.111 E.71252
G1 X88.022 Y89.603 E.0249
G1 X97.978 Y99.559 E.71252
G1 X97.978 Y100.05 E.02485
G1 X88.022 Y90.095 E.71248
G1 X88.022 Y90.587 E.0249
G1 X97.978 Y100.542 E.71248
G1 X97.978 Y101.034 E.0249
G1 X88.022 Y91.079 E.71248
G1 X88.022 Y91.571 E.0249
G1 X97.978 Y101.526 E.71248
G1 X97.978 Y102.018 E.0249
G1 X88.022 Y92.062 E.71252
G1 X88.022 Y92.554 E.0249
G1 X97.978 Y102.51 E.71252
G1 X97.978 Y103.001 E.02485
G1 X88.022 Y93.046 E.71248
G1 X88.022 Y93.538 E.0249
G1 X97.978 Y103.493 E.71248
G1 X97.978 Y103.985 E.0249
G1 X88.022 Y94.03 E.71248
G1 X88.022 Y94.521 E.02485
G1 X97.978 Y104.477 E.71252
G1 X97.978 Y104.969 E.0249
G1 X88.022 Y95.013 E.71252
G1 X88.022 Y95.505 E.0249
G1 X97.978 Y105.46 E.71248
G1 X97.978 Y105.952 E.0249
G1 X88.022 Y95.997 E.71248
G1 X88.022 Y96.489 E.0249
G1 X97.978 Y106.444 E.71248
G1 X97.978 Y106.936 E.0249
G1 X88.022 Y96.981 E.71248
G1 X88.022 Y97.472 E.02485
G1 X97.978 Y107.428 E.71252
G1 X97.978 Y107.92 E.0249
G1 X88.022 Y97.964 E.71252
G1 X88.022 Y98.456 E.0249
G1 X97.978 Y108.411 E.71248
G1 X97.978 Y108.685 E.01387
G1 X97.76 Y108.685 E.01103
G1 X88.022 Y98.948 E.69688
G1 X88.022 Y99.44 E.0249
G1 X97.268 Y108.685 E.66167
G1 X96.776 Y108.685 E.0249
G1 X88.022 Y99.931 E.62649
G1 X88.022 Y100.423 E.0249
G1 X96.284 Y108.685 E.59128
G1 X95.792 Y108.685 E.0249
G1 X88.022 Y100.915 E.55607
G1 X88.022 Y101.407 E.0249
G1 X95.301 Y108.685 E.5209
G1 X94.809 Y108.685 E.0249
G1 X88.022 Y101.899 E.48569
G1 X88.022 Y102.391 E.0249
G1 X94.317 Y108.685 E.45047
G1 X93.825 Y108.685 E.0249
G1 X88.022 Y102.882 E.4153
G1 X88.022 Y103.374 E.0249
G1 X93.333 Y108.685 E.38009
G1 X92.842 Y108.685 E.02485
G1 X88.022 Y103.866 E.34491
G1 X88.022 Y104.358 E.0249
G1 X92.35 Y108.685 E.3097
G1 X91.858 Y108.685 E.0249
G1 X88.022 Y104.85 E.27449
G1 X88.022 Y105.342 E.0249
G1 X91.366 Y108.685 E.23928
G1 X90.874 Y108.685 E.0249
G1 X88.022 Y105.833 E.20411
G1 X88.022 Y106.325 E.0249
G1 X90.382 Y108.685 E.1689
G1 X89.891 Y108.685 E.02485
G1 X88.022 Y106.817 E.13372
G1 X88.022 Y107.309 E.0249
G1 X89.399 Y108.685 E.09851
G1 X88.907 Y108.685 E.0249
G1 X88.022 Y107.801 E.0633
G1 X88.022 Y108.292 E.02485
G1 X88.57 Y108.841 E.03925
G1 E-3.5 F3600
;WIPE_START
G1 F6240
G1 X88.022 Y108.292 E-.42514
G1 X88.022 Y107.801 E-.26911
G1 X88.907 Y108.685 E-.68557
G1 X89.126 Y108.685 E-.12018
;WIPE_END
G1 X113.275 Y147.675 F7800
G1 E5 F2400
;TYPE:Perimeter
;WIDTH:0.42
G1 F1800
G1 X117.725 Y147.675 E.22333
G1 X117.725 Y151.132 E.17349
G1 X113.275 Y151.132 E.22333
G1 X113.275 Y147.735 E.17048
G1 X112.93 Y147.33 F7800
G1 F1800
G1 X118.07 Y147.33 E.25796
G1 X118.07 Y151.477 E.20812
G1 X112.93 Y151.477 E.25796
G1 X112.93 Y147.39 E.20511
G1 X112.585 Y146.985 F7800
;TYPE:External perimeter
G1 F1800
G1 X118.415 Y146.985 E.29258
G1 X118.415 Y151.822 E.24275
G1 X112.585 Y151.822 E.29258
G1 X112.585 Y147.045 E.23974
G1 X112.974 Y147.076 F7800
G1 E-3.5 F3600
;WIPE_START
G1 F6240
G1 X115.322 Y147.017 E-1.5
;WIPE_END
G1 X116.9 Y147.778 F7800
G1 E5 F2400
;TYPE:Solid infill
;WIDTH:0.43165
G1 F1800
G1 X117.467 Y148.345 E.0416
G1 X117.467 Y148.849 E.02615
G1 X116.551 Y147.933 E.06721
G1 X116.047 Y147.933 E.02615
G1 X117.467 Y149.353 E.10419
G1 X117.467 Y149.857 E.02615
G1 X115.542 Y147.933 E.1412
G1 X115.038 Y147.933 E.02615
G1 X117.467 Y150.362 E.17822
G1 X117.467 Y150.866 E.02615
G1 X114.534 Y147.933 E.2152
G1 X114.03 Y147.933 E.02615
G1 X116.97 Y150.874 E.21575
G1 X116.466 Y150.874 E.02615
G1 X113.533 Y147.941 E.2152
G1 X113.533 Y148.445 E.02615
G1 X115.962 Y150.874 E.17822
G1 X115.457 Y150.874 E.0262
G1 X113.533 Y148.95 E.14117
G1 X113.533 Y149.454 E.02615
G1 X114.953 Y150.874 E.10419
G1 X114.449 Y150.874 E.02615
G1 X113.533 Y149.958 E.06721
G1 X113.533 Y150.462 E.02615
G1 X114.1 Y151.029 E.0416
;LAYER_CHANGE
;Z:0.65
;HEIGHT:0.3
;BEFORE_LAYER_CHANGE
G92 E0
;0.65


G1 E-3.5 F3600
;WIPE_START
G1 F6240
G1 X113.533 Y150.462 E-.43948
G1 X113.533 Y149.958 E-.27623
G1 X114.449 Y150.874 E-.70999
G1 X114.585 Y150.874 E-.0743
;WIPE_END
G1 Z.65 F7800
;AFTER_LAYER_CHANGE
;0.65
G1 X132.607 Y109.145
G1 E5 F2400
;TYPE:Perimeter
;WIDTH:0.45
G1 F3600
G1 X132.607 Y85.98 E1.11416
G1 X143.393 Y85.98 E.51877
G1 X143.393 Y109.145 E1.11416
G1 X132.667 Y109.145 E.51588
G1 X132.222 Y109.531 F7800
G1 F3600
G1 X132.222 Y85.595 E1.15124
G1 X143.778 Y85.595 E.5558
G1 X143.778 Y109.531 E1.15124
G1 X132.282 Y109.531 E.55292
G1 X131.836 Y109.916 F7800
;TYPE:External perimeter
G1 F1800
G1 X131.836 Y85.209 E1.18832
G1 X144.164 Y85.209 E.59293
G1 X144.164 Y109.916 E1.18832
G1 X131.896 Y109.916 E.59005
G1 X131.898 Y109.521 F7800
G1 E-3.5 F3600
;WIPE_START
G1 F6240
G1 X131.889 Y107.179 E-1.5
;WIPE_END
G1 X133.001 Y86.301 F7800
G1 E5 F2400
;TYPE:Solid infill
;WIDTH:0.543559
G1 F1200
G1 X132.959 Y86.258 E.00359
G1 X132.901 Y86.274 E.0036
G1 X132.885 Y86.332 E.0036
G1 X132.928 Y86.374 E.00359
G1 X132.986 Y86.358 E.0036
;WIDTH:0.45
G1 X133.602 Y86.269 E.02994
G1 X132.773 Y87.111 E.05683
;WIDTH:0.404381
G1 X132.702 Y87.092 E.00312
G1 X132.721 Y87.164 E.00316
G1 X132.762 Y87.153 E.0018
;WIDTH:0.45
G1 X132.897 Y87.52 E.01881
G1 X134.147 Y86.269 E.08506
G1 X134.692 Y86.269 E.02621
G1 X132.897 Y88.065 E.12213
G1 X132.897 Y88.61 E.02621
G1 X135.238 Y86.269 E.15923
G1 X135.783 Y86.269 E.02621
G1 X132.897 Y89.156 E.19634
G1 X132.897 Y89.701 E.02621
G1 X136.328 Y86.269 E.23341
G1 X136.874 Y86.269 E.02626
G1 X132.897 Y90.247 E.27054
G1 X132.897 Y90.792 E.02621
G1 X137.419 Y86.269 E.30761
G1 X137.964 Y86.269 E.02621
G1 X132.897 Y91.337 E.34469
G1 X132.897 Y91.883 E.02626
G1 X138.51 Y86.269 E.38182
G1 X139.055 Y86.269 E.02621
G1 X132.897 Y92.428 E.41889
G1 X132.897 Y92.973 E.02621
G1 X139.6 Y86.269 E.45596
G1 X140.146 Y86.269 E.02626
G1 X132.897 Y93.519 E.4931
G1 X132.897 Y94.064 E.02621
G1 X140.691 Y86.269 E.53017
G1 X141.236 Y86.269 E.02621
G1 X132.897 Y94.609 E.56724
G1 X132.897 Y95.155 E.02626
G1 X141.782 Y86.269 E.60438
G1 X142.327 Y86.269 E.02621
G1 X132.897 Y95.7 E.64145
G1 X132.897 Y96.245 E.02621
G1 X142.873 Y86.269 E.67856
G1 X143.103 Y86.584 E.01876
G1 X132.897 Y96.791 E.69423
G1 X132.897 Y97.336 E.02621
G1 X143.103 Y87.129 E.69423
G1 X143.103 Y87.674 E.02621
G1 X132.897 Y97.881 E.69423
G1 X132.897 Y98.427 E.02626
G1 X143.103 Y88.22 E.69423
G1 X143.103 Y88.765 E.02621
G1 X132.897 Y98.972 E.69423
G1 X132.897 Y99.517 E.02621
G1 X143.103 Y89.311 E.6942
G1 X143.103 Y89.856 E.02621
G1 X132.897 Y100.063 E.69423
G1 X132.897 Y100.608 E.02621
G1 X143.103 Y90.401 E.69423
G1 X143.103 Y90.947 E.02626
G1 X132.897 Y101.153 E.6942
G1 X132.897 Y101.699 E.02626
G1 X143.103 Y91.492 E.69423
G1 X143.103 Y92.037 E.02621
G1 X132.897 Y102.244 E.69423
G1 X132.897 Y102.79 E.02626
G1 X143.103 Y92.583 E.69423
G1 X143.103 Y93.128 E.02621
G1 X132.897 Y103.335 E.69423
G1 X132.897 Y103.88 E.02621
G1 X143.103 Y93.673 E.69423
G1 X143.103 Y94.219 E.02626
G1 X132.897 Y104.426 E.69423
G1 X132.897 Y104.971 E.02621
G1 X143.103 Y94.764 E.69423
G1 X143.103 Y95.309 E.02621
G1 X132.897 Y105.516 E.69423
G1 X132.897 Y106.062 E.02626
G1 X143.103 Y95.855 E.69423
G1 X143.103 Y96.4 E.02621
G1 X132.897 Y106.607 E.69423
G1 X132.897 Y107.152 E.02621
G1 X143.103 Y96.945 E.69423
G1 X143.103 Y97.491 E.02626
G1 X132.897 Y107.698 E.69423
G1 X132.897 Y108.243 E.02621
G1 X143.103 Y98.036 E.69423
