; generated by PrusaSlicer 2.6.1+win64 on 2023-11-01 at 02:15:11 UTC

; 

; external perimeters extrusion width = 0.42mm
; perimeters extrusion width = 0.44mm
; infill extrusion width = 0.44mm
; solid infill extrusion width = 0.44mm
; top infill extrusion width = 0.40mm
; first layer extrusion width = 0.42mm

M201 X500 Y500 Z100 E5000 ; sets maximum accelerations, mm/sec^2
M203 X500 Y500 Z10 E60 ; sets maximum feedrates, mm / sec
M204 S500 T1000 ; sets acceleration (S) and retract acceleration (R), mm/sec^2
M205 X8.00 Y8.00 Z0.40 E5.00 ; sets the jerk limits, mm/sec
M205 S0 T0 ; sets the minimum extruding and travel feed rate, mm/sec
;TYPE:Custom
G90 ; use absolute coordinates
M83 ; extruder relative mode
M104 S150 ; set temporary nozzle temp to prevent oozing during homing
M140 S60 ; set final bed temp
G4 S30 ; allow partial nozzle warmup
G28 ; home all axis
G1 Z50 F240
G1 X2.0 Y10 F3000
M104 S210 ; set final nozzle temp
M190 S60 ; wait for bed temp to stabilize
M109 S210 ; wait for nozzle temp to stabilize
G1 Z0.28 F240
G92 E0
G1 X2.0 Y140 E10 F1500 ; prime the nozzle
G1 X2.3 Y140 F5000
G92 E0
G1 X2.3 Y10 E10 F1200 ; prime the nozzle
G92 E0
G21 ; set units to millimeters
G90 ; use absolute coordinates
M83 ; use relative distances for extrusion
; Filament gcode
M107
;LAYER_CHANGE
;Z:0.2
;HEIGHT:0.2
;BEFORE_LAYER_CHANGE
G92 E0
;0.2


G1 E-5 F3600
G1 Z.2 F9000
;AFTER_LAYER_CHANGE
;0.2
G1 X78.636 Y46.659
G1 E5 F2400
M204 S500
;TYPE:Skirt/Brim
;WIDTH:0.42
G1 F1200
G1 X79.212 Y45.72 E.03454
G1 X80.233 Y44.46 E.05085
G1 X81.446 Y43.37 E.05113
G1 X83.281 Y42.246 E.06747
G1 X84.798 Y41.662 E.05097
G1 X86.389 Y41.323 E.051
G1 X87.75 Y41.226 E.04278
G1 X143.515 Y41.237 E1.74847
G1 X145.134 Y41.406 E.05104
G1 X146.704 Y41.826 E.05096
G1 X148.191 Y42.486 E.05101
G1 X149.13 Y43.062 E.03454
G1 X150.389 Y44.083 E.05082
G1 X151.48 Y45.296 E.05115
G1 X152.604 Y47.132 E.0675
G1 X153.024 Y48.146 E.03441
G1 X153.408 Y49.564 E.04606
G1 X153.613 Y51.335 E.0559
G1 X153.624 Y179.4 E4.01539
G1 X153.444 Y181.284 E.05934
G1 X153.024 Y182.854 E.05096
G1 X152.363 Y184.341 E.05102
G1 X151.48 Y185.704 E.05092
G1 X150.39 Y186.917 E.05113
G1 X149.554 Y187.63 E.03445
G1 X147.719 Y188.754 E.06747
G1 X146.201 Y189.338 E.051
G1 X144.611 Y189.677 E.05097
G1 X143.25 Y189.774 E.04278
G1 X87.75 Y189.774 E1.74016
G1 X85.869 Y189.595 E.05924
G1 X84.296 Y189.174 E.05106
G1 X82.809 Y188.514 E.05101
G1 X81.87 Y187.938 E.03454
G1 X80.61 Y186.917 E.05085
G1 X79.52 Y185.704 E.05113
G1 X78.637 Y184.341 E.05092
G1 X77.976 Y182.854 E.05102
G1 X77.556 Y181.284 E.05096
G1 X77.387 Y179.665 E.05104
G1 X77.376 Y51.6 E4.01539
G1 X77.555 Y49.719 E.05924
G1 X77.976 Y48.146 E.05106
G1 X78.612 Y46.714 E.04913
; printing object s10e_case.stl id:0 copy 0
G1 E-3.5 F3600
;WIPE_START
G1 F7200
G1 X79.212 Y45.72 E-.5515
G1 X80.233 Y44.46 E-.77033
G1 X80.512 Y44.209 E-.17817
;WIPE_END
G1 X83.396 Y48.472 F9000
G1 E5 F2400
;TYPE:Perimeter
;WIDTH:0.419999
G1 F1200
G1 X83.975 Y47.837 E.02694
G1 X84.44 Y47.395 E.02012
G1 X84.92 Y47.098 E.0177
G1 X85.34 Y46.81 E.01597
G1 X85.749 Y46.641 E.01388
G1 X86.303 Y46.461 E.01826
G1 X86.911 Y46.302 E.0197
G1 X87.792 Y46.233 E.02771
G1 X143.208 Y46.233 E1.73753
G1 X144.089 Y46.302 E.02771
G1 X144.547 Y46.412 E.01477
G1 X145.137 Y46.603 E.01944
G1 X145.66 Y46.81 E.01764
G1 X146.379 Y47.283 E.02698
G1 X146.886 Y47.673 E.02006
G1 X147.253 Y48.101 E.01768
G1 X147.604 Y48.472 E.01601
G1 X148.019 Y49.185 E.02587
G1 X148.268 Y49.741 E.0191
G1 X148.579 Y51.163 E.04564
G1 X148.617 Y51.818 E.02057
G1 X148.591 Y179.018 E3.98826
G1 X148.57 Y179.628 E.01914
G1 X148.446 Y180.296 E.0213
G1 X148.186 Y180.961 E.02239
G1 X147.979 Y181.918 E.0307
G1 X147.801 Y182.208 E.01067
G1 X147.006 Y183.177 E.0393
G1 X146.569 Y183.598 E.01903
G1 X145.57 Y184.183 E.0363
G1 X145.124 Y184.412 E.01572
G1 X144.451 Y184.611 E.022
G1 X143.719 Y184.727 E.02324
G1 X143.208 Y184.767 E.01607
G1 X87.792 Y184.767 E1.73753
G1 X87.281 Y184.727 E.01607
G1 X86.703 Y184.635 E.01835
G1 X86.092 Y184.501 E.01961
G1 X85.34 Y184.19 E.02552
G1 X84.606 Y183.707 E.02755
G1 X84.123 Y183.335 E.01912
G1 X83.301 Y182.332 E.04066
G1 X82.985 Y181.859 E.01784
G1 X82.683 Y181.056 E.0269
G1 X82.501 Y180.441 E.02011
G1 X82.455 Y179.88 E.01765
G1 X82.383 Y179.33 E.01739
G1 X82.383 Y51.818 E3.99804
G1 X82.421 Y51.163 E.02057
G1 X82.672 Y50.014 E.03688
G1 X82.839 Y49.482 E.01748
G1 X83.113 Y48.941 E.01901
G1 X83.365 Y48.523 E.0153
G1 X83.095 Y48.241 F9000
G1 F1200
G1 X83.49 Y47.823 E.01803
G1 X83.847 Y47.405 E.01724
G1 X84.218 Y47.089 E.01528
G1 X84.707 Y46.788 E.018
G1 X85.16 Y46.476 E.01725
G1 X85.618 Y46.287 E.01553
G1 X86.351 Y46.049 E.02416
G1 X86.851 Y45.929 E.01612
G1 X87.777 Y45.856 E.02912
G1 X143.223 Y45.856 E1.73847
G1 X144.149 Y45.929 E.02912
G1 X144.649 Y46.049 E.01612
G1 X145.253 Y46.245 E.01991
G1 X145.84 Y46.476 E.01978
G1 X146.314 Y46.801 E.01802
G1 X146.782 Y47.089 E.01723
G1 X147.153 Y47.405 E.01528
G1 X147.526 Y47.841 E.01799
G1 X147.905 Y48.241 E.01728
G1 X148.35 Y49.005 E.02772
G1 X148.629 Y49.627 E.02137
G1 X148.953 Y51.108 E.04753
G1 X148.994 Y51.818 E.0223
G1 X148.968 Y179.373 E3.99939
G1 X148.925 Y179.913 E.01698
G1 X148.806 Y180.413 E.01612
G1 X148.555 Y181.042 E.02123
G1 X148.334 Y182.06 E.03266
G1 X148.109 Y182.427 E.0135
G1 X147.147 Y183.6 E.04757
G1 X146.788 Y183.906 E.01479
G1 X145.678 Y184.556 E.04033
G1 X145.025 Y184.861 E.0226
G1 X144.524 Y184.981 E.01615
G1 X143.763 Y185.102 E.02416
G1 X143.223 Y185.144 E.01698
G1 X87.777 Y185.144 E1.73847
G1 X87.237 Y185.102 E.01698
G1 X86.476 Y184.981 E.02416
G1 X85.975 Y184.861 E.01615
G1 X85.159 Y184.523 E.02769
G1 X84.409 Y184.029 E.02816
G1 X83.853 Y183.6 E.02202
G1 X83.01 Y182.571 E.04171
G1 X82.643 Y182.022 E.02071
G1 X82.451 Y181.481 E.018
G1 X82.241 Y180.974 E.01721
G1 X82.127 Y180.5 E.01529
G1 X82.081 Y179.928 E.01799
G1 X82.006 Y179.355 E.01812
G1 X82.006 Y51.627 E4.00482
G1 X82.047 Y51.108 E.01632
G1 X82.371 Y49.627 E.04753
G1 X82.561 Y49.167 E.0156
G1 X82.831 Y48.671 E.01771
G1 X83.064 Y48.292 E.01395
G1 X82.794 Y48.01 F9000
;TYPE:External perimeter
G1 F1200
G1 X83.205 Y47.577 E.01872
G1 X83.58 Y47.138 E.0181
G1 X83.996 Y46.783 E.01715
G1 X84.493 Y46.477 E.0183
G1 X84.979 Y46.143 E.01849
G1 X85.488 Y45.932 E.01728
G1 X86.249 Y45.685 E.02509
G1 X86.792 Y45.555 E.01751
G1 X87.762 Y45.479 E.03051
G1 X143.238 Y45.479 E1.73941
G1 X144.208 Y45.555 E.03051
G1 X144.751 Y45.685 E.01751
G1 X145.512 Y45.932 E.02509
G1 X146.021 Y46.143 E.01728
G1 X146.513 Y46.481 E.01872
G1 X147.004 Y46.783 E.01807
G1 X147.42 Y47.138 E.01715
G1 X147.8 Y47.582 E.01832
G1 X148.206 Y48.01 E.0185
G1 X148.496 Y48.483 E.0174
G1 X148.78 Y49.005 E.01863
G1 X148.99 Y49.514 E.01726
G1 X149.327 Y51.053 E.0494
G1 X149.371 Y51.818 E.02403
G1 X149.345 Y179.388 E3.99986
G1 X149.299 Y179.972 E.01837
G1 X149.166 Y180.529 E.01796
G1 X148.923 Y181.123 E.02012
G1 X148.689 Y182.203 E.03465
G1 X148.417 Y182.647 E.01633
G1 X147.418 Y183.865 E.04939
G1 X147.007 Y184.215 E.01693
G1 X145.648 Y185.011 E.04938
G1 X145.141 Y185.221 E.01721
G1 X144.598 Y185.351 E.01751
G1 X143.807 Y185.476 E.02511
G1 X143.238 Y185.521 E.0179
G1 X87.762 Y185.521 E1.73941
G1 X87.193 Y185.476 E.0179
G1 X86.402 Y185.351 E.02511
G1 X85.859 Y185.221 E.01751
G1 X84.979 Y184.857 E.02986
G1 X84.485 Y184.518 E.01879
G1 X83.996 Y184.217 E.018
G1 X83.582 Y183.865 E.01704
G1 X82.583 Y182.647 E.04939
G1 X82.301 Y182.186 E.01694
G1 X82.102 Y181.624 E.01869
G1 X81.881 Y181.091 E.01809
G1 X81.754 Y180.559 E.01715
G1 X81.708 Y179.979 E.01824
G1 X81.629 Y179.38 E.01894
G1 X81.629 Y51.612 E4.00607
G1 X81.673 Y51.053 E.01758
G1 X82.01 Y49.514 E.0494
G1 X82.22 Y49.005 E.01726
G1 X82.504 Y48.483 E.01863
G1 X82.763 Y48.061 E.01552
G1 X83.189 Y48.072 F9000
G1 E-3.5 F3600
;WIPE_START
G1 F7200
G1 X83.205 Y47.577 E-.31134
G1 X83.58 Y47.138 E-.27425
G1 X83.996 Y46.783 E-.25977
G1 X84.493 Y46.477 E-.27723
G1 X84.979 Y46.143 E-.28011
G1 X85.168 Y46.065 E-.0973
;WIPE_END
G1 X101.798 Y167.986 F9000
G1 E5 F2400
;TYPE:Perimeter
G1 F1200
G1 X100.863 Y167.775 E.03005
G1 X100.184 Y167.493 E.02305
G1 X99.583 Y167.134 E.02195
G1 X99.039 Y166.696 E.0219
G1 X98.364 Y165.928 E.03206
G1 X97.975 Y165.292 E.02338
G1 X97.705 Y164.664 E.02143
G1 X97.464 Y163.627 E.03338
G1 X97.426 Y162.837 E.0248
G1 X97.442 Y158.565 E.13395
G1 X97.512 Y158.062 E.01592
G1 X97.664 Y157.458 E.01953
G1 X98 Y156.66 E.02715
G1 X98.305 Y156.152 E.01858
G1 X98.994 Y155.349 E.03318
G1 X99.876 Y154.678 E.03475
G1 X100.416 Y154.394 E.01913
G1 X100.942 Y154.195 E.01763
G1 X101.904 Y153.997 E.0308
G1 X102.083 Y153.979 E.00564
G1 X129.243 Y153.976 E.85158
G1 X129.991 Y154.066 E.02362
G1 X130.839 Y154.316 E.02772
G1 X131.722 Y154.773 E.03117
G1 X132.57 Y155.469 E.0344
G1 X133.251 Y156.33 E.03442
G1 X133.73 Y157.318 E.03443
G1 X133.932 Y158.056 E.02399
G1 X133.998 Y158.555 E.01578
G1 X134.018 Y159.245 E.02164
G1 X134.025 Y162.286 E.09535
G1 X134.003 Y163.332 E.0328
G1 X133.952 Y163.839 E.01598
G1 X133.688 Y164.793 E.03104
G1 X133.402 Y165.418 E.02155
G1 X133.06 Y165.957 E.02001
G1 X132.654 Y166.447 E.01995
G1 X132.191 Y166.883 E.01994
G1 X131.675 Y167.258 E.02
G1 X131.114 Y167.565 E.02005
G1 X130.508 Y167.802 E.0204
G1 X129.699 Y167.988 E.02603
G1 X128.961 Y168.028 E.02317
G1 X102.216 Y168.029 E.83857
G1 X101.858 Y167.992 E.01128
G1 X101.84 Y167.615 F9000
G1 F1200
G1 X100.952 Y167.408 E.02859
G1 X100.335 Y167.148 E.02099
G1 X99.781 Y166.813 E.0203
G1 X99.279 Y166.405 E.02028
G1 X98.651 Y165.683 E.03
G1 X98.3 Y165.101 E.02131
G1 X98.054 Y164.52 E.01978
G1 X97.832 Y163.546 E.03132
G1 X97.803 Y162.836 E.02228
G1 X97.819 Y158.569 E.13379
G1 X97.896 Y158.068 E.01589
G1 X98.029 Y157.553 E.01668
G1 X98.346 Y156.811 E.0253
G1 X98.625 Y156.352 E.01684
G1 X99.278 Y155.598 E.03127
G1 X100.099 Y154.983 E.03216
G1 X100.585 Y154.731 E.01716
G1 X101.072 Y154.549 E.0163
G1 X102.083 Y154.357 E.03227
G1 X129.243 Y154.353 E.85158
G1 X129.942 Y154.44 E.02209
G1 X130.727 Y154.676 E.0257
G1 X131.543 Y155.105 E.02891
G1 X132.325 Y155.756 E.0319
G1 X132.951 Y156.558 E.0319
G1 X133.388 Y157.476 E.03188
G1 X133.567 Y158.148 E.0218
G1 X133.627 Y158.651 E.01588
G1 X133.648 Y162.286 E.11397
G1 X133.626 Y163.324 E.03255
G1 X133.57 Y163.817 E.01556
G1 X133.325 Y164.691 E.02846
G1 X133.062 Y165.254 E.01948
G1 X132.744 Y165.751 E.0185
G1 X132.367 Y166.203 E.01845
G1 X131.936 Y166.605 E.01848
G1 X131.457 Y166.95 E.01851
G1 X130.937 Y167.233 E.01856
G1 X130.376 Y167.449 E.01885
G1 X129.619 Y167.62 E.02433
G1 X128.961 Y167.651 E.02065
G1 X102.216 Y167.652 E.83857
G1 X101.899 Y167.621 E.00999
G1 X101.88 Y167.243 F9000
;TYPE:External perimeter
G1 F1200
G1 X101.04 Y167.041 E.02709
G1 X100.486 Y166.802 E.01892
G1 X99.979 Y166.492 E.01863
G1 X99.519 Y166.115 E.01865
G1 X98.938 Y165.438 E.02797
G1 X98.625 Y164.91 E.01925
G1 X98.403 Y164.376 E.01813
G1 X98.201 Y163.466 E.02923
G1 X98.18 Y162.836 E.01976
G1 X98.177 Y160.612 E.06973
G1 X98.196 Y158.572 E.06397
G1 X98.394 Y157.648 E.02963
G1 X98.691 Y156.962 E.02344
G1 X98.963 Y156.526 E.01611
G1 X99.561 Y155.847 E.02837
G1 X100.321 Y155.287 E.0296
G1 X100.773 Y155.06 E.01586
G1 X101.23 Y154.895 E.01523
G1 X102.083 Y154.734 E.02722
G1 X129.243 Y154.73 E.85158
G1 X129.893 Y154.814 E.02055
G1 X130.614 Y155.036 E.02365
G1 X131.363 Y155.437 E.02664
G1 X132.081 Y156.043 E.02946
G1 X132.65 Y156.786 E.02934
G1 X133.045 Y157.633 E.0293
G1 X133.201 Y158.24 E.01965
G1 X133.263 Y159.243 E.03151
G1 X133.271 Y162.29 E.09554
G1 X133.249 Y163.316 E.03218
G1 X133.207 Y163.715 E.01258
G1 X132.962 Y164.589 E.02846
G1 X132.723 Y165.091 E.01743
G1 X132.428 Y165.545 E.01698
G1 X132.079 Y165.96 E.017
G1 X131.681 Y166.327 E.01697
G1 X131.239 Y166.643 E.01704
G1 X130.759 Y166.9 E.01707
G1 X130.243 Y167.096 E.01731
G1 X129.538 Y167.252 E.02264
G1 X128.961 Y167.273 E.0181
G1 X102.216 Y167.275 E.83857
G1 X101.939 Y167.249 E.00872
G1 X101.628 Y167.554 F9000
G1 E-3.5 F3600
;WIPE_START
G1 F7200
G1 X101.04 Y167.041 E-.43831
G1 X100.486 Y166.802 E-.28659
G1 X99.979 Y166.492 E-.28228
G1 X99.519 Y166.115 E-.28251
G1 X99.231 Y165.779 E-.21031
;WIPE_END
G1 X103.009 Y153.68 F9000
G1 E5 F2400
;TYPE:Internal infill
;WIDTH:0.42
G1 F1200
G1 X102.032 Y153.68 E.03063
G1 X101.419 Y153.794 E.01955
G1 X101.396 Y153.418 E.01181
G1 X101.651 Y152.992 E.01557
G1 X102.099 Y152.566 E.01938
G1 X102.311 Y152.14 E.01492
G1 X102.337 Y151.714 E.01338
G1 X102.082 Y151.288 E.01557
G1 X101.634 Y150.862 E.01938
G1 X101.422 Y150.436 E.01492
G1 X101.396 Y150.01 E.01338
G1 X101.651 Y149.584 E.01557
G1 X102.099 Y149.158 E.01938
G1 X102.311 Y148.732 E.01492
G1 X102.337 Y148.306 E.01338
G1 X102.082 Y147.88 E.01557
G1 X101.634 Y147.454 E.01938
G1 X101.422 Y147.027 E.01495
G1 X101.396 Y146.601 E.01338
G1 X101.651 Y146.175 E.01557
G1 X102.099 Y145.749 E.01938
G1 X102.311 Y145.323 E.01492
G1 X102.337 Y144.897 E.01338
G1 X102.082 Y144.471 E.01557
G1 X101.634 Y144.045 E.01938
G1 X101.422 Y143.619 E.01492
G1 X101.396 Y143.193 E.01338
G1 X101.651 Y142.767 E.01557
G1 X102.099 Y142.341 E.01938
G1 X102.311 Y141.915 E.01492
G1 X102.337 Y141.489 E.01338
G1 X102.082 Y141.063 E.01557
G1 X101.634 Y140.637 E.01938
G1 X101.422 Y140.211 E.01492
G1 X101.396 Y139.785 E.01338
G1 X101.651 Y139.359 E.01557
G1 X102.099 Y138.933 E.01938
G1 X102.311 Y138.507 E.01492
G1 X102.337 Y138.081 E.01338
G1 X102.082 Y137.654 E.01559
G1 X101.634 Y137.228 E.01938
G1 X101.422 Y136.802 E.01492
G1 X101.396 Y136.376 E.01338
G1 X101.651 Y135.95 E.01557
G1 X102.099 Y135.524 E.01938
G1 X102.311 Y135.098 E.01492
G1 X102.337 Y134.672 E.01338
G1 X102.082 Y134.246 E.01557
G1 X101.634 Y133.82 E.01938
G1 X101.422 Y133.394 E.01492
G1 X101.396 Y132.968 E.01338
G1 X101.651 Y132.542 E.01557
G1 X102.099 Y132.116 E.01938
G1 X102.311 Y131.69 E.01492
G1 X102.337 Y131.264 E.01338
G1 X102.082 Y130.838 E.01557
G1 X101.634 Y130.412 E.01938
G1 X101.422 Y129.986 E.01492
G1 X101.396 Y129.56 E.01338
G1 X101.651 Y129.134 E.01557
G1 X102.099 Y128.707 E.01941
G1 X102.311 Y128.281 E.01492
G1 X102.337 Y127.855 E.01338
G1 X102.082 Y127.429 E.01557
G1 X101.634 Y127.003 E.01938
G1 X101.422 Y126.577 E.01492
G1 X101.396 Y126.151 E.01338
G1 X101.651 Y125.725 E.01557
G1 X102.099 Y125.299 E.01938
G1 X102.311 Y124.873 E.01492
G1 X102.337 Y124.447 E.01338
G1 X102.082 Y124.021 E.01557
G1 X101.634 Y123.595 E.01938
G1 X101.422 Y123.169 E.01492
G1 X101.396 Y122.743 E.01338
G1 X101.651 Y122.317 E.01557
G1 X102.099 Y121.891 E.01938
G1 X102.311 Y121.465 E.01492
G1 X102.337 Y121.039 E.01338
G1 X102.082 Y120.613 E.01557
G1 X101.634 Y120.187 E.01938
G1 X101.422 Y119.761 E.01492
G1 X101.396 Y119.334 E.01341
G1 X101.651 Y118.908 E.01557
G1 X102.099 Y118.482 E.01938
G1 X102.311 Y118.056 E.01492
G1 X102.337 Y117.63 E.01338
G1 X102.082 Y117.204 E.01557
G1 X101.634 Y116.778 E.01938
G1 X101.422 Y116.352 E.01492
G1 X101.396 Y115.926 E.01338
G1 X101.651 Y115.5 E.01557
G1 X102.099 Y115.074 E.01938
G1 X102.311 Y114.648 E.01492
G1 X102.337 Y114.222 E.01338
G1 X102.082 Y113.796 E.01557
G1 X101.634 Y113.37 E.01938
G1 X101.422 Y112.944 E.01492
G1 X101.396 Y112.518 E.01338
G1 X101.651 Y112.092 E.01557
G1 X102.099 Y111.666 E.01938
G1 X102.311 Y111.24 E.01492
G1 X102.337 Y110.814 E.01338
G1 X102.082 Y110.388 E.01557
G1 X101.634 Y109.961 E.01941
G1 X101.422 Y109.535 E.01492
G1 X101.396 Y109.109 E.01338
G1 X101.651 Y108.683 E.01557
G1 X102.099 Y108.257 E.01938
G1 X102.311 Y107.831 E.01492
G1 X102.337 Y107.405 E.01338
G1 X102.082 Y106.979 E.01557
G1 X101.634 Y106.553 E.01938
G1 X101.422 Y106.127 E.01492
G1 X101.396 Y105.701 E.01338
G1 X101.651 Y105.275 E.01557
G1 X102.099 Y104.849 E.01938
G1 X102.311 Y104.423 E.01492
G1 X102.337 Y103.997 E.01338
G1 X102.082 Y103.571 E.01557
G1 X101.634 Y103.145 E.01938
G1 X101.422 Y102.719 E.01492
G1 X101.396 Y102.293 E.01338
G1 X101.651 Y101.867 E.01557
G1 X102.099 Y101.441 E.01938
G1 X102.311 Y101.015 E.01492
G1 X102.337 Y100.588 E.01341
G1 X102.082 Y100.162 E.01557
G1 X101.634 Y99.736 E.01938
G1 X101.422 Y99.31 E.01492
G1 X101.396 Y98.884 E.01338
G1 X101.651 Y98.458 E.01557
G1 X102.099 Y98.032 E.01938
G1 X102.311 Y97.606 E.01492
G1 X102.337 Y97.18 E.01338
G1 X102.082 Y96.754 E.01557
