; generated by PrusaSlicer 2.6.1+win64 on 2023-11-02 at 04:35:13 UTC

; 

; external perimeters extrusion width = 0.42mm
; perimeters extrusion width = 0.44mm
; infill extrusion width = 0.44mm
; solid infill extrusion width = 0.44mm
; top infill extrusion width = 0.40mm
; first layer extrusion width = 0.42mm

M201 X500 Y500 Z100 E5000 ; sets maximum accelerations, mm/sec^2
M203 X500 Y500 Z10 E60 ; sets maximum feedrates, mm / sec
M204 S500 T1000 ; sets acceleration (S) and retract acceleration (R), mm/sec^2
M205 X8.00 Y8.00 Z0.40 E5.00 ; sets the jerk limits, mm/sec
M205 S0 T0 ; sets the minimum extruding and travel feed rate, mm/sec
;TYPE:Custom
G90 ; use absolute coordinates
M83 ; extruder relative mode
M104 S150 ; set temporary nozzle temp to prevent oozing during homing
M140 S70 ; set final bed temp
G4 S30 ; allow partial nozzle warmup
G28 ; home all axis
G1 Z50 F240
G1 X2.0 Y10 F3000
M104 S240 ; set final nozzle temp
M190 S70 ; wait for bed temp to stabilize
M109 S240 ; wait for nozzle temp to stabilize
G1 Z0.28 F240
G92 E0
G1 X2.0 Y140 E10 F1500 ; prime the nozzle
G1 X2.3 Y140 F5000
G92 E0
G1 X2.3 Y10 E10 F1200 ; prime the nozzle
G92 E0
G21 ; set units to millimeters
G90 ; use absolute coordinates
M83 ; use relative distances for extrusion
; Filament gcode
M107
;LAYER_CHANGE
;Z:0.32
;HEIGHT:0.32
;BEFORE_LAYER_CHANGE
G92 E0
;0.32


G1 Z.32 F9000
;AFTER_LAYER_CHANGE
;0.32
G1 E-5 F3600
G1 X95.056 Y95.406 F9000
G1 E5 F2400
M204 S500
;TYPE:Skirt/Brim
;WIDTH:0.42
G1 F1200
G1 X95.788 Y94.748 E.04601
G1 X96.556 Y94.299 E.04158
G1 X97.329 Y94.02 E.03841
G1 X98.281 Y93.876 E.045
G1 X132.719 Y93.876 E1.60966
G1 X133.671 Y94.02 E.045
G1 X134.393 Y94.275 E.03579
G1 X135.167 Y94.716 E.04164
G1 X135.754 Y95.206 E.03574
G1 X136.252 Y95.788 E.0358
G1 X136.701 Y96.556 E.04158
G1 X136.98 Y97.329 E.03841
G1 X137.11 Y98.083 E.03576
G1 X137.131 Y132.5 E1.60868
G1 X137.054 Y133.335 E.03919
G1 X136.861 Y134.054 E.0348
G1 X136.395 Y135.002 E.04937
G1 X135.944 Y135.594 E.03479
G1 X135.212 Y136.252 E.04601
G1 X134.393 Y136.725 E.04421
G1 X133.458 Y137.029 E.04595
G1 X132.5 Y137.131 E.04503
G1 X98.5 Y137.131 E1.58919
G1 X97.665 Y137.054 E.03919
G1 X96.946 Y136.861 E.0348
G1 X95.998 Y136.395 E.04937
G1 X95.406 Y135.944 E.03479
G1 X94.748 Y135.212 E.04601
G1 X94.275 Y134.393 E.04421
G1 X93.971 Y133.458 E.04595
G1 X93.869 Y132.5 E.04503
G1 X93.869 Y98.5 E1.58919
G1 X93.946 Y97.665 E.03919
G1 X94.139 Y96.946 E.0348
G1 X94.605 Y95.998 E.04937
G1 X95.02 Y95.453 E.03202
; printing object Vase Mode Single Cell.stl id:0 copy 0
G1 E-3.5 F3600
;WIPE_START
G1 F7200
G1 X95.788 Y94.748 E-.4952
G1 X96.556 Y94.299 E-.42257
G1 X97.329 Y94.02 E-.39036
G1 X97.728 Y93.96 E-.19187
;WIPE_END
G1 X98.013 Y98.077 F9000
G1 E5 F2400
;TYPE:External perimeter
;WIDTH:0.42
G1 F1200
G1 X98.277 Y97.894 E.01501
G1 X98.52 Y97.85 E.01154
G1 X132.412 Y97.852 E1.58414
G1 X132.804 Y97.932 E.0187
G1 X132.984 Y98.072 E.01066
G1 X133.105 Y98.271 E.01089
G1 X133.15 Y98.587 E.01492
G1 X133.15 Y132.413 E1.58105
G1 X133.105 Y132.729 E.01492
G1 X132.987 Y132.923 E.01061
G1 X132.723 Y133.106 E.01501
G1 X132.48 Y133.15 E.01154
G1 X98.587 Y133.15 E1.58418
G1 X98.271 Y133.105 E.01492
G1 X98.077 Y132.987 E.01061
G1 X97.894 Y132.723 E.01501
G1 X97.85 Y132.48 E.01154
G1 X97.85 Y98.587 E1.58418
G1 X97.895 Y98.271 E.01492
G1 X97.982 Y98.129 E.00778
G1 E-3.5 F3600
;WIPE_START
G1 F7200
G1 X98.277 Y97.894 E-.17915
G1 X98.52 Y97.85 E-.1173
G1 X101.054 Y97.85 E-1.20355
;WIPE_END
G1 X131.99 Y97.965 F9000
G1 E5 F2400
;TYPE:Solid infill
;WIDTH:0.422474
G1 F1200
G1 X132.879 Y98.854 E.05918
G1 X132.879 Y99.355 E.02358
G1 X131.648 Y98.123 E.08198
G1 X131.147 Y98.123 E.02358
G1 X132.879 Y99.855 E.11529
G1 X132.879 Y100.355 E.02353
G1 X130.647 Y98.123 E.14858
G1 X130.147 Y98.123 E.02353
G1 X132.879 Y100.856 E.18189
G1 X132.879 Y101.356 E.02353
G1 X129.646 Y98.123 E.21521
G1 X129.146 Y98.123 E.02353
G1 X132.879 Y101.856 E.24849
G1 X132.879 Y102.357 E.02358
G1 X128.645 Y98.123 E.28184
G1 X128.145 Y98.123 E.02353
G1 X132.879 Y102.857 E.31513
G1 X132.879 Y103.357 E.02353
G1 X127.645 Y98.123 E.34841
G1 X127.144 Y98.123 E.02358
G1 X132.879 Y103.858 E.38176
G1 X132.879 Y104.358 E.02353
G1 X126.644 Y98.123 E.41504
G1 X126.144 Y98.123 E.02353
G1 X132.879 Y104.858 E.44833
G1 X132.879 Y105.359 E.02358
G1 X125.643 Y98.122 E.48171
G1 X125.143 Y98.122 E.02353
G1 X132.879 Y105.859 E.51499
G1 X132.879 Y106.359 E.02353
G1 X124.642 Y98.122 E.54831
G1 X124.142 Y98.122 E.02353
G1 X132.879 Y106.86 E.58163
G1 X132.879 Y107.36 E.02353
G1 X123.642 Y98.122 E.61491
G1 X123.141 Y98.122 E.02358
G1 X132.879 Y107.861 E.64826
G1 X132.879 Y108.361 E.02353
G1 X122.641 Y98.122 E.68154
G1 X122.14 Y98.122 E.02358
G1 X132.879 Y108.861 E.71486
G1 X132.879 Y109.362 E.02358
G1 X121.64 Y98.122 E.74818
G1 X121.14 Y98.122 E.02353
G1 X132.879 Y109.862 E.78146
G1 X132.879 Y110.362 E.02353
G1 X120.639 Y98.122 E.81478
G1 X120.139 Y98.122 E.02353
G1 X132.879 Y110.863 E.8481
G1 X132.879 Y111.363 E.02353
G1 X119.639 Y98.122 E.88138
G1 X119.138 Y98.122 E.02358
G1 X132.879 Y111.863 E.9147
G1 X132.879 Y112.364 E.02358
G1 X118.638 Y98.122 E.94801
G1 X118.137 Y98.122 E.02358
G1 X132.879 Y112.864 E.98133
G1 X132.879 Y113.364 E.02353
G1 X117.637 Y98.122 E1.01461
G1 X117.137 Y98.122 E.02353
G1 X132.879 Y113.865 E1.04793
G1 X132.879 Y114.365 E.02353
G1 X116.636 Y98.122 E1.08125
G1 X116.136 Y98.122 E.02353
G1 X132.879 Y114.865 E1.11453
G1 X132.879 Y115.366 E.02358
G1 X115.635 Y98.122 E1.14788
G1 X115.135 Y98.122 E.02353
G1 X132.879 Y115.866 E1.18116
G1 X132.879 Y116.367 E.02358
G1 X114.635 Y98.122 E1.21448
G1 X114.134 Y98.122 E.02358
G1 X132.879 Y116.867 E1.2478
G1 X132.879 Y117.367 E.02353
G1 X113.634 Y98.122 E1.28108
G1 X113.134 Y98.122 E.02353
G1 X132.879 Y117.868 E1.3144
G1 X132.879 Y118.368 E.02353
G1 X112.633 Y98.122 E1.34771
G1 X112.133 Y98.122 E.02353
G1 X132.879 Y118.868 E1.381
G1 X132.879 Y119.369 E.02358
G1 X111.632 Y98.121 E1.41438
G1 X111.132 Y98.121 E.02353
G1 X132.879 Y119.869 E1.44766
G1 X132.879 Y120.369 E.02353
G1 X110.632 Y98.121 E1.48095
G1 X110.131 Y98.121 E.02358
G1 X132.879 Y120.87 E1.5143
G1 X132.879 Y121.37 E.02353
G1 X109.631 Y98.121 E1.54758
G1 X109.13 Y98.121 E.02358
G1 X132.879 Y121.87 E1.5809
G1 X132.879 Y122.371 E.02358
G1 X108.63 Y98.121 E1.61421
G1 X108.13 Y98.121 E.02353
G1 X132.879 Y122.871 E1.6475
G1 X132.879 Y123.371 E.02353
G1 X107.629 Y98.121 E1.68081
G1 X107.129 Y98.121 E.02353
G1 X132.879 Y123.872 E1.71413
G1 X132.879 Y124.372 E.02353
G1 X106.628 Y98.121 E1.74745
G1 X106.128 Y98.121 E.02353
G1 X132.879 Y124.872 E1.78073
G1 X132.879 Y125.373 E.02358
G1 X105.628 Y98.121 E1.81405
G1 X105.127 Y98.121 E.02358
G1 X132.879 Y125.873 E1.84736
G1 X132.879 Y126.374 E.02358
G1 X104.627 Y98.121 E1.88068
G1 X104.127 Y98.121 E.02353
G1 X132.879 Y126.874 E1.91396
G1 X132.879 Y127.374 E.02353
G1 X103.626 Y98.121 E1.94728
G1 X103.126 Y98.121 E.02353
G1 X132.879 Y127.875 E1.9806
G1 X132.879 Y128.375 E.02353
G1 X102.625 Y98.121 E2.01391
G1 X102.125 Y98.121 E.02353
G1 X132.879 Y128.875 E2.0472
G1 X132.879 Y129.376 E.02358
G1 X101.625 Y98.121 E2.08051
G1 X101.124 Y98.121 E.02358
G1 X132.879 Y129.876 E2.11383
G1 X132.879 Y130.376 E.02353
G1 X100.624 Y98.121 E2.14711
G1 X100.123 Y98.121 E.02358
G1 X132.879 Y130.877 E2.18046
G1 X132.879 Y131.377 E.02353
G1 X99.623 Y98.121 E2.21375
G1 X99.123 Y98.121 E.02353
G1 X132.879 Y131.877 E2.24703
G1 X132.879 Y132.378 E.02358
G1 X98.622 Y98.121 E2.28038
G1 X98.381 Y98.151 E.01143
G1 X98.246 Y98.245 E.00774
G1 X132.756 Y132.754 E2.29719
G1 X132.617 Y132.85 E.00795
G1 X132.381 Y132.879 E.01119
G1 X98.121 Y98.619 E2.28058
G1 X98.121 Y99.12 E.02358
G1 X131.88 Y132.879 E2.24723
G1 X131.38 Y132.879 E.02353
G1 X98.121 Y99.62 E2.21395
G1 X98.121 Y100.12 E.02353
G1 X130.88 Y132.879 E2.18066
G1 X130.379 Y132.879 E.02358
G1 X98.121 Y100.621 E2.14731
G1 X98.121 Y101.121 E.02353
G1 X129.879 Y132.879 E2.11403
G1 X129.378 Y132.879 E.02358
G1 X98.121 Y101.622 E2.08068
G1 X98.121 Y102.122 E.02353
G1 X128.878 Y132.879 E2.0474
G1 X128.378 Y132.879 E.02353
G1 X98.121 Y102.622 E2.01411
G1 X98.121 Y103.123 E.02358
G1 X127.877 Y132.879 E1.98076
G1 X127.377 Y132.879 E.02353
G1 X98.121 Y103.623 E1.94748
G1 X98.121 Y104.123 E.02353
G1 X126.877 Y132.879 E1.9142
G1 X126.376 Y132.879 E.02358
G1 X98.121 Y104.624 E1.88085
G1 X98.121 Y105.124 E.02353
G1 X125.876 Y132.879 E1.84756
G1 X125.376 Y132.879 E.02353
G1 X98.121 Y105.624 E1.81428
G1 X98.121 Y106.125 E.02358
G1 X124.875 Y132.879 E1.78093
G1 X124.375 Y132.879 E.02353
G1 X98.121 Y106.625 E1.74765
G1 X98.121 Y107.125 E.02353
G1 X123.875 Y132.879 E1.71436
G1 X123.374 Y132.879 E.02358
G1 X98.121 Y107.626 E1.68101
G1 X98.121 Y108.126 E.02353
G1 X122.874 Y132.879 E1.64773
G1 X122.374 Y132.879 E.02353
G1 X98.121 Y108.626 E1.61445
G1 X98.121 Y109.127 E.02358
G1 X121.873 Y132.879 E1.5811
G1 X121.373 Y132.879 E.02353
G1 X98.121 Y109.627 E1.54781
G1 X98.121 Y110.128 E.02358
G1 X120.873 Y132.879 E1.5145
G1 X120.372 Y132.879 E.02358
G1 X98.121 Y110.628 E1.48118
G1 X98.121 Y111.128 E.02353
G1 X119.872 Y132.879 E1.4479
G1 X119.371 Y132.879 E.02358
G1 X98.121 Y111.629 E1.41455
G1 X98.121 Y112.129 E.02353
G1 X118.871 Y132.879 E1.38126
G1 X118.371 Y132.879 E.02353
G1 X98.121 Y112.629 E1.34798
G1 X98.121 Y113.13 E.02358
G1 X117.87 Y132.879 E1.31463
G1 X117.37 Y132.879 E.02353
G1 X98.121 Y113.63 E1.28135
G1 X98.121 Y114.13 E.02353
G1 X116.87 Y132.879 E1.24806
G1 X116.369 Y132.879 E.02358
G1 X98.121 Y114.631 E1.21471
G1 X98.121 Y115.131 E.02353
G1 X115.869 Y132.879 E1.18143
G1 X115.369 Y132.879 E.02353
G1 X98.121 Y115.631 E1.14815
G1 X98.121 Y116.132 E.02358
G1 X114.868 Y132.879 E1.1148
G1 X114.368 Y132.879 E.02353
G1 X98.121 Y116.632 E1.08151
G1 X98.121 Y117.132 E.02353
G1 X113.868 Y132.879 E1.04823
G1 X113.367 Y132.879 E.02358
G1 X98.121 Y117.633 E1.01488
G1 X98.121 Y118.133 E.02353
G1 X112.867 Y132.879 E.98159
G1 X112.367 Y132.879 E.02353
G1 X98.121 Y118.633 E.94831
G1 X98.121 Y119.134 E.02358
G1 X111.866 Y132.879 E.91496
G1 X111.366 Y132.879 E.02353
G1 X98.121 Y119.634 E.88168
G1 X98.121 Y120.135 E.02358
G1 X110.865 Y132.879 E.84833
G1 X110.365 Y132.879 E.02353
G1 X98.121 Y120.635 E.81504
G1 X98.121 Y121.135 E.02353
G1 X109.865 Y132.879 E.78176
G1 X109.364 Y132.879 E.02358
G1 X98.121 Y121.636 E.74841
G1 X98.121 Y122.136 E.02353
G1 X108.864 Y132.879 E.71513
G1 X108.364 Y132.879 E.02353
G1 X98.121 Y122.636 E.68184
G1 X98.121 Y123.137 E.02358
G1 X107.863 Y132.879 E.64849
G1 X107.363 Y132.879 E.02353
G1 X98.121 Y123.637 E.61521
G1 X98.121 Y124.137 E.02353
G1 X106.863 Y132.879 E.58193
G1 X106.362 Y132.879 E.02358
G1 X98.121 Y124.638 E.54858
G1 X98.121 Y125.138 E.02353
G1 X105.862 Y132.879 E.51529
G1 X105.362 Y132.879 E.02353
G1 X98.121 Y125.638 E.48201
G1 X98.121 Y126.139 E.02358
G1 X104.861 Y132.879 E.44866
G1 X104.361 Y132.879 E.02353
G1 X98.121 Y126.639 E.41538
G1 X98.121 Y127.139 E.02353
G1 X103.861 Y132.879 E.38209
G1 X103.36 Y132.879 E.02358
G1 X98.121 Y127.64 E.34874
G1 X98.121 Y128.14 E.02353
G1 X102.86 Y132.879 E.31546
G1 X102.36 Y132.879 E.02353
G1 X98.121 Y128.64 E.28218
G1 X98.121 Y129.141 E.02358
G1 X101.859 Y132.879 E.24883
G1 X101.359 Y132.879 E.02353
G1 X98.121 Y129.641 E.21554
G1 X98.121 Y130.142 E.02358
G1 X100.858 Y132.879 E.18219
G1 X100.358 Y132.879 E.02353
G1 X98.121 Y130.642 E.14891
G1 X98.121 Y131.142 E.02353
G1 X99.858 Y132.879 E.11563
G1 X99.357 Y132.879 E.02358
G1 X98.121 Y131.643 E.08228
G1 X98.121 Y132.143 E.02353
G1 X99.015 Y133.038 E.05954
; stop printing object Vase Mode Single Cell.stl id:0 copy 0
;LAYER_CHANGE
;Z:0.64
;HEIGHT:0.32
;BEFORE_LAYER_CHANGE
G92 E0
;0.64


G1 Z.64 F9000
;AFTER_LAYER_CHANGE
;0.64
G1 E-5 F3600
G1 X99.015 Y137.131 F9000
G1 E5 F2400
;TYPE:Skirt/Brim
;WIDTH:0.42
G1 X98.5 Y137.131 E.02407
G1 X97.665 Y137.054 E.03919
G1 X96.946 Y136.861 E.0348
G1 X95.998 Y136.395 E.04937
G1 X95.406 Y135.944 E.03479
G1 X94.748 Y135.212 E.04601
G1 X94.275 Y134.393 E.04421
G1 X93.971 Y133.458 E.04595
G1 X93.869 Y132.5 E.04503
G1 X93.869 Y98.5 E1.58919
G1 X93.946 Y97.665 E.03919
G1 X94.139 Y96.946 E.0348
G1 X94.605 Y95.998 E.04937
G1 X95.056 Y95.406 E.03479
G1 X95.788 Y94.748 E.04601
G1 X96.556 Y94.299 E.04158
G1 X97.329 Y94.02 E.03841
G1 X98.281 Y93.876 E.045
G1 X132.719 Y93.876 E1.60966
G1 X133.671 Y94.02 E.045
G1 X134.393 Y94.275 E.03579
G1 X135.167 Y94.716 E.04164
G1 X135.754 Y95.206 E.03574
G1 X136.252 Y95.788 E.0358
G1 X136.701 Y96.556 E.04158
G1 X136.98 Y97.329 E.03841
G1 X137.11 Y98.083 E.03576
G1 X137.131 Y132.5 E1.60868
G1 X137.054 Y133.335 E.03919
G1 X136.861 Y134.054 E.0348
G1 X136.395 Y135.002 E.04937
G1 X135.944 Y135.594 E.03479
G1 X135.212 Y136.252 E.04601
G1 X134.393 Y136.725 E.04421
G1 X133.458 Y137.029 E.04595
G1 X132.5 Y137.131 E.04503
G1 X99.075 Y137.131 E1.56231
; printing object Vase Mode Single Cell.stl id:0 copy 0
G1 E-3.5 F3600
;WIPE_START
G1 F7200
G1 X98.5 Y137.131 E-.27313
G1 X97.665 Y137.054 E-.39831
G1 X96.946 Y136.861 E-.35362
G1 X96.049 Y136.42 E-.47494
;WIPE_END
G1 X99.075 Y133.57 F9000
G1 E5 F2400
;TYPE:External perimeter
;WIDTH:0.42
G1 F1500
G1 X98.634 Y133.57 E.02061
G1 X98.102 Y133.489 E.02515
G1 X97.756 Y133.265 E.01927
G1 X97.512 Y132.903 E.0204
G1 X97.43 Y132.482 E.02005
G1 X97.43 Y98.634 E1.58208
G1 X97.511 Y98.102 E.02515
G1 X97.735 Y97.756 E.01927
G1 X98.097 Y97.512 E.0204
G1 X98.518 Y97.43 E.02005
G1 X132.599 Y97.438 E1.59297
G1 X132.937 Y97.529 E.01636
G1 X133.27 Y97.763 E.01902
G1 X133.489 Y98.102 E.01886
G1 X133.57 Y98.633 E.02511
G1 X133.57 Y132.366 E1.57671
G1 X133.489 Y132.898 E.02515
G1 X133.265 Y133.244 E.01927
G1 X132.903 Y133.488 E.0204
G1 X132.482 Y133.57 E.02005
G1 X99.135 Y133.57 E1.55866
G1 X97.952 Y133.253 F9000
M204 S250
;TYPE:Bridge infill
;WIDTH:0.39383
;HEIGHT:0.389872
G1 F1500
G1 X132.462 Y133.253 E1.74778
G1 X132.794 Y133.189 E.01712
G1 X132.943 Y133.106 E.00864
G1 X133.026 Y133.035 E.00553
G1 X133.172 Y132.809 E.01363
G1 X97.82 Y132.809 E1.79042
G1 X97.745 Y132.452 E.01848
G1 X97.745 Y132.366 E.00436
G1 X98.114 Y132.366 E.01869
G1 X98.114 Y131.922 E.02249
G1 X97.745 Y131.922 E.01869
G1 X97.745 Y131.478 E.02249
G1 X98.114 Y131.478 E.01869
G1 X98.114 Y131.034 E.02249
G1 X97.745 Y131.034 E.01869
G1 X97.745 Y130.59 E.02249
G1 X98.114 Y130.59 E.01869
G1 X98.114 Y130.146 E.02249
G1 X97.745 Y130.146 E.01869
G1 X97.745 Y129.703 E.02244
G1 X98.114 Y129.703 E.01869
G1 X98.114 Y129.259 E.02249
G1 X97.745 Y129.259 E.01869
G1 X97.745 Y128.815 E.02249
G1 X98.114 Y128.815 E.01869
G1 X98.114 Y128.371 E.02249
G1 X97.745 Y128.371 E.01869
G1 X97.745 Y127.927 E.02249
G1 X98.114 Y127.927 E.01869
G1 X98.114 Y127.483 E.02249
G1 X97.745 Y127.483 E.01869
G1 X97.745 Y127.04 E.02244
G1 X98.114 Y127.04 E.01869
G1 X98.114 Y126.596 E.02249
G1 X97.745 Y126.596 E.01869
G1 X97.745 Y126.152 E.02249
G1 X98.114 Y126.152 E.01869
G1 X98.114 Y125.708 E.02249
G1 X97.745 Y125.708 E.01869
G1 X97.745 Y125.264 E.02249
G1 X98.114 Y125.264 E.01869
G1 X98.114 Y124.82 E.02249
G1 X97.745 Y124.82 E.01869
G1 X97.745 Y124.377 E.02244
G1 X98.114 Y124.377 E.01869
G1 X98.114 Y123.933 E.02249
G1 X97.745 Y123.933 E.01869
G1 X97.745 Y123.489 E.02249
G1 X98.114 Y123.489 E.01869
G1 X98.114 Y123.045 E.02249
G1 X97.745 Y123.045 E.01869
G1 X97.745 Y122.601 E.02249
G1 X98.114 Y122.601 E.01869
G1 X98.114 Y122.157 E.02249
G1 X97.745 Y122.157 E.01869
G1 X97.745 Y121.714 E.02244
G1 X98.114 Y121.714 E.01869
G1 X98.114 Y121.27 E.02249
G1 X97.745 Y121.27 E.01869
G1 X97.745 Y120.826 E.02249
G1 X98.114 Y120.826 E.01869
G1 X98.114 Y120.382 E.02249
G1 X97.745 Y120.382 E.01869
G1 X97.745 Y119.938 E.02249
G1 X98.114 Y119.938 E.01869
G1 X98.114 Y119.494 E.02249
G1 X97.745 Y119.494 E.01869
G1 X97.745 Y119.051 E.02244
G1 X98.114 Y119.051 E.01869
G1 X98.114 Y118.607 E.02249
G1 X97.745 Y118.607 E.01869
G1 X97.745 Y118.163 E.02249
G1 X98.114 Y118.163 E.01869
G1 X98.114 Y117.719 E.02249
G1 X97.745 Y117.719 E.01869
G1 X97.745 Y117.275 E.02249
G1 X98.114 Y117.275 E.01869
G1 X98.114 Y116.831 E.02249
G1 X97.745 Y116.831 E.01869
G1 X97.745 Y116.388 E.02244
G1 X98.114 Y116.388 E.01869
G1 X98.114 Y115.944 E.02249
G1 X97.745 Y115.944 E.01869
G1 X97.745 Y115.5 E.02249
