; generated by PrusaSlicer 2.6.1+win64 on 2023-11-03 at 19:10:38 UTC

; 

; external perimeters extrusion width = 0.45mm
; perimeters extrusion width = 0.45mm
; infill extrusion width = 0.45mm
; solid infill extrusion width = 0.45mm
; top infill extrusion width = 0.40mm
; support material extrusion width = 0.35mm
; first layer extrusion width = 0.42mm

M201 X500 Y500 Z100 E5000 ; sets maximum accelerations, mm/sec^2
M203 X500 Y500 Z10 E60 ; sets maximum feedrates, mm / sec
M204 S500 T1000 ; sets acceleration (S) and retract acceleration (R), mm/sec^2
M205 X8.00 Y8.00 Z0.40 E5.00 ; sets the jerk limits, mm/sec
M205 S0 T0 ; sets the minimum extruding and travel feed rate, mm/sec
;TYPE:Custom
G90 ; use absolute coordinates
M83 ; extruder relative mode
M104 S150 ; set temporary nozzle temp to prevent oozing during homing
M140 S60 ; set final bed temp
G4 S30 ; allow partial nozzle warmup
G28 ; home all axis
G1 Z50 F240
G1 X2.0 Y10 F3000
M104 S210 ; set final nozzle temp
M190 S60 ; wait for bed temp to stabilize
M109 S210 ; wait for nozzle temp to stabilize
G1 Z0.28 F240
G92 E0
G1 X2.0 Y140 E10 F1500 ; prime the nozzle
G1 X2.3 Y140 F5000
G92 E0
G1 X2.3 Y10 E10 F1200 ; prime the nozzle
G92 E0
G21 ; set units to millimeters
G90 ; use absolute coordinates
M83 ; use relative distances for extrusion
; Filament gcode
M107
;LAYER_CHANGE
;Z:0.35
;HEIGHT:0.35
;BEFORE_LAYER_CHANGE
G92 E0
;0.35


G1 E-5 F3600
G1 Z.35 F7800
;AFTER_LAYER_CHANGE
;0.35
G1 X77.586 Y75.601
G1 E5 F2400
;TYPE:Skirt/Brim
;WIDTH:0.42
G1 F1800
G1 X83.953 Y69.067 E.45785
G1 X85.778 Y67.762 E.1126
G1 X88.497 Y67.15 E.13987
G1 X90.497 Y67.15 E.10037
G1 X92.84 Y67.599 E.11973
G1 X184.535 Y104.032 E4.95173
G1 X186.441 Y105.217 E.11263
G1 X187.816 Y106.99 E.1126
G1 X188.505 Y109.294 E.12069
G1 X191.601 Y140.074 E1.55252
G1 X191.632 Y157.431 E.87108
G1 X191.236 Y159.64 E.11263
G1 X190.095 Y161.573 E.11265
G1 X188.352 Y162.987 E.11264
G1 X185.288 Y163.776 E.15879
G1 X165.494 Y163.776 E.99338
G1 X163.275 Y163.375 E.11317
G1 X48.278 Y120.437 E6.16041
G1 X46.347 Y119.293 E.11264
G1 X44.936 Y117.548 E.11262
G1 X44.152 Y114.493 E.15829
G1 X44.152 Y112.493 E.10037
G1 X44.549 Y110.284 E.11264
G1 X45.953 Y108.065 E.13178
G1 X77.544 Y75.644 E2.27177
G1 E-3.5 F3600
;WIPE_START
G1 F6240
G1 X79.454 Y73.684 E-1.5
;WIPE_END
G1 X164.747 Y133.004 F7800
G1 E5 F2400
;TYPE:Support material
G1 F1800
G1 X164.578 Y135.146 E.10783
G1 X151.566 Y135.146 E.65302
G1 X151.566 Y130.917 E.21224
G1 X164.696 Y132.996 E.66715
G1 X164.168 Y134.991 F7800
G1 F1800
G1 X164.168 Y133.227 E.08853
G1 X163.784 Y133.166 E.01951
G1 X163.784 Y134.836 E.08381
G1 X163.401 Y134.836 E.01922
G1 X163.401 Y133.105 E.08687
G1 X163.018 Y133.045 E.01946
G1 X163.018 Y134.836 E.08988
G1 X162.635 Y134.836 E.01922
G1 X162.635 Y132.984 E.09294
G1 X162.252 Y132.923 E.01946
G1 X162.252 Y134.836 E.09601
G1 X161.868 Y134.836 E.01927
G1 X161.868 Y132.863 E.09902
G1 X161.485 Y132.802 E.01946
G1 X161.485 Y134.836 E.10208
G1 X161.102 Y134.836 E.01922
G1 X161.102 Y132.741 E.10514
G1 X160.719 Y132.681 E.01946
G1 X160.719 Y134.836 E.10815
G1 X160.336 Y134.836 E.01922
G1 X160.336 Y132.62 E.11121
G1 X159.952 Y132.559 E.01951
G1 X159.952 Y134.836 E.11427
G1 X159.569 Y134.836 E.01922
G1 X159.569 Y132.499 E.11728
G1 X159.186 Y132.438 E.01946
G1 X159.186 Y134.836 E.12035
G1 X158.803 Y134.836 E.01922
G1 X158.803 Y132.377 E.12341
G1 X158.42 Y132.316 E.01946
G1 X158.42 Y134.836 E.12647
G1 X158.036 Y134.836 E.01927
G1 X158.036 Y132.256 E.12948
G1 X157.653 Y132.195 E.01946
G1 X157.653 Y134.836 E.13254
G1 X157.27 Y134.836 E.01922
G1 X157.27 Y132.134 E.1356
G1 X156.887 Y132.074 E.01946
G1 X156.887 Y134.836 E.13861
G1 X156.503 Y134.836 E.01927
G1 X156.503 Y132.013 E.14167
G1 X156.12 Y131.952 E.01946
G1 X156.12 Y134.836 E.14474
G1 X155.737 Y134.836 E.01922
G1 X155.737 Y131.892 E.14775
G1 X155.354 Y131.831 E.01946
G1 X155.354 Y134.836 E.15081
G1 X154.971 Y134.836 E.01922
G1 X154.971 Y131.77 E.15387
G1 X154.587 Y131.71 E.01951
G1 X154.587 Y134.836 E.15688
G1 X154.204 Y134.836 E.01922
G1 X154.204 Y131.649 E.15994
G1 X153.821 Y131.588 E.01946
G1 X153.821 Y134.836 E.163
G1 X153.438 Y134.836 E.01922
G1 X153.438 Y131.527 E.16607
G1 X153.055 Y131.467 E.01946
G1 X153.055 Y134.836 E.16908
G1 X152.671 Y134.836 E.01927
G1 X152.671 Y131.406 E.17214
G1 X152.288 Y131.345 E.01946
G1 X152.288 Y134.836 E.1752
G1 X151.905 Y134.836 E.01922
G1 X151.905 Y131.128 E.18609
G1 E-3.5 F3600
;WIPE_START
G1 F6240
G1 X151.905 Y133.865 E-1.5
;WIPE_END
G1 X168.074 Y134.775 F7800
G1 E5 F2400
G1 F1800
G1 X168.074 Y139.591 E.2417
G1 X167.899 Y139.417 E.01238
G1 X167.899 Y134.772 E.23311
G1 X168.022 Y134.774 E.00617
G1 E-3.5 F3600
;WIPE_START
G1 F6240
G1 X167.899 Y134.772 E-.06742
G1 X167.899 Y137.386 E-1.43258
;WIPE_END
G1 X168.482 Y143.485 F7800
G1 E5 F2400
;TYPE:Support material interface
;WIDTH:0.35
G1 F1800
G1 X168.482 Y134.999 E.33944
G1 X168.768 Y134.999 E.01144
G1 X168.768 Y143.356 E.33428
G1 X169.054 Y143.356 E.01144
G1 X169.054 Y134.999 E.33428
G1 X169.339 Y134.999 E.0114
G1 X169.339 Y143.356 E.33428
G1 X169.625 Y143.356 E.01144
G1 X169.625 Y134.999 E.33428
G1 X169.91 Y134.999 E.0114
G1 X169.91 Y143.356 E.33428
G1 X170.196 Y143.356 E.01144
G1 X170.196 Y137.582 E.23096
G1 X170.347 Y137.735 E.0086
G1 X170.482 Y137.737 E.0054
G1 X170.482 Y143.356 E.22476
G1 X170.767 Y143.356 E.0114
G1 X170.767 Y138.541 E.1926
G1 X170.879 Y138.652 E.00631
G1 X171.053 Y138.652 E.00696
G1 X171.053 Y143.356 E.18816
G1 X171.338 Y143.356 E.0114
G1 X171.338 Y138.652 E.18816
G1 X171.624 Y138.651 E.01144
G1 X171.624 Y143.356 E.1882
G1 X171.91 Y143.356 E.01144
G1 X171.91 Y138.651 E.1882
G1 X172.195 Y138.651 E.0114
G1 X172.195 Y143.356 E.1882
G1 X172.481 Y143.356 E.01144
G1 X172.481 Y138.651 E.1882
G1 X172.767 Y138.651 E.01144
G1 X172.767 Y143.356 E.1882
G1 X173.052 Y143.356 E.0114
G1 X173.052 Y138.65 E.18824
G1 X173.338 Y138.648 E.01144
G1 X173.338 Y143.356 E.18832
G1 X173.623 Y143.356 E.0114
G1 X173.623 Y138.646 E.1884
G1 X173.909 Y138.644 E.01144
G1 X173.909 Y143.356 E.18848
G1 X174.195 Y143.356 E.01144
G1 X174.195 Y138.641 E.1886
G1 X174.48 Y138.639 E.0114
G1 X174.48 Y143.356 E.18868
G1 X174.766 Y143.356 E.01144
G1 X174.766 Y138.636 E.1888
G1 X175.052 Y138.634 E.01144
G1 X175.052 Y143.356 E.18888
G1 X175.337 Y143.356 E.0114
G1 X175.337 Y138.631 E.189
G1 X175.623 Y138.629 E.01144
G1 X175.623 Y143.356 E.18908
G1 X175.908 Y143.356 E.0114
G1 X175.908 Y138.627 E.18916
G1 X176.194 Y138.624 E.01144
G1 X176.194 Y143.356 E.18928
G1 X176.48 Y143.356 E.01144
G1 X176.48 Y138.622 E.18936
G1 X176.765 Y138.619 E.0114
G1 X176.765 Y143.356 E.18948
G1 X177.051 Y143.356 E.01144
G1 X177.051 Y138.617 E.18956
G1 X177.336 Y138.614 E.0114
G1 X177.336 Y143.356 E.18968
G1 X177.622 Y143.356 E.01144
G1 X177.622 Y138.612 E.18976
G1 X177.908 Y138.61 E.01144
G1 X177.908 Y143.356 E.18984
G1 X178.193 Y143.356 E.0114
G1 X178.193 Y138.607 E.18996
G1 X178.479 Y138.605 E.01144
G1 X178.479 Y143.356 E.19004
G1 X178.765 Y143.356 E.01144
G1 X178.765 Y138.602 E.19016
G1 X179.05 Y138.6 E.0114
G1 X179.05 Y143.356 E.19024
G1 X179.336 Y143.356 E.01144
G1 X179.336 Y138.554 E.19208
G1 X179.621 Y138.266 E.01621
G1 X179.621 Y137.954 E.01248
G1 X179.621 Y143.485 E.22124
G1 E-3.5 F3600
;WIPE_START
G1 F6240
G1 X179.621 Y140.748 E-1.5
;WIPE_END
G1 X182.192 Y143.485 F7800
G1 E5 F2400
G1 F1800
G1 X182.192 Y109.929 E1.34224
G1 X181.906 Y109.929 E.01144
G1 X181.906 Y143.356 E1.33708
G1 X181.621 Y143.356 E.0114
G1 X181.621 Y109.929 E1.33708
G1 X181.335 Y109.929 E.01144
G1 X181.335 Y143.356 E1.33708
G1 X181.05 Y143.356 E.0114
G1 X181.05 Y109.929 E1.33708
G1 X180.764 Y109.929 E.01144
G1 X180.764 Y143.356 E1.33708
G1 X180.478 Y143.356 E.01144
G1 X180.478 Y109.929 E1.33708
G1 X180.193 Y109.929 E.0114
G1 X180.193 Y143.356 E1.33708
G1 X179.907 Y143.356 E.01144
G1 X179.907 Y109.929 E1.33708
G1 X179.621 Y109.929 E.01144
G1 X179.621 Y112.271 E.09368
G1 X179.479 Y112.129 E.00803
G1 X179.336 Y112.129 E.00572
G1 X179.336 Y109.929 E.088
G1 X179.05 Y109.929 E.01144
G1 X179.05 Y112.129 E.088
G1 X178.765 Y112.129 E.0114
G1 X178.765 Y109.929 E.088
G1 X178.479 Y109.929 E.01144
G1 X178.479 Y112.129 E.088
G1 X178.193 Y112.129 E.01144
G1 X178.193 Y109.929 E.088
G1 X177.908 Y109.929 E.0114
G1 X177.908 Y112.129 E.088
G1 X177.622 Y112.129 E.01144
G1 X177.622 Y109.929 E.088
G1 X177.336 Y109.929 E.01144
G1 X177.336 Y112.129 E.088
G1 X177.051 Y112.129 E.0114
G1 X177.051 Y109.8 E.09316
G1 E-3.5 F3600
;WIPE_START
G1 F6240
G1 X177.051 Y112.129 E-1.27647
G1 X177.336 Y112.129 E-.1562
G1 X177.336 Y112.006 E-.06733
;WIPE_END
G1 X179.398 Y135.861 F7800
G1 E5 F2400
;TYPE:Support material
;WIDTH:0.42
G1 F1800
G1 X179.396 Y137.452 E.07985
G1 X179.269 Y137.581 E.00908
G1 X179.269 Y138.121 E.0271
G1 X179.144 Y138.246 E.00887
G1 X171.025 Y138.299 E.40747
G1 X170.899 Y138.173 E.00894
G1 X170.899 Y137.389 E.03935
G1 X170.488 Y137.376 E.02064
G1 X170.488 Y135.627 E.08778
G1 X179.052 Y135.695 E.42981
G1 X179.31 Y135.44 E.01821
G1 X179.309 Y133.878 E.07839
G1 X179.393 Y133.794 E.00596
G1 X179.398 Y135.81 E.10118
G1 X178.73 Y138.095 F7800
G1 F1800
G1 X178.73 Y136.003 E.10499
G1 X178.346 Y136 E.01927
G1 X178.346 Y137.943 E.09751
G1 X177.963 Y137.946 E.01922
G1 X177.963 Y135.997 E.09781
G1 X177.58 Y135.993 E.01922
G1 X177.58 Y137.949 E.09816
G1 X177.197 Y137.952 E.01922
G1 X177.197 Y135.99 E.09846
G1 X176.814 Y135.987 E.01922
G1 X176.814 Y137.956 E.09882
G1 X176.43 Y137.959 E.01927
G1 X176.43 Y135.984 E.09912
G1 X176.047 Y135.981 E.01922
G1 X176.047 Y137.962 E.09942
G1 X175.664 Y137.965 E.01922
G1 X175.664 Y135.978 E.09972
G1 X175.281 Y135.974 E.01922
G1 X175.281 Y137.969 E.10012
G1 X174.898 Y137.972 E.01922
G1 X174.898 Y135.971 E.10042
G1 X174.514 Y135.968 E.01927
G1 X174.514 Y137.975 E.10072
G1 X174.131 Y137.978 E.01922
G1 X174.131 Y135.965 E.10102
G1 X173.748 Y135.962 E.01922
G1 X173.748 Y137.982 E.10138
G1 X173.365 Y137.985 E.01922
G1 X173.365 Y135.959 E.10168
G1 X172.981 Y135.956 E.01927
G1 X172.981 Y137.987 E.10193
G1 X172.598 Y137.987 E.01922
G1 X172.598 Y135.953 E.10208
G1 X172.215 Y135.95 E.01922
G1 X172.215 Y137.988 E.10228
G1 X171.832 Y137.988 E.01922
G1 X171.832 Y135.948 E.10238
G1 X171.449 Y135.945 E.01922
G1 X171.449 Y137.988 E.10253
G1 X171.209 Y137.988 E.01204
G1 X171.209 Y137.083 E.04542
G1 X171.065 Y137.081 E.00723
G1 X171.065 Y135.786 E.06499
G1 E-3.5 F3600
;WIPE_START
G1 F6240
G1 X171.065 Y137.081 E-.70976
G1 X171.209 Y137.083 E-.07893
G1 X171.209 Y137.988 E-.49601
G1 X171.449 Y137.988 E-.13154
G1 X171.449 Y137.835 E-.08376
;WIPE_END
G1 X168.074 Y143.709 F7800
G1 E5 F2400
G1 F1800
G1 X182.708 Y143.709 E.73442
G1 X182.708 Y140.709 E.15056
G1 X185.288 Y140.709 E.12948
G1 X185.288 Y157.431 E.83921
G1 X165.494 Y157.431 E.99338
G1 X165.494 Y140.709 E.83921
G1 X168.074 Y140.709 E.12948
G1 X168.074 Y143.657 E.14795
G1 X184.861 Y157.276 F7800
G1 F1800
G1 X184.861 Y141.02 E.81582
G1 X184.478 Y141.02 E.01922
G1 X184.478 Y157.121 E.80804
G1 X184.095 Y157.121 E.01922
G1 X184.095 Y141.02 E.80804
G1 X183.711 Y141.02 E.01927
G1 X183.711 Y157.121 E.80804
G1 X183.328 Y157.121 E.01922
G1 X183.328 Y141.02 E.80804
G1 X183.018 Y141.02 E.01556
G1 X183.018 Y144.02 E.15056
G1 X182.945 Y144.02 E.00366
G1 X182.945 Y157.121 E.65749
G1 X182.562 Y157.121 E.01922
G1 X182.562 Y144.02 E.65749
G1 X182.179 Y144.02 E.01922
G1 X182.179 Y157.121 E.65749
G1 X181.795 Y157.121 E.01927
G1 X181.795 Y144.02 E.65749
G1 X181.412 Y144.02 E.01922
G1 X181.412 Y157.121 E.65749
G1 X181.029 Y157.121 E.01922
G1 X181.029 Y144.02 E.65749
G1 X180.646 Y144.02 E.01922
G1 X180.646 Y157.121 E.65749
G1 X180.262 Y157.121 E.01927
G1 X180.262 Y144.02 E.65749
G1 X179.879 Y144.02 E.01922
G1 X179.879 Y157.121 E.65749
G1 X179.496 Y157.121 E.01922
G1 X179.496 Y144.02 E.65749
G1 X179.113 Y144.02 E.01922
G1 X179.113 Y157.121 E.65749
G1 X178.73 Y157.121 E.01922
G1 X178.73 Y144.02 E.65749
G1 X178.346 Y144.02 E.01927
G1 X178.346 Y157.121 E.65749
G1 X177.963 Y157.121 E.01922
G1 X177.963 Y144.02 E.65749
G1 X177.58 Y144.02 E.01922
G1 X177.58 Y157.121 E.65749
G1 X177.197 Y157.121 E.01922
G1 X177.197 Y144.02 E.65749
G1 X176.814 Y144.02 E.01922
G1 X176.814 Y157.121 E.65749
G1 X176.43 Y157.121 E.01927
G1 X176.43 Y144.02 E.65749
G1 X176.047 Y144.02 E.01922
G1 X176.047 Y157.121 E.65749
G1 X175.664 Y157.121 E.01922
G1 X175.664 Y144.02 E.65749
G1 X175.281 Y144.02 E.01922
G1 X175.281 Y157.121 E.65749
G1 X174.898 Y157.121 E.01922
G1 X174.898 Y144.02 E.65749
G1 X174.514 Y144.02 E.01927
G1 X174.514 Y157.121 E.65749
G1 X174.131 Y157.121 E.01922
G1 X174.131 Y144.02 E.65749
G1 X173.748 Y144.02 E.01922
G1 X173.748 Y157.121 E.65749
G1 X173.365 Y157.121 E.01922
G1 X173.365 Y144.02 E.65749
G1 X172.981 Y144.02 E.01927
G1 X172.981 Y157.121 E.65749
G1 X172.598 Y157.121 E.01922
G1 X172.598 Y144.02 E.65749
G1 X172.215 Y144.02 E.01922
G1 X172.215 Y157.121 E.65749
G1 X171.832 Y157.121 E.01922
G1 X171.832 Y144.02 E.65749
G1 X171.449 Y144.02 E.01922
G1 X171.449 Y157.121 E.65749
G1 X171.065 Y157.121 E.01927
G1 X171.065 Y144.02 E.65749
G1 X170.682 Y144.02 E.01922
G1 X170.682 Y157.121 E.65749
G1 X170.299 Y157.121 E.01922
G1 X170.299 Y144.02 E.65749
G1 X169.916 Y144.02 E.01922
G1 X169.916 Y157.121 E.65749
G1 X169.533 Y157.121 E.01922
G1 X169.533 Y144.02 E.65749
G1 X169.149 Y144.02 E.01927
G1 X169.149 Y157.121 E.65749
G1 X168.766 Y157.121 E.01922
G1 X168.766 Y144.02 E.65749
G1 X168.383 Y144.02 E.01922
G1 X168.383 Y157.121 E.65749
G1 X168 Y157.121 E.01922
G1 X168 Y144.02 E.65749
G1 X167.763 Y144.02 E.01189
G1 X167.763 Y141.02 E.15056
G1 X167.617 Y141.02 E.00733
G1 X167.617 Y157.121 E.80804
G1 X167.233 Y157.121 E.01927
G1 X167.233 Y141.02 E.80804
G1 X166.85 Y141.02 E.01922
G1 X166.85 Y157.121 E.80804
G1 X166.467 Y157.121 E.01922
G1 X166.467 Y141.02 E.80804
G1 X166.084 Y141.02 E.01922
G1 X166.084 Y157.276 E.81582
G1 E-3.5 F3600
;WIPE_START
G1 F6240
G1 X166.084 Y154.539 E-1.5
;WIPE_END
G1 X183.552 Y137.524 F7800
G1 E5 F2400
G1 F1800
G1 X182.708 Y138.375 E.06015
G1 X182.708 Y136.686 E.08476
G1 X183.515 Y137.487 E.05706
G1 E-3.5 F3600
;WIPE_START
G1 F6240
G1 X182.708 Y136.686 E-.62318
G1 X182.708 Y138.286 E-.87682
;WIPE_END
G1 X89.497 Y81.455 F7800
G1 E5 F2400
;TYPE:Perimeter
;WIDTH:0.620445
G1 F1800
G1 X89.408 Y81.317 E.01303
;WIDTH:0.580356
G1 X89.319 Y81.18 E.01201
;WIDTH:0.540267
G1 X89.23 Y81.042 E.01111
;WIDTH:0.500178
G1 X89.141 Y80.904 E.01016
;WIDTH:0.460089
G1 X89.052 Y80.766 E.0092
G1 X88.948 Y80.711 E.00659
;WIDTH:0.500178
G1 X88.845 Y80.657 E.00719
;WIDTH:0.540267
G1 X88.741 Y80.602 E.00796
;WIDTH:0.580356
G1 X88.638 Y80.548 E.00855
;WIDTH:0.620445
G1 X88.535 Y80.493 E.00927
G1 X88.638 Y80.438 E.00927
;WIDTH:0.580356
G1 X88.741 Y80.384 E.00855
;WIDTH:0.540267
G1 X88.845 Y80.329 E.00796
;WIDTH:0.500178
G1 X88.948 Y80.275 E.00719
;WIDTH:0.460089
G1 X89.052 Y80.22 E.00659
;WIDTH:0.463005
G1 X89.139 Y80.116 E.00765
;WIDTH:0.506011
G1 X89.227 Y80.011 E.00859
;WIDTH:0.549017
G1 X89.315 Y79.907 E.00939
;WIDTH:0.592023
G1 X89.402 Y79.803 E.0102
;WIDTH:0.635029
G1 X89.49 Y79.698 E.01116
G1 X89.511 Y79.857 E.01307
;WIDTH:0.592023
G1 X89.533 Y80.016 E.01207
;WIDTH:0.549017
G1 X89.554 Y80.175 E.01106
;WIDTH:0.506011
G1 X89.576 Y80.334 E.01006
;WIDTH:0.463005
G1 X89.597 Y80.493 E.00905
;WIDTH:0.460089
G1 X89.577 Y80.685 E.01081
;WIDTH:0.500178
G1 X89.557 Y80.878 E.012
;WIDTH:0.540267
G1 X89.537 Y81.07 E.01307
;WIDTH:0.580356
G1 X89.517 Y81.263 E.01427
;WIDTH:0.620445
G1 X89.503 Y81.396 E.01061
G1 E-3.5 F3600
;WIPE_START
G1 F6240
G1 X89.408 Y81.317 E-.06772
G1 X89.319 Y81.18 E-.08954
G1 X89.23 Y81.042 E-.09
G1 X89.141 Y80.904 E-.09
G1 X89.052 Y80.766 E-.09
G1 X88.948 Y80.711 E-.06448
G1 X88.845 Y80.657 E-.06374
G1 X88.741 Y80.602 E-.06448
G1 X88.638 Y80.548 E-.06374
G1 X88.535 Y80.493 E-.064
G1 X88.638 Y80.438 E-.064
G1 X88.741 Y80.384 E-.06374
G1 X88.845 Y80.329 E-.06448
G1 X88.948 Y80.275 E-.06374
G1 X89.052 Y80.22 E-.06448
G1 X89.139 Y80.116 E-.07431
G1 X89.227 Y80.011 E-.07509
G1 X89.315 Y79.907 E-.07467
G1 X89.402 Y79.803 E-.07431
G1 X89.49 Y79.698 E-.07509
G1 X89.504 Y79.804 E-.05839
;WIPE_END
G1 X86.04 Y80.493 F7800
G1 E5 F2400
G1 F1800
G1 X85.957 Y80.517 E.00686
