; generated by PrusaSlicer 2.6.1+win64 on 2023-11-02 at 03:11:45 UTC

; 

; external perimeters extrusion width = 0.42mm
; perimeters extrusion width = 0.44mm
; infill extrusion width = 0.44mm
; solid infill extrusion width = 0.44mm
; top infill extrusion width = 0.40mm
; first layer extrusion width = 0.42mm

;TYPE:Custom
G90 ; use absolute coordinates
M83 ; extruder relative mode
M104 S150 ; set temporary nozzle temp to prevent oozing during homing
M140 S70 ; set final bed temp
G4 S30 ; allow partial nozzle warmup
G28 ; home all axis
G1 Z50 F240
G1 X2.0 Y10 F3000
M104 S240 ; set final nozzle temp
M190 S70 ; wait for bed temp to stabilize
M109 S240 ; wait for nozzle temp to stabilize
G1 Z0.28 F240
G92 E0
G1 X2.0 Y140 E10 F1500 ; prime the nozzle
G1 X2.3 Y140 F5000
G92 E0
G1 X2.3 Y10 E10 F1200 ; prime the nozzle
G92 E0
G21 ; set units to millimeters
G90 ; use absolute coordinates
M83 ; use relative distances for extrusion
; Filament gcode
M107
;LAYER_CHANGE
;Z:0.2
;HEIGHT:0.2
;BEFORE_LAYER_CHANGE
G92 E0
;0.2


G1 Z.2 F9000
;AFTER_LAYER_CHANGE
;0.2
G1 E-5 F3600
G1 X95.154 Y95.528 F9000
G1 E5 F2400
M204 S500
;TYPE:Skirt/Brim
;WIDTH:0.42
G1 F1200
G1 X95.876 Y94.875 E.03052
G1 X96.593 Y94.452 E.0261
G1 X97.384 Y94.166 E.02637
G1 X98.279 Y94.03 E.02838
G1 X132.721 Y94.03 E1.0799
G1 X133.616 Y94.166 E.02838
G1 X134.328 Y94.415 E.02365
G1 X134.991 Y94.783 E.02378
G1 X135.634 Y95.305 E.02597
G1 X136.175 Y95.948 E.02635
G1 X136.585 Y96.672 E.02609
G1 X136.834 Y97.384 E.02365
G1 X136.965 Y98.201 E.02594
G1 X136.977 Y132.5 E1.07542
G1 X136.899 Y133.324 E.02595
G1 X136.722 Y133.986 E.02149
G1 X136.261 Y134.926 E.03283
G1 X135.846 Y135.472 E.0215
G1 X135.124 Y136.125 E.03052
G1 X134.328 Y136.585 E.02883
G1 X133.401 Y136.884 E.03054
G1 X132.5 Y136.977 E.0284
G1 X98.5 Y136.977 E1.06605
G1 X97.676 Y136.899 E.02595
G1 X97.014 Y136.722 E.02149
G1 X96.074 Y136.261 E.03283
G1 X95.528 Y135.846 E.0215
G1 X94.875 Y135.124 E.03052
G1 X94.415 Y134.328 E.02883
G1 X94.116 Y133.401 E.03054
G1 X94.023 Y132.5 E.0284
G1 X94.023 Y98.5 E1.06605
G1 X94.101 Y97.676 E.02595
G1 X94.278 Y97.014 E.02149
G1 X94.739 Y96.074 E.03283
G1 X95.117 Y95.575 E.01963
; printing object Vase Mode Single Cell With Label.stl id:0 copy 0
G1 E-3.5 F3600
;WIPE_START
G1 F7200
G1 X95.876 Y94.875 E-.49044
G1 X96.593 Y94.452 E-.39543
G1 X97.384 Y94.166 E-.39953
G1 X97.831 Y94.098 E-.2146
;WIPE_END
G1 X98.053 Y98.123 F9000
G1 E5 F2400
;TYPE:External perimeter
;WIDTH:0.419999
G1 F1200
G1 X98.303 Y97.949 E.00955
G1 X98.521 Y97.91 E.00694
G1 X132.402 Y97.911 E1.06231
G1 X132.667 Y97.958 E.00844
G1 X132.871 Y98.058 E.00712
G1 X133.05 Y98.296 E.00934
G1 X133.09 Y98.579 E.00896
G1 X133.09 Y132.42 E1.06106
G1 X133.066 Y132.615 E.00616
G1 X132.947 Y132.877 E.00902
G1 X132.697 Y133.051 E.00955
G1 X132.479 Y133.09 E.00694
G1 X98.58 Y133.09 E1.06288
G1 X98.385 Y133.066 E.00616
G1 X98.123 Y132.947 E.00902
G1 X97.949 Y132.697 E.00955
G1 X97.91 Y132.479 E.00694
G1 X97.91 Y98.58 E1.06288
G1 X97.934 Y98.385 E.00616
G1 X98.028 Y98.178 E.00713
G1 E-3.5 F3600
;WIPE_START
G1 F7200
G1 X98.303 Y97.949 E-.16998
G1 X98.521 Y97.91 E-.10519
G1 X101.1 Y97.91 E-1.22483
;WIPE_END
G1 X132.969 Y99.089 F9000
G1 E5 F2400
;TYPE:Solid infill
;WIDTH:0.420178
G1 F1200
G1 X132.082 Y98.202 E.03935
G1 X131.549 Y98.202 E.01672
G1 X132.8 Y99.453 E.0555
G1 X132.8 Y99.986 E.01672
G1 X131.015 Y98.202 E.07917
G1 X130.482 Y98.202 E.01672
G1 X132.8 Y100.52 E.10283
G1 X132.8 Y101.053 E.01672
G1 X129.948 Y98.202 E.1265
G1 X129.415 Y98.202 E.01672
G1 X132.8 Y101.587 E.15017
G1 X132.8 Y102.12 E.01672
G1 X128.881 Y98.202 E.17384
G1 X128.348 Y98.202 E.01672
G1 X132.8 Y102.654 E.1975
G1 X132.8 Y103.187 E.01672
G1 X127.814 Y98.202 E.22117
G1 X127.28 Y98.202 E.01675
G1 X132.8 Y103.721 E.24486
G1 X132.8 Y104.254 E.01672
G1 X126.747 Y98.202 E.2685
G1 X126.213 Y98.202 E.01675
G1 X132.8 Y104.788 E.29219
G1 X132.8 Y105.321 E.01672
G1 X125.68 Y98.201 E.31586
G1 X125.146 Y98.201 E.01675
G1 X132.8 Y105.855 E.33955
G1 X132.8 Y106.388 E.01672
G1 X124.613 Y98.201 E.3632
G1 X124.079 Y98.201 E.01675
G1 X132.8 Y106.922 E.38689
G1 X132.8 Y107.455 E.01672
G1 X123.546 Y98.201 E.41053
G1 X123.012 Y98.201 E.01675
G1 X132.8 Y107.989 E.43422
G1 X132.8 Y108.522 E.01672
G1 X122.479 Y98.201 E.45787
G1 X121.945 Y98.201 E.01675
G1 X132.8 Y109.056 E.48156
G1 X132.8 Y109.589 E.01672
G1 X121.411 Y98.201 E.50522
G1 X120.878 Y98.201 E.01672
G1 X132.8 Y110.123 E.52889
G1 X132.8 Y110.657 E.01675
G1 X120.344 Y98.201 E.55258
G1 X119.811 Y98.201 E.01672
G1 X132.8 Y111.19 E.57623
G1 X132.8 Y111.724 E.01675
G1 X119.277 Y98.201 E.59992
G1 X118.744 Y98.201 E.01672
G1 X132.8 Y112.257 E.62356
G1 X132.8 Y112.791 E.01675
G1 X118.21 Y98.201 E.64725
G1 X117.677 Y98.201 E.01672
G1 X132.8 Y113.324 E.6709
G1 X132.8 Y113.858 E.01675
G1 X117.143 Y98.201 E.69459
G1 X116.61 Y98.201 E.01672
G1 X132.8 Y114.391 E.71823
G1 X132.8 Y114.925 E.01675
G1 X116.076 Y98.201 E.74192
G1 X115.542 Y98.201 E.01675
G1 X132.8 Y115.458 E.76559
G1 X132.8 Y115.992 E.01675
G1 X115.009 Y98.201 E.78926
G1 X114.475 Y98.201 E.01675
G1 X132.8 Y116.525 E.81292
G1 X132.8 Y117.059 E.01675
G1 X113.942 Y98.201 E.83659
G1 X113.408 Y98.201 E.01675
G1 X132.8 Y117.592 E.86026
G1 X132.8 Y118.126 E.01675
G1 X112.875 Y98.201 E.88393
G1 X112.341 Y98.201 E.01675
G1 X132.8 Y118.659 E.90759
G1 X132.8 Y119.193 E.01675
G1 X111.808 Y98.201 E.93126
G1 X111.274 Y98.201 E.01675
G1 X132.8 Y119.726 E.95493
G1 X132.8 Y120.26 E.01675
G1 X110.741 Y98.201 E.9786
G1 X110.207 Y98.201 E.01675
G1 X132.8 Y120.793 E1.00226
G1 X132.8 Y121.327 E.01675
G1 X109.673 Y98.201 E1.02595
G1 X109.14 Y98.201 E.01672
G1 X132.8 Y121.861 E1.04962
G1 X132.8 Y122.394 E.01672
G1 X108.606 Y98.201 E1.07329
G1 X108.073 Y98.201 E.01672
G1 X132.8 Y122.928 E1.09696
G1 X132.8 Y123.461 E.01672
G1 X107.539 Y98.201 E1.12062
G1 X107.006 Y98.201 E.01672
G1 X132.8 Y123.995 E1.14429
G1 X132.8 Y124.528 E.01672
G1 X106.472 Y98.201 E1.16796
G1 X105.939 Y98.201 E.01672
G1 X132.8 Y125.062 E1.19163
G1 X132.8 Y125.595 E.01672
G1 X105.405 Y98.201 E1.21529
G1 X104.872 Y98.201 E.01672
G1 X132.8 Y126.129 E1.23896
G1 X132.8 Y126.662 E.01672
G1 X104.338 Y98.201 E1.26263
G1 X103.804 Y98.201 E.01675
G1 X132.8 Y127.196 E1.28632
G1 X132.8 Y127.729 E.01672
G1 X103.271 Y98.201 E1.30996
G1 X102.737 Y98.201 E.01675
G1 X132.8 Y128.263 E1.33365
G1 X132.8 Y128.796 E.01672
G1 X102.204 Y98.201 E1.3573
G1 X101.67 Y98.2 E.01675
G1 X132.8 Y129.33 E1.38101
G1 X132.8 Y129.863 E.01672
G1 X101.137 Y98.2 E1.40465
G1 X100.603 Y98.2 E.01675
G1 X132.8 Y130.397 E1.42834
G1 X132.8 Y130.93 E.01672
G1 X100.07 Y98.2 E1.45199
G1 X99.536 Y98.2 E.01675
G1 X132.8 Y131.464 E1.47568
G1 X132.8 Y131.997 E.01672
G1 X99.003 Y98.2 E1.49932
G1 X98.484 Y98.215 E.01629
G1 X132.788 Y132.519 E1.52182
G1 X132.773 Y132.602 E.00265
G1 X132.73 Y132.675 E.00266
G1 X132.584 Y132.776 E.00557
G1 X132.522 Y132.787 E.00198
G1 X98.213 Y98.478 E1.52204
G1 X98.2 Y98.999 E.01635
G1 X132.001 Y132.8 E1.4995
G1 X131.468 Y132.8 E.01672
G1 X98.2 Y99.532 E1.47586
G1 X98.2 Y100.066 E.01675
G1 X130.934 Y132.8 E1.45217
G1 X130.401 Y132.8 E.01672
G1 X98.2 Y100.599 E1.42852
G1 X98.2 Y101.133 E.01675
G1 X129.867 Y132.8 E1.40483
G1 X129.334 Y132.8 E.01672
G1 X98.2 Y101.666 E1.38119
G1 X98.2 Y102.2 E.01675
G1 X128.8 Y132.8 E1.3575
G1 X128.267 Y132.8 E.01672
G1 X98.2 Y102.733 E1.33385
G1 X98.2 Y103.267 E.01675
G1 X127.733 Y132.8 E1.31016
G1 X127.2 Y132.8 E.01672
G1 X98.2 Y103.8 E1.28652
G1 X98.2 Y104.334 E.01675
G1 X126.666 Y132.8 E1.26283
G1 X126.132 Y132.8 E.01675
G1 X98.2 Y104.868 E1.23914
G1 X98.2 Y105.401 E.01672
G1 X125.599 Y132.8 E1.21549
G1 X125.065 Y132.8 E.01675
G1 X98.2 Y105.935 E1.1918
G1 X98.2 Y106.468 E.01672
G1 X124.532 Y132.8 E1.16816
G1 X123.998 Y132.8 E.01675
G1 X98.2 Y107.002 E1.14447
G1 X98.2 Y107.535 E.01672
G1 X123.465 Y132.8 E1.12082
G1 X122.931 Y132.8 E.01675
G1 X98.2 Y108.069 E1.09713
G1 X98.2 Y108.602 E.01672
G1 X122.398 Y132.8 E1.07349
G1 X121.864 Y132.8 E.01675
G1 X98.2 Y109.136 E1.0498
G1 X98.2 Y109.669 E.01672
G1 X121.331 Y132.8 E1.02615
G1 X120.797 Y132.8 E.01675
G1 X98.2 Y110.203 E1.00246
G1 X98.2 Y110.736 E.01672
G1 X120.264 Y132.8 E.97882
G1 X119.73 Y132.8 E.01675
G1 X98.2 Y111.27 E.95513
G1 X98.2 Y111.803 E.01672
G1 X119.197 Y132.8 E.93148
G1 X118.663 Y132.8 E.01675
G1 X98.2 Y112.337 E.90779
G1 X98.2 Y112.87 E.01672
G1 X118.13 Y132.8 E.88415
G1 X117.596 Y132.8 E.01675
G1 X98.2 Y113.404 E.86046
G1 X98.2 Y113.937 E.01672
G1 X117.063 Y132.8 E.83681
G1 X116.529 Y132.8 E.01675
G1 X98.2 Y114.471 E.81312
G1 X98.2 Y115.004 E.01672
G1 X115.996 Y132.8 E.78948
G1 X115.462 Y132.8 E.01675
G1 X98.2 Y115.538 E.76579
G1 X98.2 Y116.071 E.01672
G1 X114.929 Y132.8 E.74214
G1 X114.395 Y132.8 E.01675
G1 X98.2 Y116.605 E.71845
G1 X98.2 Y117.139 E.01675
G1 X113.861 Y132.8 E.69476
G1 X113.328 Y132.8 E.01672
G1 X98.2 Y117.672 E.67112
G1 X98.2 Y118.206 E.01675
G1 X112.794 Y132.8 E.64743
G1 X112.261 Y132.8 E.01672
G1 X98.2 Y118.739 E.62378
G1 X98.2 Y119.273 E.01675
G1 X111.727 Y132.8 E.60009
G1 X111.194 Y132.8 E.01672
G1 X98.2 Y119.806 E.57645
G1 X98.2 Y120.34 E.01675
G1 X110.66 Y132.8 E.55276
G1 X110.127 Y132.8 E.01672
G1 X98.2 Y120.873 E.52911
G1 X98.2 Y121.407 E.01675
G1 X109.593 Y132.8 E.50542
G1 X109.06 Y132.8 E.01672
G1 X98.2 Y121.94 E.48178
G1 X98.2 Y122.474 E.01675
G1 X108.526 Y132.8 E.45809
G1 X107.993 Y132.8 E.01672
G1 X98.2 Y123.007 E.43444
G1 X98.2 Y123.541 E.01675
G1 X107.459 Y132.8 E.41075
G1 X106.926 Y132.8 E.01672
G1 X98.2 Y124.074 E.38711
G1 X98.2 Y124.608 E.01675
G1 X106.392 Y132.8 E.36342
G1 X105.859 Y132.8 E.01672
G1 X98.2 Y125.141 E.33977
G1 X98.2 Y125.675 E.01675
G1 X105.325 Y132.8 E.31608
G1 X104.792 Y132.8 E.01672
G1 X98.2 Y126.208 E.29244
G1 X98.2 Y126.742 E.01675
G1 X104.258 Y132.8 E.26875
G1 X103.725 Y132.8 E.01672
G1 X98.2 Y127.275 E.2451
G1 X98.2 Y127.809 E.01675
G1 X103.191 Y132.8 E.22141
G1 X102.657 Y132.8 E.01675
G1 X98.2 Y128.343 E.19772
G1 X98.2 Y128.876 E.01672
G1 X102.124 Y132.8 E.17408
G1 X101.59 Y132.8 E.01675
G1 X98.2 Y129.41 E.15039
G1 X98.2 Y129.943 E.01672
G1 X101.057 Y132.8 E.12674
G1 X100.523 Y132.8 E.01675
G1 X98.2 Y130.477 E.10305
G1 X98.2 Y131.01 E.01672
G1 X99.99 Y132.8 E.07941
G1 X99.456 Y132.8 E.01675
G1 X98.2 Y131.544 E.05572
G1 X98.2 Y132.077 E.01672
G1 X99.092 Y132.969 E.03957
; stop printing object Vase Mode Single Cell With Label.stl id:0 copy 0
;LAYER_CHANGE
;Z:0.4
;HEIGHT:0.2
;BEFORE_LAYER_CHANGE
G92 E0
;0.4


G1 Z.4 F9000
;AFTER_LAYER_CHANGE
;0.4
G1 E-5 F3600
G1 X99.092 Y136.977 F9000
G1 E5 F2400
;TYPE:Skirt/Brim
;WIDTH:0.42
G1 X98.5 Y136.977 E.01856
G1 X97.676 Y136.899 E.02595
G1 X97.014 Y136.722 E.02149
G1 X96.074 Y136.261 E.03283
G1 X95.528 Y135.846 E.0215
G1 X94.875 Y135.124 E.03052
G1 X94.415 Y134.328 E.02883
G1 X94.116 Y133.401 E.03054
G1 X94.023 Y132.5 E.0284
G1 X94.023 Y98.5 E1.06605
G1 X94.101 Y97.676 E.02595
G1 X94.278 Y97.014 E.02149
G1 X94.739 Y96.074 E.03283
G1 X95.154 Y95.528 E.0215
G1 X95.876 Y94.875 E.03052
G1 X96.593 Y94.452 E.0261
G1 X97.384 Y94.166 E.02637
G1 X98.279 Y94.03 E.02838
G1 X132.721 Y94.03 E1.0799
G1 X133.616 Y94.166 E.02838
G1 X134.328 Y94.415 E.02365
G1 X134.991 Y94.783 E.02378
G1 X135.634 Y95.305 E.02597
G1 X136.175 Y95.948 E.02635
G1 X136.585 Y96.672 E.02609
G1 X136.834 Y97.384 E.02365
G1 X136.965 Y98.201 E.02594
G1 X136.977 Y132.5 E1.07542
G1 X136.899 Y133.324 E.02595
G1 X136.722 Y133.986 E.02149
G1 X136.261 Y134.926 E.03283
G1 X135.846 Y135.472 E.0215
G1 X135.124 Y136.125 E.03052
G1 X134.328 Y136.585 E.02883
G1 X133.401 Y136.884 E.03054
G1 X132.5 Y136.977 E.0284
G1 X99.152 Y136.977 E1.0456
; printing object Vase Mode Single Cell With Label.stl id:0 copy 0
G1 E-3.5 F3600
;WIPE_START
G1 F7200
G1 X98.5 Y136.977 E-.3097
G1 X97.676 Y136.899 E-.39315
G1 X97.014 Y136.722 E-.3255
G1 X96.123 Y136.285 E-.47165
;WIPE_END
G1 X99.152 Y133.39 F9000
G1 E5 F2400
;TYPE:External perimeter
;WIDTH:0.419999
G1 F1500
G1 X98.613 Y133.39 E.0169
G1 X98.177 Y133.325 E.01382
G1 X97.894 Y133.147 E.01048
G1 X97.676 Y132.829 E.01209
G1 X97.61 Y132.481 E.01111
G1 X97.61 Y98.613 E1.06191
G1 X97.675 Y98.177 E.01382
G1 X97.853 Y97.894 E.01048
G1 X98.171 Y97.676 E.01209
G1 X98.518 Y97.61 E.01107
G1 X132.426 Y97.615 E1.06316
G1 X132.887 Y97.705 E.01473
G1 X133.151 Y97.899 E.01027
G1 X133.325 Y98.177 E.01028
G1 X133.39 Y98.612 E.01379
G1 X133.39 Y132.387 E1.05899
G1 X133.325 Y132.823 E.01382
G1 X133.147 Y133.106 E.01048
G1 X132.829 Y133.324 E.01209
G1 X132.481 Y133.39 E.01111
G1 X99.212 Y133.39 E1.04312
G1 E-3.5 F3600
;WIPE_START
G1 F7200
G1 X98.613 Y133.39 E-.28453
G1 X98.177 Y133.325 E-.20939
G1 X97.894 Y133.147 E-.1588
G1 X97.676 Y132.829 E-.18314
G1 X97.61 Y132.481 E-.16825
G1 X97.61 Y131.437 E-.49589
;WIPE_END
G1 X98.529 Y97.924 F9000
G1 E5 F2400
;TYPE:Solid infill
;WIDTH:0.439999
G1 X97.911 Y98.542 E.02886
G1 X97.91 Y99.105 E.01859
G1 X99.105 Y97.91 E.0558
G1 X99.666 Y97.911 E.01852
G1 X97.91 Y99.666 E.08197
G1 X97.91 Y100.228 E.01856
G1 X100.228 Y97.911 E.10821
G1 X100.789 Y97.911 E.01852
G1 X97.91 Y100.789 E.13441
G1 X97.91 Y101.351 E.01856
G1 X101.35 Y97.911 E.16063
G1 X101.912 Y97.911 E.01856
G1 X97.91 Y101.912 E.18684
G1 X97.91 Y102.474 E.01856
G1 X102.473 Y97.911 E.21306
G1 X103.035 Y97.911 E.01856
G1 X97.91 Y103.036 E.2393
G1 X97.91 Y103.597 E.01852
G1 X103.596 Y97.911 E.2655
G1 X104.158 Y97.911 E.01856
G1 X97.91 Y104.159 E.29174
G1 X97.91 Y104.72 E.01852
G1 X104.719 Y97.911 E.31794
G1 X105.281 Y97.911 E.01856
G1 X97.91 Y105.282 E.34418
G1 X97.91 Y105.843 E.01852
G1 X105.842 Y97.911 E.37037
G1 X106.404 Y97.912 E.01856
G1 X97.91 Y106.405 E.39659
G1 X97.91 Y106.966 E.01852
G1 X106.965 Y97.912 E.42279
G1 X107.527 Y97.912 E.01856
G1 X97.91 Y107.528 E.44903
G1 X97.91 Y108.09 E.01856
G1 X108.088 Y97.912 E.47525
G1 X108.65 Y97.912 E.01856
G1 X97.91 Y108.651 E.50146
G1 X97.91 Y109.213 E.01856
G1 X109.211 Y97.912 E.52768
G1 X109.773 Y97.912 E.01856
G1 X97.91 Y109.774 E.5539
G1 X97.91 Y110.336 E.01856
G1 X110.334 Y97.912 E.58012
G1 X110.895 Y97.912 E.01852
G1 X97.91 Y110.897 E.60631
G1 X97.91 Y111.459 E.01856
G1 X111.457 Y97.912 E.63256
G1 X112.018 Y97.912 E.01852
G1 X97.91 Y112.02 E.65875
G1 X97.91 Y112.582 E.01856
G1 X112.58 Y97.912 E.68499
G1 X113.141 Y97.913 E.01852
G1 X97.91 Y113.144 E.71119
G1 X97.91 Y113.705 E.01852
G1 X113.703 Y97.913 E.73741
G1 X114.264 Y97.913 E.01852
G1 X97.91 Y114.267 E.76362
G1 X97.91 Y114.828 E.01852
G1 X114.826 Y97.913 E.78984
G1 X115.387 Y97.913 E.01852
G1 X97.91 Y115.39 E.81606
G1 X97.91 Y115.951 E.01852
G1 X115.949 Y97.913 E.84228
G1 X116.51 Y97.913 E.01852
G1 X97.91 Y116.513 E.8685
G1 X97.91 Y117.074 E.01852
G1 X117.072 Y97.913 E.89472
G1 X117.633 Y97.913 E.01852
G1 X97.91 Y117.636 E.92093
G1 X97.91 Y118.198 E.01856
G1 X118.195 Y97.913 E.94718
G1 X118.756 Y97.913 E.01852
G1 X97.91 Y118.759 E.97337
G1 X97.91 Y119.321 E.01856
G1 X119.318 Y97.913 E.99961
G1 X119.879 Y97.914 E.01852
G1 X97.91 Y119.882 E1.02578
G1 X97.91 Y120.444 E.01856
G1 X120.44 Y97.914 E1.052
G1 X121.002 Y97.914 E.01856
G1 X97.91 Y121.005 E1.07822
G1 X97.91 Y121.567 E.01856
G1 X121.563 Y97.914 E1.10444
G1 X122.125 Y97.914 E.01856
G1 X97.91 Y122.128 E1.13066
G1 X97.91 Y122.69 E.01856
G1 X122.686 Y97.914 E1.15688
G1 X123.248 Y97.914 E.01856
G1 X97.91 Y123.252 E1.18312
G1 X97.91 Y123.813 E.01852
G1 X123.809 Y97.914 E1.20931
G1 X124.371 Y97.914 E.01856
G1 X97.91 Y124.375 E1.23556
G1 X97.91 Y124.936 E.01852
G1 X124.932 Y97.914 E1.26175
G1 X125.494 Y97.914 E.01856
G1 X97.91 Y125.498 E1.28799
G1 X97.91 Y126.059 E.01852
G1 X126.055 Y97.915 E1.31416
G1 X126.617 Y97.915 E.01856
G1 X97.91 Y126.621 E1.34041
G1 X97.91 Y127.182 E.01852
G1 X127.178 Y97.915 E1.3666
G1 X127.74 Y97.915 E.01856
G1 X97.91 Y127.744 E1.39284
G1 X97.91 Y128.306 E.01856
G1 X128.301 Y97.915 E1.41906
G1 X128.863 Y97.915 E.01856
G1 X97.91 Y128.867 E1.44528
G1 X97.91 Y129.429 E.01856
G1 X129.424 Y97.915 E1.4715
G1 X129.985 Y97.915 E.01852
G1 X97.91 Y129.99 E1.49769
G1 X97.91 Y130.552 E.01856
G1 X130.547 Y97.915 E1.52393
G1 X131.108 Y97.915 E.01852
G1 X97.91 Y131.113 E1.55013
G1 X97.91 Y131.675 E.01856
G1 X131.67 Y97.915 E1.57637
G1 X132.231 Y97.915 E.01852
G1 X97.91 Y132.236 E1.60257
G1 X97.969 Y132.74 E.01675
