; generated by PrusaSlicer 2.7.0+win64 on 2023-12-10 at 09:58:04 UTC

; 

; external perimeters extrusion width = 0.45mm
; perimeters extrusion width = 0.45mm
; infill extrusion width = 0.45mm
; solid infill extrusion width = 0.45mm
; top infill extrusion width = 0.40mm
; first layer extrusion width = 0.42mm

;TYPE:Custom
G90 ; use absolute coordinates
M83 ; extruder relative mode
M104 S150 ; set temporary nozzle temp to prevent oozing during homing
M140 S70 ; set final bed temp
G4 S30 ; allow partial nozzle warmup
G28 ; home all axis
G1 Z50 F240
G1 X2.0 Y10 F3000
M104 S240 ; set final nozzle temp
M190 S70 ; wait for bed temp to stabilize
M109 S240 ; wait for nozzle temp to stabilize
G1 Z0.28 F240
G92 E0
G1 X2.0 Y140 E10 F1500 ; prime the nozzle
G1 X2.3 Y140 F5000
G92 E0
G1 X2.3 Y10 E10 F1200 ; prime the nozzle
G92 E0
G21 ; set units to millimeters
G90 ; use absolute coordinates
M83 ; use relative distances for extrusion
; Filament gcode
M107
;LAYER_CHANGE
;Z:0.35
;HEIGHT:0.35
;BEFORE_LAYER_CHANGE
G92 E0
;0.35


G1 E-5 F3600
G1 Z.35 F7800
;AFTER_LAYER_CHANGE
;0.35
G1 X66.202 Y61.554
G1 Z.35
G1 E5 F2400
;TYPE:Skirt/Brim
;WIDTH:0.42
G1 F1800
G1 X67.18 Y60.679 E.06586
G1 X68.755 Y59.674 E.09376
G1 X69.912 Y59.172 E.0633
G1 X70.805 Y58.896 E.04691
G1 X71.946 Y58.673 E.05835
G1 X73.004 Y58.586 E.05328
G1 X157.996 Y58.586 E4.2654
G1 X159.054 Y58.673 E.05328
G1 X160.195 Y58.896 E.05835
G1 X161.088 Y59.172 E.04691
G1 X162.245 Y59.674 E.0633
G1 X163.099 Y60.167 E.04949
G1 X164.113 Y60.918 E.06333
G1 X164.956 Y61.719 E.05836
G1 X165.67 Y62.571 E.05579
G1 X166.31 Y63.54 E.05828
G1 X177.413 Y82.783 E1.11495
G1 X177.866 Y83.742 E.05323
G1 X178.244 Y84.843 E.05842
G1 X178.452 Y85.754 E.0469
G1 X178.595 Y87.007 E.06329
G1 X178.606 Y143.615 E2.84092
G1 X178.512 Y144.873 E.06331
G1 X178.112 Y146.595 E.08872
G1 X177.413 Y148.217 E.08864
G1 X166.31 Y167.46 E1.11495
G1 X165.42 Y168.749 E.07861
G1 X164.798 Y169.446 E.04688
G1 X163.82 Y170.321 E.06586
G1 X163.013 Y170.888 E.0495
G1 X161.951 Y171.47 E.06078
G1 X160.872 Y171.903 E.05835
G1 X159.85 Y172.186 E.05322
G1 X158.878 Y172.35 E.04947
G1 X157.719 Y172.42 E.05827
G1 X73.004 Y172.414 E4.2515
G1 X71.249 Y172.208 E.08868
G1 X69.912 Y171.828 E.06976
G1 X68.422 Y171.146 E.08224
G1 X67.18 Y170.321 E.07483
G1 X65.889 Y169.114 E.0887
G1 X64.834 Y167.697 E.08866
G1 X53.72 Y148.46 E1.11497
G1 X53.201 Y147.422 E.05824
G1 X52.756 Y146.157 E.0673
G1 X52.488 Y144.873 E.06583
G1 X52.394 Y143.615 E.06331
G1 X52.394 Y87.385 E2.82195
G1 X52.548 Y85.754 E.08222
G1 X53.049 Y83.955 E.09372
G1 X53.72 Y82.54 E.07859
G1 X64.69 Y63.54 E1.10105
G1 X65.58 Y62.251 E.07861
G1 X66.162 Y61.598 E.0439
G1 E-3.5 F3600
;WIPE_START
G1 F6240
G1 X66.202 Y61.554 E-.03259
G1 X67.18 Y60.679 E-.71924
G1 X68.331 Y59.945 E-.74817
;WIPE_END
G1 X158.583 Y72.327 F7800
G1 E5 F2400
;TYPE:Perimeter
;WIDTH:0.42
G1 F1800
G1 X158.419 Y72.473 E.01102
G1 X158.265 Y72.824 E.01924
G1 X158.26 Y73.121 E.01491
G1 X158.365 Y73.418 E.01581
G1 X164.752 Y84.482 E.64113
G1 X164.957 Y84.721 E.0158
G1 X165.217 Y84.865 E.01492
G1 X165.574 Y84.91 E.01806
G1 X165.93 Y84.797 E.01874
G1 X169.146 Y82.941 E.18635
G1 X170.985 Y86.127 E.18462
G1 X171.208 Y86.613 E.02684
G1 X171.327 Y87.086 E.02448
G1 X171.338 Y87.338 E.01266
G1 X171.315 Y87.917 E.02908
G1 X171.201 Y88.373 E.02359
G1 X170.995 Y88.856 E.02635
G1 X169.146 Y92.059 E.18561
G1 X165.93 Y90.203 E.18635
G1 X165.598 Y90.093 E.01755
G1 X165.217 Y90.135 E.01924
G1 X164.957 Y90.279 E.01492
G1 X164.752 Y90.518 E.0158
G1 X158.365 Y101.582 E.64113
G1 X158.26 Y101.879 E.01581
G1 X158.265 Y102.176 E.01491
G1 X158.405 Y102.508 E.01808
G1 X158.68 Y102.76 E.01872
G1 X161.896 Y104.616 E.18635
G1 X160.227 Y107.506 E.16749
G1 X159.891 Y108.027 E.03111
G1 X159.547 Y108.437 E.02686
G1 X159.118 Y108.756 E.02683
G1 X158.671 Y108.983 E.02516
G1 X158.22 Y109.112 E.02354
G1 X157.698 Y109.175 E.02639
G1 X153.999 Y109.175 E.18564
G1 X153.999 Y105.462 E.18634
G1 X153.928 Y105.12 E.01753
G1 X153.701 Y104.811 E.01924
G1 X153.447 Y104.658 E.01488
G1 X153.137 Y104.6 E.01583
G1 X140.362 Y104.6 E.64112
G1 X140.052 Y104.658 E.01583
G1 X139.797 Y104.811 E.01492
G1 X139.58 Y105.098 E.01806
G1 X139.5 Y105.462 E.0187
G1 X139.5 Y109.175 E.18634
G1 X135.821 Y109.175 E.18463
G1 X135.288 Y109.126 E.02686
G1 X134.819 Y108.992 E.02448
G1 X134.567 Y108.861 E.01425
G1 X134.14 Y108.598 E.02517
G1 X133.789 Y108.256 E.02459
G1 X133.452 Y107.82 E.02766
G1 X131.603 Y104.616 E.18565
G1 X134.818 Y102.76 E.1863
G1 X135.079 Y102.527 E.01756
G1 X135.234 Y102.176 E.01926
G1 X135.239 Y101.879 E.01491
G1 X135.134 Y101.582 E.01581
G1 X128.746 Y90.518 E.64116
G1 X128.542 Y90.279 E.01577
G1 X128.282 Y90.135 E.01492
G1 X127.924 Y90.09 E.01811
G1 X127.568 Y90.203 E.01874
G1 X124.353 Y92.059 E.1863
G1 X122.514 Y88.873 E.18462
G1 X122.29 Y88.387 E.02686
G1 X122.172 Y87.914 E.02447
G1 X122.157 Y87.584 E.01658
G1 X122.183 Y87.083 E.02518
G1 X122.297 Y86.627 E.02359
G1 X122.504 Y86.144 E.02637
G1 X124.353 Y82.941 E.18561
G1 X127.568 Y84.797 E.1863
G1 X127.901 Y84.907 E.0176
G1 X128.282 Y84.865 E.01924
G1 X128.542 Y84.721 E.01492
G1 X128.746 Y84.482 E.01577
G1 X135.134 Y73.418 E.64116
G1 X135.239 Y73.121 E.01581
G1 X135.234 Y72.824 E.01491
G1 X135.093 Y72.492 E.0181
G1 X134.818 Y72.24 E.01872
G1 X131.603 Y70.384 E.1863
G1 X133.542 Y67.048 E.19365
G1 X133.918 Y66.584 E.02997
G1 X134.302 Y66.276 E.0247
G1 X134.837 Y65.999 E.03023
G1 X135.295 Y65.881 E.02374
G1 X135.809 Y65.825 E.02595
G1 X139.5 Y65.825 E.18524
G1 X139.5 Y69.538 E.18634
G1 X139.571 Y69.88 E.01753
G1 X139.797 Y70.189 E.01921
G1 X140.052 Y70.342 E.01492
G1 X140.362 Y70.4 E.01583
G1 X153.137 Y70.4 E.64112
G1 X153.447 Y70.342 E.01583
G1 X153.701 Y70.189 E.01488
G1 X153.918 Y69.902 E.01806
G1 X153.999 Y69.538 E.01871
G1 X153.999 Y65.825 E.18634
G1 X157.678 Y65.825 E.18463
G1 X158.211 Y65.874 E.02686
G1 X158.679 Y66.008 E.02443
G1 X158.932 Y66.139 E.0143
G1 X159.359 Y66.402 E.02517
G1 X159.709 Y66.744 E.02456
G1 X160.046 Y67.18 E.02766
G1 X161.896 Y70.384 E.18567
G1 X158.68 Y72.24 E.18635
G1 X158.628 Y72.287 E.00352
G1 X158.839 Y72.558 F7800
G1 F1800
G1 X158.773 Y72.596 E.00382
G1 X158.643 Y72.768 E.01082
G1 X158.594 Y72.987 E.01126
G1 X158.663 Y73.246 E.01345
G1 X165.051 Y84.309 E.64112
G1 X165.126 Y84.409 E.00627
G1 X165.33 Y84.539 E.01214
G1 X165.544 Y84.566 E.01082
G1 X165.758 Y84.499 E.01125
G1 X169.272 Y82.47 E.20364
G1 X171.292 Y85.968 E.20272
G1 X171.535 Y86.498 E.02926
G1 X171.67 Y87.036 E.02784
G1 X171.683 Y87.323 E.01442
G1 X171.7 Y87.687 E.01829
G1 X171.616 Y88.234 E.02777
G1 X171.501 Y88.56 E.01735
G1 X171.298 Y89.021 E.02528
G1 X169.272 Y92.53 E.20335
G1 X165.668 Y90.461 E.20856
G1 X165.454 Y90.434 E.01082
G1 X165.24 Y90.501 E.01125
G1 X165.051 Y90.691 E.01345
G1 X158.663 Y101.754 E.64112
G1 X158.614 Y101.87 E.00632
G1 X158.603 Y102.111 E.01211
G1 X158.688 Y102.31 E.01086
G1 X158.853 Y102.461 E.01122
G1 X162.367 Y104.49 E.20364
G1 X160.349 Y107.985 E.20254
G1 X159.947 Y108.533 E.03411
G1 X159.613 Y108.849 E.02308
G1 X159.063 Y109.201 E.03277
G1 X158.546 Y109.402 E.02784
G1 X158.206 Y109.466 E.01736
G1 X157.706 Y109.52 E.02524
G1 X153.654 Y109.52 E.20335
G1 X153.645 Y105.365 E.20852
G1 X153.561 Y105.166 E.01084
G1 X153.396 Y105.014 E.01126
G1 X153.137 Y104.945 E.01345
G1 X140.362 Y104.945 E.64112
G1 X140.238 Y104.96 E.00627
G1 X140.023 Y105.071 E.01214
G1 X139.893 Y105.244 E.01086
G1 X139.844 Y105.462 E.01121
G1 X139.844 Y109.52 E.20365
G1 X135.805 Y109.52 E.2027
G1 X135.224 Y109.466 E.02928
G1 X134.691 Y109.314 E.02782
G1 X134.11 Y109.013 E.03284
G1 X133.749 Y108.73 E.02302
G1 X133.481 Y108.428 E.02026
G1 X133.158 Y107.999 E.02695
G1 X131.132 Y104.49 E.20335
G1 X134.726 Y102.404 E.20855
G1 X134.856 Y102.232 E.01082
G1 X134.904 Y102.013 E.01125
G1 X134.835 Y101.754 E.01345
G1 X128.448 Y90.691 E.64109
G1 X128.372 Y90.591 E.0063
G1 X128.169 Y90.461 E.0121
G1 X127.955 Y90.434 E.01082
G1 X127.741 Y90.501 E.01125
G1 X124.227 Y92.53 E.20364
G1 X122.207 Y89.032 E.20272
G1 X121.963 Y88.502 E.02928
G1 X121.829 Y87.964 E.02782
G1 X121.799 Y87.313 E.03271
G1 X121.883 Y86.766 E.02777
G1 X121.998 Y86.44 E.01735
G1 X122.201 Y85.979 E.02528
G1 X124.227 Y82.47 E.20335
G1 X127.83 Y84.539 E.20851
G1 X128.045 Y84.566 E.01087
G1 X128.258 Y84.499 E.01121
G1 X128.448 Y84.309 E.01348
G1 X134.835 Y73.246 E.64109
G1 X134.884 Y73.13 E.00632
G1 X134.895 Y72.889 E.01211
G1 X134.811 Y72.69 E.01084
G1 X134.646 Y72.539 E.01122
G1 X131.132 Y70.51 E.20364
G1 X133.255 Y66.856 E.21208
G1 X133.679 Y66.334 E.03375
G1 X134.113 Y65.986 E.02792
G1 X134.702 Y65.681 E.03329
G1 X135.228 Y65.543 E.02729
G1 X135.798 Y65.48 E.02878
G1 X139.844 Y65.48 E.20305
G1 X139.854 Y69.635 E.20852
G1 X139.938 Y69.834 E.01084
G1 X140.103 Y69.986 E.01126
G1 X140.362 Y70.055 E.01345
G1 X153.137 Y70.055 E.64112
G1 X153.261 Y70.04 E.00627
G1 X153.476 Y69.929 E.01214
G1 X153.606 Y69.756 E.01086
G1 X153.654 Y69.538 E.0112
G1 X153.654 Y65.48 E.20365
G1 X157.694 Y65.48 E.20275
G1 X158.275 Y65.534 E.02928
G1 X158.807 Y65.686 E.02777
G1 X159.388 Y65.987 E.03284
G1 X159.75 Y66.27 E.02306
G1 X160.018 Y66.572 E.02026
G1 X160.341 Y67.001 E.02695
G1 X162.367 Y70.51 E.20335
G1 X158.891 Y72.528 E.20171
G1 X159.025 Y72.838 F7800
;TYPE:External perimeter
G1 F1800
G1 X158.953 Y72.918 E.0054
G1 X158.962 Y73.073 E.00779
G1 X165.35 Y84.137 E.64116
G1 X165.443 Y84.214 E.00606
G1 X165.585 Y84.2 E.00716
G1 X169.398 Y81.999 E.22095
G1 X171.598 Y85.81 E.22084
G1 X171.862 Y86.383 E.03166
G1 X172.013 Y86.986 E.0312
G1 X172.028 Y87.307 E.01613
G1 X172.046 Y87.705 E.01999
G1 X171.952 Y88.319 E.03117
G1 X171.822 Y88.688 E.01963
G1 X171.6 Y89.187 E.02741
G1 X169.398 Y93.001 E.22102
G1 X165.585 Y90.8 E.22095
G1 X165.479 Y90.778 E.00543
G1 X165.35 Y90.863 E.00775
G1 X158.962 Y101.927 E.64116
G1 X158.942 Y102.046 E.00606
G1 X159.025 Y102.162 E.00716
G1 X162.838 Y104.364 E.22098
G1 X160.638 Y108.174 E.2208
G1 X160.207 Y108.762 E.03659
G1 X159.827 Y109.121 E.02624
G1 X159.22 Y109.51 E.03618
G1 X158.642 Y109.735 E.03113
G1 X158.256 Y109.807 E.01971
G1 X157.714 Y109.865 E.02736
G1 X153.309 Y109.865 E.22107
G1 X153.309 Y105.462 E.22097
G1 X153.275 Y105.36 E.0054
G1 X153.137 Y105.29 E.00777
G1 X140.362 Y105.29 E.64112
G1 X140.249 Y105.332 E.00605
G1 X140.189 Y105.462 E.00719
G1 X140.189 Y109.865 E.22097
G1 X135.789 Y109.865 E.22082
G1 X135.16 Y109.807 E.0317
G1 X134.563 Y109.636 E.03117
G1 X133.923 Y109.305 E.03616
G1 X133.512 Y108.983 E.0262
G1 X133.19 Y108.619 E.02439
G1 X132.863 Y108.178 E.02755
G1 X130.661 Y104.364 E.22102
G1 X134.473 Y102.162 E.22093
G1 X134.545 Y102.082 E.0054
G1 X134.537 Y101.927 E.00779
G1 X128.149 Y90.863 E.64116
G1 X128.056 Y90.786 E.00606
G1 X127.913 Y90.8 E.00721
G1 X124.101 Y93.001 E.22091
G1 X121.9 Y89.19 E.22086
G1 X121.637 Y88.617 E.03164
G1 X121.486 Y88.014 E.0312
G1 X121.453 Y87.295 E.03612
G1 X121.547 Y86.681 E.03117
G1 X121.677 Y86.312 E.01963
G1 X121.898 Y85.813 E.02739
G1 X124.101 Y81.999 E.22104
G1 X127.913 Y84.2 E.22091
G1 X128.019 Y84.222 E.00543
G1 X128.149 Y84.137 E.00779
G1 X134.537 Y73.073 E.64116
G1 X134.557 Y72.954 E.00606
G1 X134.473 Y72.838 E.00719
G1 X130.661 Y70.636 E.22093
G1 X132.803 Y66.926 E.21499
G1 X133.091 Y66.481 E.0266
G1 X133.439 Y66.084 E.02649
G1 X133.923 Y65.695 E.03116
G1 X134.567 Y65.362 E.03638
G1 X135.161 Y65.205 E.03083
G1 X135.787 Y65.135 E.03161
G1 X140.189 Y65.135 E.22092
G1 X140.189 Y69.538 E.22097
G1 X140.223 Y69.64 E.0054
G1 X140.362 Y69.71 E.00781
G1 X153.137 Y69.71 E.64112
G1 X153.25 Y69.668 E.00605
G1 X153.309 Y69.538 E.00716
G1 X153.309 Y65.135 E.22097
G1 X157.71 Y65.135 E.22087
G1 X158.338 Y65.193 E.03165
G1 X158.935 Y65.364 E.03117
G1 X159.575 Y65.695 E.03616
G1 X159.987 Y66.017 E.02624
G1 X160.309 Y66.381 E.02439
G1 X160.636 Y66.822 E.02755
G1 X162.838 Y70.636 E.22102
G1 X159.077 Y72.808 E.21796
G1 E-3.5 F3600
;WIPE_START
G1 F6240
G1 X159.025 Y72.838 E-.0329
G1 X158.953 Y72.918 E-.05899
G1 X158.962 Y73.073 E-.0851
G1 X160.169 Y75.163 E-1.32301
;WIPE_END
G1 X138.92 Y65.928 F7800
G1 E5 F2400
;TYPE:Solid infill
;WIDTH:0.422149
G1 F1800
G1 X139.241 Y66.25 E.02296
G1 X139.241 Y66.74 E.02474
G1 X138.584 Y66.083 E.04692
G1 X138.093 Y66.083 E.02479
G1 X139.241 Y67.231 E.08199
G1 X139.241 Y67.722 E.02479
G1 X137.602 Y66.083 E.11705
G1 X137.112 Y66.083 E.02474
G1 X139.241 Y68.213 E.15208
G1 X139.241 Y68.704 E.02479
G1 X136.621 Y66.083 E.18715
G1 X136.13 Y66.083 E.02479
G1 X139.396 Y69.35 E.23328
G1 E-3.5 F3600
;WIPE_START
G1 F6240
G1 X137.461 Y67.415 E-1.5
;WIPE_END
G1 X158.82 Y66.198 F7800
G1 E5 F2400
G1 F1800
G1 X159.34 Y66.717 E.0371
G1 X159.708 Y67.132 E.02801
G1 X160.323 Y68.191 E.06184
G1 X158.301 Y66.169 E.1444
G1 X158.163 Y66.13 E.00724
G1 X157.731 Y66.089 E.02191
G1 X161.004 Y69.362 E.23374
G1 X161.542 Y70.289 E.05412
G1 X161.477 Y70.327 E.0038
G1 X157.234 Y66.083 E.30305
G1 X156.743 Y66.083 E.02479
G1 X161.166 Y70.506 E.31587
G1 X160.855 Y70.686 E.01815
G1 X156.252 Y66.083 E.32873
G1 X155.761 Y66.083 E.02479
G1 X160.544 Y70.866 E.34158
G1 X160.233 Y71.045 E.01812
G1 X155.271 Y66.083 E.35437
G1 X154.78 Y66.083 E.02479
G1 X159.921 Y71.225 E.36718
G1 X159.61 Y71.405 E.01815
G1 X154.289 Y66.083 E.38004
G1 X154.258 Y66.083 E.00157
G1 X154.258 Y66.543 E.02323
G1 X159.299 Y71.584 E.36001
G1 X158.988 Y71.764 E.01815
G1 X154.258 Y67.034 E.3378
G1 X154.258 Y67.524 E.02474
G1 X158.677 Y71.944 E.31562
G1 X158.38 Y72.138 E.01791
G1 X154.258 Y68.015 E.29441
G1 X154.258 Y68.506 E.02479
G1 X158.159 Y72.407 E.27859
G1 X158.095 Y72.514 E.0063
G1 X158.016 Y72.756 E.01286
G1 X154.258 Y68.997 E.26842
G1 X154.258 Y69.488 E.02479
G1 X158.028 Y73.258 E.26924
G1 X158.138 Y73.543 E.01543
G1 X158.57 Y74.29 E.04358
G1 X154.189 Y69.909 E.31287
G1 X154.166 Y69.983 E.00391
G1 X154.015 Y70.226 E.01445
G1 X159.24 Y75.452 E.37318
G1 X159.91 Y76.613 E.06769
G1 X153.761 Y70.463 E.43917
G1 X153.538 Y70.585 E.01284
G1 X153.422 Y70.615 E.00605
G1 X160.581 Y77.774 E.51127
G1 X161.251 Y78.935 E.06769
G1 X152.964 Y70.648 E.59182
G1 X152.474 Y70.648 E.02474
G1 X161.922 Y80.096 E.67474
G1 X162.592 Y81.258 E.06773
G1 X151.983 Y70.649 E.75765
G1 X151.493 Y70.649 E.02474
G1 X163.687 Y82.843 E.87084
G1 E-3.5 F3600
;WIPE_START
G1 F6240
G1 X161.752 Y80.908 E-1.5
;WIPE_END
G1 X168.934 Y83.182 F7800
G1 E5 F2400
G1 F1800
G1 X169.058 Y83.306 E.00886
G1 X169.728 Y84.467 E.06769
G1 X168.737 Y83.476 E.07077
G1 X168.425 Y83.655 E.01816
G1 X170.398 Y85.628 E.1409
G1 X170.755 Y86.246 E.03604
G1 X170.95 Y86.671 E.02361
G1 X168.114 Y83.835 E.20254
G1 X167.803 Y84.015 E.01815
G1 X171.077 Y87.289 E.23382
G1 X171.094 Y87.654 E.01845
G1 X171.075 Y87.777 E.00628
G1 X167.492 Y84.194 E.25588
G1 X167.181 Y84.374 E.01815
G1 X170.993 Y88.186 E.27224
G1 X170.863 Y88.547 E.01938
G1 X166.87 Y84.553 E.2852
G1 X166.559 Y84.733 E.01815
G1 X170.691 Y88.865 E.29509
G1 X170.511 Y89.176 E.01815
G1 X166.247 Y84.913 E.30448
G1 X165.926 Y85.083 E.01834
G1 X170.331 Y89.488 E.31459
G1 X170.152 Y89.799 E.01812
G1 X165.519 Y85.166 E.33087
G1 X165.4 Y85.168 E.00601
G1 X165.133 Y85.111 E.01379
G1 X164.939 Y85.022 E.01078
G1 X164.793 Y84.922 E.00894
G1 X164.619 Y84.746 E.0125
G1 X164.53 Y84.614 E.00804
G1 X163.933 Y83.58 E.06029
G1 X151.002 Y70.649 E.92348
G1 X150.512 Y70.65 E.02474
G1 X169.972 Y90.11 E1.38975
G1 X169.793 Y90.421 E.01812
G1 X150.021 Y70.65 E1.412
G1 X149.531 Y70.65 E.02474
G1 X169.613 Y90.732 E1.43417
G1 X169.433 Y91.043 E.01815
G1 X149.041 Y70.651 E1.45631
G1 X148.55 Y70.651 E.02479
G1 X169.254 Y91.354 E1.47856
G1 X169.074 Y91.666 E.01819
G1 X148.06 Y70.651 E1.50077
G1 X147.569 Y70.652 E.02479
G1 X168.039 Y91.122 E1.46188
G1 X166.878 Y90.451 E.06772
G1 X147.079 Y70.652 E1.41396
G1 X146.588 Y70.652 E.02479
G1 X165.814 Y89.878 E1.37304
G1 X165.627 Y89.835 E.00969
G1 X165.371 Y89.835 E.01293
G1 X165.297 Y89.852 E.00383
G1 X146.098 Y70.653 E1.37111
G1 X145.607 Y70.653 E.02479
G1 X164.935 Y89.981 E1.38032
G1 X164.793 Y90.078 E.00868
G1 X164.668 Y90.205 E.009
G1 X145.117 Y70.653 E1.39629
G1 X144.626 Y70.653 E.02479
G1 X164.467 Y90.495 E1.417
G1 X164.288 Y90.806 E.01812
G1 X144.136 Y70.654 E1.43917
G1 X143.645 Y70.654 E.02479
G1 X164.108 Y91.117 E1.46138
